(01-bottom-face-n-outline-3.175-2flute-flat)
(Machine)
(  vendor: Autodesk)
(  model: Sainsmart 3018pro)
(  description: 3018)
G90 G94
G17
G21
(When using Fusion 360 for Personal Use, the feedrate of)
(rapid moves is reduced to match the feedrate of cutting)
(moves, which can increase machining time. Unrestricted rapid)
(moves are available with a Fusion 360 Subscription.)

(Face1)
G54
G0 Z4 F1500
G0 X138.788 Y-1.423
S5000 M3
G1 Z1 F300
Z0.019
G18 G3 X138.47 Z-0.298 I-0.317 K0
G1 X0.53
X-1.177
G17 G2 X-1.177 Y-0.176 I0 J0.624
G1 X140.177
X141.311
G3 X141.311 Y1.072 I0 J0.624
G1 X-2.311
X-3.115
G2 X-3.115 Y2.319 I0 J0.624
G1 X142.115
X142.672
G3 X142.672 Y3.566 I0 J0.624
G1 X-3.672
X-4.032
G2 X-4.032 Y4.814 I0 J0.624
G1 X143.032
X143.216
G3 X143.216 Y6.061 I0 J0.624
G1 X-4.216
X-4.25
G2 X-4.25 Y7.309 I0 J0.624
G1 X143.25
G3 X143.25 Y8.556 I0 J0.624
G1 X-4.25
G2 X-4.25 Y9.803 I0 J0.624
G1 X143.25
G3 X143.25 Y11.051 I0 J0.624
G1 X-4.25
G2 X-4.25 Y12.298 I0 J0.624
G1 X143.25
G3 X143.25 Y13.546 I0 J0.624
G1 X-4.25
G2 X-4.25 Y14.793 I0 J0.624
G1 X143.25
G3 X143.25 Y16.04 I0 J0.624
G1 X-4.25
G2 X-4.25 Y17.288 I0 J0.624
G1 X143.25
G3 X143.25 Y18.535 I0 J0.624
G1 X-4.25
G2 X-4.25 Y19.783 I0 J0.624
G1 X143.25
G3 X143.25 Y21.03 I0 J0.624
G1 X-4.25
G2 X-4.25 Y22.278 I0 J0.624
G1 X143.25
G3 X143.25 Y23.525 I0 J0.624
G1 X-4.25
G2 X-4.25 Y24.772 I0 J0.624
G1 X143.25
G3 X143.25 Y26.02 I0 J0.624
G1 X-4.25
G2 X-4.25 Y27.267 I0 J0.624
G1 X143.25
G3 X143.25 Y28.515 I0 J0.624
G1 X-4.25
G2 X-4.25 Y29.762 I0 J0.624
G1 X143.25
G3 X143.25 Y31.009 I0 J0.624
G1 X-4.25
G2 X-4.25 Y32.257 I0 J0.624
G1 X143.25
G3 X143.25 Y33.504 I0 J0.624
G1 X-4.25
G2 X-4.25 Y34.752 I0 J0.624
G1 X143.25
G3 X143.25 Y35.999 I0 J0.624
G1 X-4.25
G2 X-4.25 Y37.246 I0 J0.624
G1 X143.25
G3 X143.25 Y38.494 I0 J0.624
G1 X-4.25
G2 X-4.25 Y39.741 I0 J0.624
G1 X143.25
G3 X143.25 Y40.989 I0 J0.624
G1 X-4.25
G2 X-4.25 Y42.236 I0 J0.624
G1 X143.25
G3 X143.25 Y43.483 I0 J0.624
G1 X-4.25
G2 X-4.25 Y44.731 I0 J0.624
G1 X143.25
G3 X143.25 Y45.978 I0 J0.624
G1 X-4.25
G2 X-4.25 Y47.226 I0 J0.624
G1 X143.25
G3 X143.25 Y48.473 I0 J0.624
G1 X-4.25
G2 X-4.25 Y49.721 I0 J0.624
G1 X143.25
G3 X143.25 Y50.968 I0 J0.624
G1 X-4.25
G2 X-4.25 Y52.215 I0 J0.624
G1 X143.25
G3 X143.25 Y53.463 I0 J0.624
G1 X-4.25
G2 X-4.25 Y54.71 I0 J0.624
G1 X143.25
G3 X143.25 Y55.958 I0 J0.624
G1 X-4.25
G2 X-4.25 Y57.205 I0 J0.624
G1 X143.25
G3 X143.25 Y58.452 I0 J0.624
G1 X-4.25
G2 X-4.25 Y59.7 I0 J0.624
G1 X143.25
G3 X143.25 Y60.947 I0 J0.624
G1 X-4.25
G2 X-4.25 Y62.195 I0 J0.624
G1 X143.25
G3 X143.25 Y63.442 I0 J0.624
G1 X-4.25
G2 X-4.25 Y64.689 I0 J0.624
G1 X143.25
G3 X143.25 Y65.937 I0 J0.624
G1 X-4.25
G2 X-4.25 Y67.184 I0 J0.624
G1 X143.25
G3 X143.25 Y68.432 I0 J0.624
G1 X-4.25
G2 X-4.25 Y69.679 I0 J0.624
G1 X143.25
G3 X143.25 Y70.926 I0 J0.624
G1 X-4.25
G2 X-4.25 Y72.174 I0 J0.624
G1 X143.25
G3 X143.25 Y73.421 I0 J0.624
G1 X-4.25
G2 X-4.25 Y74.669 I0 J0.624
G1 X143.25
G3 X143.25 Y75.916 I0 J0.624
G1 X-4.25
G2 X-4.25 Y77.163 I0 J0.624
G1 X143.25
G3 X143.25 Y78.411 I0 J0.624
G1 X-4.25
G2 X-4.25 Y79.658 I0 J0.624
G1 X143.25
G3 X143.25 Y80.906 I0 J0.624
G1 X-4.25
G2 X-4.25 Y82.153 I0 J0.624
G1 X143.25
G3 X143.25 Y83.401 I0 J0.624
G1 X-4.25
G2 X-4.25 Y84.648 I0 J0.624
G1 X143.25
G3 X143.25 Y85.895 I0 J0.624
G1 X-4.25
G2 X-4.25 Y87.143 I0 J0.624
G1 X143.25
G3 X143.25 Y88.39 I0 J0.624
G1 X-4.25
G2 X-4.25 Y89.638 I0 J0.624
G1 X143.25
G3 X143.25 Y90.885 I0 J0.624
G1 X-4.25
G2 X-4.25 Y92.132 I0 J0.624
G1 X143.25
G3 X143.25 Y93.38 I0 J0.624
G1 X-4.25
G2 X-4.25 Y94.627 I0 J0.624
G1 X143.25
G3 X143.25 Y95.875 I0 J0.624
G1 X-4.25
G2 X-4.25 Y97.122 I0 J0.624
G1 X143.25
G3 X143.25 Y98.369 I0 J0.624
G1 X-4.25
G2 X-4.25 Y99.617 I0 J0.624
G1 X143.25
G3 X143.25 Y100.864 I0 J0.624
G1 X-4.25
G2 X-4.25 Y102.112 I0 J0.624
G1 X143.25
G3 X143.25 Y103.359 I0 J0.624
G1 X-4.25
G2 X-4.25 Y104.606 I0 J0.624
G1 X143.25
G3 X143.25 Y105.854 I0 J0.624
G1 X-4.25
G2 X-4.25 Y107.101 I0 J0.624
G1 X143.25
G3 X143.25 Y108.349 I0 J0.624
G1 X-4.25
G2 X-4.25 Y109.596 I0 J0.624
G1 X143.25
G3 X143.25 Y110.844 I0 J0.624
G1 X-4.25
G2 X-4.25 Y112.091 I0 J0.624
G1 X143.25
G3 X143.25 Y113.338 I0 J0.624
G1 X143.245
X-4.245
G2 X-4.245 Y114.586 I0 J0.624
G1 X-4.142
X143.142
G3 X143.142 Y115.833 I0 J0.624
G1 X142.868
X-3.868
G2 X-3.868 Y117.081 I0 J0.624
G1 X-3.41
X142.41
G3 X142.41 Y118.328 I0 J0.624
G1 X141.734
X-2.734
G2 X-2.734 Y119.575 I0 J0.624
G1 X-1.773
X140.773
G18 G2 X141.091 Z0.019 I0 K0.318
G1 Z3
X138.788 Y-1.423
Z1
Z-0.731
G3 X138.47 Z-1.048 I-0.317 K0
G1 X0.53
X-1.177
G17 G2 X-1.177 Y-0.176 I0 J0.624
G1 X140.177
X141.311
G3 X141.311 Y1.072 I0 J0.624
G1 X-2.311
X-3.115
G2 X-3.115 Y2.319 I0 J0.624
G1 X142.115
X142.672
G3 X142.672 Y3.566 I0 J0.624
G1 X-3.672
X-4.032
G2 X-4.032 Y4.814 I0 J0.624
G1 X143.032
X143.216
G3 X143.216 Y6.061 I0 J0.624
G1 X-4.216
X-4.25
G2 X-4.25 Y7.309 I0 J0.624
G1 X143.25
G3 X143.25 Y8.556 I0 J0.624
G1 X-4.25
G2 X-4.25 Y9.803 I0 J0.624
G1 X143.25
G3 X143.25 Y11.051 I0 J0.624
G1 X-4.25
G2 X-4.25 Y12.298 I0 J0.624
G1 X143.25
G3 X143.25 Y13.546 I0 J0.624
G1 X-4.25
G2 X-4.25 Y14.793 I0 J0.624
G1 X143.25
G3 X143.25 Y16.04 I0 J0.624
G1 X-4.25
G2 X-4.25 Y17.288 I0 J0.624
G1 X143.25
G3 X143.25 Y18.535 I0 J0.624
G1 X-4.25
G2 X-4.25 Y19.783 I0 J0.624
G1 X143.25
G3 X143.25 Y21.03 I0 J0.624
G1 X-4.25
G2 X-4.25 Y22.278 I0 J0.624
G1 X143.25
G3 X143.25 Y23.525 I0 J0.624
G1 X-4.25
G2 X-4.25 Y24.772 I0 J0.624
G1 X143.25
G3 X143.25 Y26.02 I0 J0.624
G1 X-4.25
G2 X-4.25 Y27.267 I0 J0.624
G1 X143.25
G3 X143.25 Y28.515 I0 J0.624
G1 X-4.25
G2 X-4.25 Y29.762 I0 J0.624
G1 X143.25
G3 X143.25 Y31.009 I0 J0.624
G1 X-4.25
G2 X-4.25 Y32.257 I0 J0.624
G1 X143.25
G3 X143.25 Y33.504 I0 J0.624
G1 X-4.25
G2 X-4.25 Y34.752 I0 J0.624
G1 X143.25
G3 X143.25 Y35.999 I0 J0.624
G1 X-4.25
G2 X-4.25 Y37.246 I0 J0.624
G1 X143.25
G3 X143.25 Y38.494 I0 J0.624
G1 X-4.25
G2 X-4.25 Y39.741 I0 J0.624
G1 X143.25
G3 X143.25 Y40.989 I0 J0.624
G1 X-4.25
G2 X-4.25 Y42.236 I0 J0.624
G1 X143.25
G3 X143.25 Y43.483 I0 J0.624
G1 X-4.25
G2 X-4.25 Y44.731 I0 J0.624
G1 X143.25
G3 X143.25 Y45.978 I0 J0.624
G1 X-4.25
G2 X-4.25 Y47.226 I0 J0.624
G1 X143.25
G3 X143.25 Y48.473 I0 J0.624
G1 X-4.25
G2 X-4.25 Y49.721 I0 J0.624
G1 X143.25
G3 X143.25 Y50.968 I0 J0.624
G1 X-4.25
G2 X-4.25 Y52.215 I0 J0.624
G1 X143.25
G3 X143.25 Y53.463 I0 J0.624
G1 X-4.25
G2 X-4.25 Y54.71 I0 J0.624
G1 X143.25
G3 X143.25 Y55.958 I0 J0.624
G1 X-4.25
G2 X-4.25 Y57.205 I0 J0.624
G1 X143.25
G3 X143.25 Y58.452 I0 J0.624
G1 X-4.25
G2 X-4.25 Y59.7 I0 J0.624
G1 X143.25
G3 X143.25 Y60.947 I0 J0.624
G1 X-4.25
G2 X-4.25 Y62.195 I0 J0.624
G1 X143.25
G3 X143.25 Y63.442 I0 J0.624
G1 X-4.25
G2 X-4.25 Y64.689 I0 J0.624
G1 X143.25
G3 X143.25 Y65.937 I0 J0.624
G1 X-4.25
G2 X-4.25 Y67.184 I0 J0.624
G1 X143.25
G3 X143.25 Y68.432 I0 J0.624
G1 X-4.25
G2 X-4.25 Y69.679 I0 J0.624
G1 X143.25
G3 X143.25 Y70.926 I0 J0.624
G1 X-4.25
G2 X-4.25 Y72.174 I0 J0.624
G1 X143.25
G3 X143.25 Y73.421 I0 J0.624
G1 X-4.25
G2 X-4.25 Y74.669 I0 J0.624
G1 X143.25
G3 X143.25 Y75.916 I0 J0.624
G1 X-4.25
G2 X-4.25 Y77.163 I0 J0.624
G1 X143.25
G3 X143.25 Y78.411 I0 J0.624
G1 X-4.25
G2 X-4.25 Y79.658 I0 J0.624
G1 X143.25
G3 X143.25 Y80.906 I0 J0.624
G1 X-4.25
G2 X-4.25 Y82.153 I0 J0.624
G1 X143.25
G3 X143.25 Y83.401 I0 J0.624
G1 X-4.25
G2 X-4.25 Y84.648 I0 J0.624
G1 X143.25
G3 X143.25 Y85.895 I0 J0.624
G1 X-4.25
G2 X-4.25 Y87.143 I0 J0.624
G1 X143.25
G3 X143.25 Y88.39 I0 J0.624
G1 X-4.25
G2 X-4.25 Y89.638 I0 J0.624
G1 X143.25
G3 X143.25 Y90.885 I0 J0.624
G1 X-4.25
G2 X-4.25 Y92.132 I0 J0.624
G1 X143.25
G3 X143.25 Y93.38 I0 J0.624
G1 X-4.25
G2 X-4.25 Y94.627 I0 J0.624
G1 X143.25
G3 X143.25 Y95.875 I0 J0.624
G1 X-4.25
G2 X-4.25 Y97.122 I0 J0.624
G1 X143.25
G3 X143.25 Y98.369 I0 J0.624
G1 X-4.25
G2 X-4.25 Y99.617 I0 J0.624
G1 X143.25
G3 X143.25 Y100.864 I0 J0.624
G1 X-4.25
G2 X-4.25 Y102.112 I0 J0.624
G1 X143.25
G3 X143.25 Y103.359 I0 J0.624
G1 X-4.25
G2 X-4.25 Y104.606 I0 J0.624
G1 X143.25
G3 X143.25 Y105.854 I0 J0.624
G1 X-4.25
G2 X-4.25 Y107.101 I0 J0.624
G1 X143.25
G3 X143.25 Y108.349 I0 J0.624
G1 X-4.25
G2 X-4.25 Y109.596 I0 J0.624
G1 X143.25
G3 X143.25 Y110.844 I0 J0.624
G1 X-4.25
G2 X-4.25 Y112.091 I0 J0.624
G1 X143.25
G3 X143.25 Y113.338 I0 J0.624
G1 X143.245
X-4.245
G2 X-4.245 Y114.586 I0 J0.624
G1 X-4.142
X143.142
G3 X143.142 Y115.833 I0 J0.624
G1 X142.868
X-3.868
G2 X-3.868 Y117.081 I0 J0.624
G1 X-3.41
X142.41
G3 X142.41 Y118.328 I0 J0.624
G1 X141.734
X-2.734
G2 X-2.734 Y119.575 I0 J0.624
G1 X-1.773
X140.773
G18 G2 X141.091 Z-0.731 I0 K0.318
G1 Z3
X138.788 Y-1.423
Z1
Z-0.831
G3 X138.47 Z-1.148 I-0.317 K0
G1 X0.53
X-1.177
G17 G2 X-1.177 Y-0.176 I0 J0.624
G1 X140.177
X141.311
G3 X141.311 Y1.072 I0 J0.624
G1 X-2.311
X-3.115
G2 X-3.115 Y2.319 I0 J0.624
G1 X142.115
X142.672
G3 X142.672 Y3.566 I0 J0.624
G1 X-3.672
X-4.032
G2 X-4.032 Y4.814 I0 J0.624
G1 X143.032
X143.216
G3 X143.216 Y6.061 I0 J0.624
G1 X-4.216
X-4.25
G2 X-4.25 Y7.309 I0 J0.624
G1 X143.25
G3 X143.25 Y8.556 I0 J0.624
G1 X-4.25
G2 X-4.25 Y9.803 I0 J0.624
G1 X143.25
G3 X143.25 Y11.051 I0 J0.624
G1 X-4.25
G2 X-4.25 Y12.298 I0 J0.624
G1 X143.25
G3 X143.25 Y13.546 I0 J0.624
G1 X-4.25
G2 X-4.25 Y14.793 I0 J0.624
G1 X143.25
G3 X143.25 Y16.04 I0 J0.624
G1 X-4.25
G2 X-4.25 Y17.288 I0 J0.624
G1 X143.25
G3 X143.25 Y18.535 I0 J0.624
G1 X-4.25
G2 X-4.25 Y19.783 I0 J0.624
G1 X143.25
G3 X143.25 Y21.03 I0 J0.624
G1 X-4.25
G2 X-4.25 Y22.278 I0 J0.624
G1 X143.25
G3 X143.25 Y23.525 I0 J0.624
G1 X-4.25
G2 X-4.25 Y24.772 I0 J0.624
G1 X143.25
G3 X143.25 Y26.02 I0 J0.624
G1 X-4.25
G2 X-4.25 Y27.267 I0 J0.624
G1 X143.25
G3 X143.25 Y28.515 I0 J0.624
G1 X-4.25
G2 X-4.25 Y29.762 I0 J0.624
G1 X143.25
G3 X143.25 Y31.009 I0 J0.624
G1 X-4.25
G2 X-4.25 Y32.257 I0 J0.624
G1 X143.25
G3 X143.25 Y33.504 I0 J0.624
G1 X-4.25
G2 X-4.25 Y34.752 I0 J0.624
G1 X143.25
G3 X143.25 Y35.999 I0 J0.624
G1 X-4.25
G2 X-4.25 Y37.246 I0 J0.624
G1 X143.25
G3 X143.25 Y38.494 I0 J0.624
G1 X-4.25
G2 X-4.25 Y39.741 I0 J0.624
G1 X143.25
G3 X143.25 Y40.989 I0 J0.624
G1 X-4.25
G2 X-4.25 Y42.236 I0 J0.624
G1 X143.25
G3 X143.25 Y43.483 I0 J0.624
G1 X-4.25
G2 X-4.25 Y44.731 I0 J0.624
G1 X143.25
G3 X143.25 Y45.978 I0 J0.624
G1 X-4.25
G2 X-4.25 Y47.226 I0 J0.624
G1 X143.25
G3 X143.25 Y48.473 I0 J0.624
G1 X-4.25
G2 X-4.25 Y49.721 I0 J0.624
G1 X143.25
G3 X143.25 Y50.968 I0 J0.624
G1 X-4.25
G2 X-4.25 Y52.215 I0 J0.624
G1 X143.25
G3 X143.25 Y53.463 I0 J0.624
G1 X-4.25
G2 X-4.25 Y54.71 I0 J0.624
G1 X143.25
G3 X143.25 Y55.958 I0 J0.624
G1 X-4.25
G2 X-4.25 Y57.205 I0 J0.624
G1 X143.25
G3 X143.25 Y58.452 I0 J0.624
G1 X-4.25
G2 X-4.25 Y59.7 I0 J0.624
G1 X143.25
G3 X143.25 Y60.947 I0 J0.624
G1 X-4.25
G2 X-4.25 Y62.195 I0 J0.624
G1 X143.25
G3 X143.25 Y63.442 I0 J0.624
G1 X-4.25
G2 X-4.25 Y64.689 I0 J0.624
G1 X143.25
G3 X143.25 Y65.937 I0 J0.624
G1 X-4.25
G2 X-4.25 Y67.184 I0 J0.624
G1 X143.25
G3 X143.25 Y68.432 I0 J0.624
G1 X-4.25
G2 X-4.25 Y69.679 I0 J0.624
G1 X143.25
G3 X143.25 Y70.926 I0 J0.624
G1 X-4.25
G2 X-4.25 Y72.174 I0 J0.624
G1 X143.25
G3 X143.25 Y73.421 I0 J0.624
G1 X-4.25
G2 X-4.25 Y74.669 I0 J0.624
G1 X143.25
G3 X143.25 Y75.916 I0 J0.624
G1 X-4.25
G2 X-4.25 Y77.163 I0 J0.624
G1 X143.25
G3 X143.25 Y78.411 I0 J0.624
G1 X-4.25
G2 X-4.25 Y79.658 I0 J0.624
G1 X143.25
G3 X143.25 Y80.906 I0 J0.624
G1 X-4.25
G2 X-4.25 Y82.153 I0 J0.624
G1 X143.25
G3 X143.25 Y83.401 I0 J0.624
G1 X-4.25
G2 X-4.25 Y84.648 I0 J0.624
G1 X143.25
G3 X143.25 Y85.895 I0 J0.624
G1 X-4.25
G2 X-4.25 Y87.143 I0 J0.624
G1 X143.25
G3 X143.25 Y88.39 I0 J0.624
G1 X-4.25
G2 X-4.25 Y89.638 I0 J0.624
G1 X143.25
G3 X143.25 Y90.885 I0 J0.624
G1 X-4.25
G2 X-4.25 Y92.132 I0 J0.624
G1 X143.25
G3 X143.25 Y93.38 I0 J0.624
G1 X-4.25
G2 X-4.25 Y94.627 I0 J0.624
G1 X143.25
G3 X143.25 Y95.875 I0 J0.624
G1 X-4.25
G2 X-4.25 Y97.122 I0 J0.624
G1 X143.25
G3 X143.25 Y98.369 I0 J0.624
G1 X-4.25
G2 X-4.25 Y99.617 I0 J0.624
G1 X143.25
G3 X143.25 Y100.864 I0 J0.624
G1 X-4.25
G2 X-4.25 Y102.112 I0 J0.624
G1 X143.25
G3 X143.25 Y103.359 I0 J0.624
G1 X-4.25
G2 X-4.25 Y104.606 I0 J0.624
G1 X143.25
G3 X143.25 Y105.854 I0 J0.624
G1 X-4.25
G2 X-4.25 Y107.101 I0 J0.624
G1 X143.25
G3 X143.25 Y108.349 I0 J0.624
G1 X-4.25
G2 X-4.25 Y109.596 I0 J0.624
G1 X143.25
G3 X143.25 Y110.844 I0 J0.624
G1 X-4.25
G2 X-4.25 Y112.091 I0 J0.624
G1 X143.25
G3 X143.25 Y113.338 I0 J0.624
G1 X143.245
X-4.245
G2 X-4.245 Y114.586 I0 J0.624
G1 X-4.142
X143.142
G3 X143.142 Y115.833 I0 J0.624
G1 X142.868
X-3.868
G2 X-3.868 Y117.081 I0 J0.624
G1 X-3.41
X142.41
G3 X142.41 Y118.328 I0 J0.624
G1 X141.734
X-2.734
G2 X-2.734 Y119.575 I0 J0.624
G1 X-1.773
X140.773
G18 G2 X141.091 Z-0.831 I0 K0.318
G1 Z4
G17
(When using Fusion 360 for Personal Use, the feedrate of)
(rapid moves is reduced to match the feedrate of cutting)
(moves, which can increase machining time. Unrestricted rapid)
(moves are available with a Fusion 360 Subscription.)

(2D Adaptive1)
G0 X-0.327 Y-3.695
G1 Z2 F300
Z-0.365
Z-0.683
X-0.325 Y-3.688 Z-0.753
X-0.32 Y-3.665 Z-0.82
X-0.31 Y-3.628 Z-0.88
X-0.298 Y-3.579 Z-0.931
X-0.283 Y-3.521 Z-0.969
X-0.266 Y-3.456 Z-0.992
X-0.249 Y-3.388 Z-1
G3 X0 Y-1.659 I-7.852 J2.011
G1 Y-1.566 F270
X-0.399 Y-1.064 F300
X-0.66 Y-0.476
X-0.814 Y0.147
X-0.899 Y0.783
X-0.944 Y1.424
X-0.966 Y2.066
X-0.977 Y2.708
X-0.982 Y3.35
X-0.985 Y3.992
X-0.987 Y5.277
X-0.988 Y35.459
Y48.303
Y98.394
Y118.944
X-0.933 Y119.26
X-0.803 Y119.554
X-0.433 Y120.079
X0.089 Y120.453
X0.685 Y120.692
X1.311 Y120.832
X1.949 Y120.909
X2.59 Y120.949
X3.232 Y120.968
X3.874 Y120.978
X4.516 Y120.983
X5.158 Y120.985
X7.085 Y120.987
X27.635 Y120.988
X77.725
X127.816
X138.091
X138.398 Y120.896
X138.678 Y120.739
X139.172 Y120.327
X139.514 Y119.784
X139.729 Y119.179
X139.853 Y118.549
X139.92 Y117.91
X139.954 Y117.269
X139.971 Y116.627
X139.98 Y115.985
X139.984 Y115.343
X139.986 Y114.701
X139.987 Y112.774
X139.988 Y81.949
Y31.859
Y1.034
X139.927 Y0.719
X139.793 Y0.427
X139.416 Y-0.093
X138.891 Y-0.463
X138.293 Y-0.698
X137.666 Y-0.836
X137.028 Y-0.911
X136.387 Y-0.949
X135.745 Y-0.969
X135.103 Y-0.978
X134.461 Y-0.983
X133.819 Y-0.985
X131.892 Y-0.987
X121.617 Y-0.988
X71.527
X21.436
X1.85
X1.534 Y-0.929
X1.236 Y-0.81
X0.693 Y-0.466
X0.286 Y0.031
X0.009 Y0.61
X-0.165 Y1.228
X-0.267 Y1.862
X-0.324 Y2.502
X-0.355 Y3.143
X-0.371 Y3.785
X-0.379 Y4.427
X-0.383 Y5.069
X-0.385 Y5.711
X-0.387 Y7.638
Y28.83
Y78.921
Y118.094
X-0.23 Y118.717
X0.127 Y119.25
X0.622 Y119.659
X1.196 Y119.947
X1.811 Y120.133
X2.443 Y120.246
X3.082 Y120.311
X3.723 Y120.347
X4.365 Y120.366
X5.007 Y120.376
X5.649 Y120.382
X6.291 Y120.385
X7.576 Y120.387
X9.502
X59.593
X109.683
X136.655
X137.297 Y120.363
X137.897 Y120.136
X138.393 Y119.727
X138.762 Y119.202
X139.015 Y118.611
X139.175 Y117.989
X139.271 Y117.354
X139.325 Y116.714
X139.354 Y116.073
X139.37 Y115.431
X139.379 Y114.789
X139.383 Y114.147
X139.385 Y113.505
X139.387 Y111.578
Y98.734
Y48.644
Y2.406
X139.376 Y1.764
X139.168 Y1.157
X138.775 Y0.65
X138.258 Y0.268
X137.672 Y0.006
X137.052 Y-0.162
X136.418 Y-0.263
X135.778 Y-0.321
X135.137 Y-0.352
X134.495 Y-0.369
X133.853 Y-0.378
X133.21 Y-0.383
X132.568 Y-0.385
X131.284 Y-0.387
X116.514
X86.973
X36.883
X2.847
X2.21 Y-0.303
X1.632 Y-0.023
X1.162 Y0.414
X0.814 Y0.954
X0.577 Y1.551
X0.425 Y2.175
X0.332 Y2.81
X0.279 Y3.45
X0.249 Y4.092
X0.232 Y4.734
X0.223 Y5.376
X0.218 Y6.018
X0.215 Y6.66
X0.213 Y7.944
Y14.366
Y64.457
Y114.547
Y117.116
X0.301 Y117.752
X0.581 Y118.33
X1.016 Y118.803
X1.552 Y119.156
X2.146 Y119.4
X2.768 Y119.558
X3.403 Y119.656
X4.043 Y119.714
X4.684 Y119.747
X5.326 Y119.765
X5.968 Y119.776
X6.61 Y119.781
X7.252 Y119.784
X8.537 Y119.787
X14.316
X46.426
X96.516
X135.69
X136.332 Y119.782
X136.955 Y119.626
X137.501 Y119.289
X137.934 Y118.814
X138.248 Y118.254
X138.461 Y117.648
X138.596 Y117.021
X138.679 Y116.384
X138.727 Y115.743
X138.754 Y115.102
X138.769 Y114.46
X138.778 Y113.818
X138.782 Y113.175
X138.785 Y112.533
X138.787 Y111.249
Y110.607
X138.788 Y60.516
Y10.426
Y3.362
X138.785 Y2.719
X138.646 Y2.093
X138.321 Y1.538
X137.856 Y1.096
X137.301 Y0.772
X136.698 Y0.553
X136.071 Y0.412
X135.435 Y0.326
X134.794 Y0.276
X134.153 Y0.247
X133.511 Y0.231
X132.869 Y0.223
X132.227 Y0.218
X131.584 Y0.215
X130.3 Y0.213
X122.594
X97.549
X47.458
X3.789
X3.148 Y0.249
X2.541 Y0.458
X2.021 Y0.834
X1.614 Y1.332
X1.321 Y1.903
X1.123 Y2.514
X0.996 Y3.143
X0.918 Y3.781
X0.872 Y4.421
X0.846 Y5.063
X0.831 Y5.705
X0.823 Y6.347
X0.818 Y6.989
X0.815 Y7.632
X0.813 Y8.916
Y15.98
Y55.153
Y105.244
Y116.161
X0.849 Y116.802
X1.052 Y117.411
X1.422 Y117.936
X1.913 Y118.35
X2.48 Y118.651
X3.089 Y118.857
X3.717 Y118.99
X4.354 Y119.072
X4.994 Y119.122
X5.636 Y119.15
X6.277 Y119.167
X6.92 Y119.176
X7.562 Y119.181
X8.204 Y119.184
X9.488 Y119.186
X14.626 Y119.187
X38.387 Y119.188
X88.477
X134.715
X135.357 Y119.186
X135.994 Y119.11
X136.582 Y118.852
X137.075 Y118.439
X137.453 Y117.92
X137.723 Y117.338
X137.904 Y116.721
X138.019 Y116.09
X138.09 Y115.451
X138.132 Y114.811
X138.156 Y114.169
X138.17 Y113.527
X138.178 Y112.885
X138.182 Y112.243
X138.185 Y111.6
X138.187 Y110.316
X138.188 Y103.252
Y67.29
Y17.199
Y4.355
X138.187 Y3.713
X138.126 Y3.074
X137.887 Y2.478
X137.49 Y1.973
X136.98 Y1.583
X136.402 Y1.302
X135.789 Y1.112
X135.158 Y0.991
X134.52 Y0.916
X133.88 Y0.871
X133.238 Y0.846
X132.596 Y0.831
X131.954 Y0.823
X131.312 Y0.818
X130.67 Y0.816
X129.385 Y0.813
X122.963
X103.056
X52.965
X4.801
X4.159 Y0.82
X3.527 Y0.933
X2.954 Y1.223
X2.48 Y1.656
X2.118 Y2.187
X1.861 Y2.775
X1.688 Y3.394
X1.577 Y4.026
X1.509 Y4.665
X1.468 Y5.306
X1.444 Y5.947
X1.43 Y6.589
X1.422 Y7.232
X1.418 Y7.874
X1.416 Y8.516
X1.413 Y9.8
Y16.222
Y50.9
Y100.991
Y115.119
X1.419 Y115.761
X1.519 Y116.395
X1.793 Y116.976
X2.213 Y117.462
X2.735 Y117.836
X3.318 Y118.106
X3.933 Y118.289
X4.564 Y118.407
X5.202 Y118.481
X5.843 Y118.526
X6.484 Y118.552
X7.126 Y118.567
X7.769 Y118.576
X8.411 Y118.581
X9.053 Y118.584
X10.337 Y118.586
X14.833 Y118.587
X35.383 Y118.588
X85.473
X134.279 Y118.587
X134.921 Y118.572
X135.547 Y118.43
X136.107 Y118.116
X136.566 Y117.666
X136.913 Y117.126
X137.159 Y116.532
X137.324 Y115.912
X137.429 Y115.278
X137.495 Y114.639
X137.534 Y113.998
X137.557 Y113.357
X137.57 Y112.715
X137.578 Y112.072
X137.582 Y111.43
X137.584 Y110.788
X137.587 Y109.504
Y103.082
Y69.046
Y18.956
Y4.827
X137.578 Y4.185
X137.464 Y3.553
X137.177 Y2.979
X136.746 Y2.503
X136.218 Y2.137
X135.631 Y1.876
X135.014 Y1.699
X134.382 Y1.585
X133.744 Y1.514
X133.103 Y1.471
X132.461 Y1.446
X131.819 Y1.432
X131.177 Y1.423
X130.535 Y1.418
X129.893 Y1.416
X128.608 Y1.414
X123.471 Y1.413
X103.563
X53.473
X5.951
X5.309
X4.667 Y1.436
X4.044 Y1.59
X3.488 Y1.913
X3.035 Y2.367
X2.691 Y2.91
X2.446 Y3.503
X2.281 Y4.124
X2.175 Y4.757
X2.108 Y5.396
X2.068 Y6.037
X2.045 Y6.679
X2.031 Y7.321
X2.023 Y7.963
X2.018 Y8.605
X2.016 Y9.247
X2.014 Y10.532
X2.013 Y15.669
Y51.631
Y101.722
Y114.566
X2.028 Y115.208
X2.157 Y115.837
X2.451 Y116.408
X2.884 Y116.881
X3.413 Y117.246
X3.999 Y117.509
X4.616 Y117.689
X5.247 Y117.806
X5.885 Y117.879
X6.526 Y117.924
X7.167 Y117.951
X7.809 Y117.966
X8.451 Y117.975
X9.094 Y117.981
X9.736 Y117.984
X11.02 Y117.986
X15.515 Y117.987
X37.35 Y117.988
X87.44
X133.678 Y117.987
X134.319 Y117.963
X134.942 Y117.806
X135.498 Y117.484
X135.953 Y117.031
X136.299 Y116.49
X136.546 Y115.897
X136.713 Y115.277
X136.822 Y114.644
X136.889 Y114.006
X136.93 Y113.365
X136.954 Y112.723
X136.968 Y112.081
X136.977 Y111.439
X136.981 Y110.797
X136.984 Y110.155
X136.986 Y108.87
X136.987 Y104.375
X136.988 Y65.844
Y15.753
X136.987 Y5.478
X136.976 Y4.836
X136.857 Y4.205
X136.575 Y3.628
X136.15 Y3.147
X135.627 Y2.775
X135.044 Y2.505
X134.429 Y2.32
X133.798 Y2.2
X133.161 Y2.124
X132.52 Y2.078
X131.878 Y2.051
X131.236 Y2.035
X130.594 Y2.025
X129.952 Y2.02
X129.31 Y2.017
X128.026 Y2.014
X124.173 Y2.013
X99.127
X49.037
X6.01
X5.369 Y2.033
X4.742 Y2.175
X4.176 Y2.478
X3.707 Y2.917
X3.347 Y3.449
X3.087 Y4.036
X2.91 Y4.653
X2.794 Y5.285
X2.722 Y5.923
X2.677 Y6.564
X2.65 Y7.205
X2.635 Y7.847
X2.625 Y8.489
X2.62 Y9.131
X2.617 Y9.774
X2.614 Y11.058
X2.613 Y14.911
X2.612 Y57.295
Y107.386
X2.613 Y113.808
X2.62 Y114.45
X2.721 Y115.084
X2.985 Y115.67
X3.39 Y116.168
X3.9 Y116.558
X4.475 Y116.845
X5.085 Y117.043
X5.714 Y117.175
X6.351 Y117.259
X6.991 Y117.311
X7.632 Y117.342
X8.168 Y117.358
X8.299 Y117.369
X8.427 Y117.394
X8.552 Y117.434
X8.608 Y117.455
X8.805 Y117.504
X9.337 Y117.577
X9.774 Y117.634
X10.212 Y117.682
X10.358 Y117.683
X128.642
X128.788 Y117.682
X129.225 Y117.634
X129.809 Y117.557
X129.954 Y117.537
X130.594 Y117.482
X131.234 Y117.432
X131.876 Y117.409
X132.518 Y117.398
X133.16 Y117.39
X133.801 Y117.347
X134.415 Y117.159
X134.955 Y116.812
X135.394 Y116.342
X135.725 Y115.792
X135.962 Y115.195
X136.122 Y114.573
X136.225 Y113.94
X136.29 Y113.301
X136.33 Y112.66
X136.354 Y112.018
X136.368 Y111.376
X136.376 Y110.734
X136.381 Y110.092
X136.384 Y109.449
X136.386 Y108.165
X136.387 Y103.67
Y72.203
Y22.112
Y6.058
X136.367 Y5.416
X136.234 Y4.788
X135.94 Y4.217
X135.508 Y3.741
X134.981 Y3.374
X134.397 Y3.107
X133.782 Y2.924
X133.151 Y2.804
X132.513 Y2.727
X131.873 Y2.681
X131.231 Y2.652
X130.837 Y2.642
X130.705 Y2.631
X130.575 Y2.606
X130.449 Y2.566
X130.392 Y2.545
X130.198 Y2.496
X129.663 Y2.423
X129.225 Y2.366
X128.788 Y2.318
X128.642 Y2.317
X10.358
X10.212 Y2.318
X9.774 Y2.366
X9.191 Y2.443
X9.045 Y2.463
X8.405 Y2.518
X7.765 Y2.568
X7.123 Y2.591
X6.481 Y2.605
X5.841 Y2.648
X5.225 Y2.831
X4.68 Y3.171
X4.236 Y3.635
X3.898 Y4.181
X3.656 Y4.776
X3.491 Y5.396
X3.384 Y6.03
X3.316 Y6.668
X3.274 Y7.309
X3.249 Y7.951
X3.234 Y8.593
X3.225 Y9.235
X3.22 Y9.877
X3.217 Y10.519
X3.214 Y11.803
X3.213 Y15.657
Y48.408
Y98.499
Y113.269
X3.23 Y113.911
X3.354 Y114.541
X3.635 Y115.118
X4.056 Y115.603
X4.575 Y115.982
X5.154 Y116.259
X5.767 Y116.451
X6.396 Y116.579
X6.585 Y116.603
X6.773 Y116.643
X6.951 Y116.712
X7.116 Y116.809
X7.149 Y116.832
X7.295 Y116.914
X7.441 Y116.98
X8.356 Y117.358
X8.512 Y117.418
X8.552 Y117.434
G3 X8.515 Y118.033 I-0.122 J0.293
G1 X8.447 Y118.052 Z-0.992
X8.383 Y118.07 Z-0.969
X8.325 Y118.086 Z-0.931
X8.276 Y118.099 Z-0.88
X8.24 Y118.109 Z-0.82
X8.217 Y118.116 Z-0.753
X8.209 Y118.118 Z-0.683
Z2
X10.01 Y1.944
Z-0.365
Z-0.683
X10.004 Y1.949 Z-0.753
X9.986 Y1.964 Z-0.82
X9.956 Y1.987 Z-0.88
X9.917 Y2.019 Z-0.931
X9.87 Y2.056 Z-0.969
X9.817 Y2.098 Z-0.992
X9.762 Y2.142 Z-1
G3 X9.045 Y2.463 I-0.985 J-1.239
G1 X8.802 Y2.496
X8.608 Y2.545
X8.462 Y2.6
X8.354 Y2.642
X8.001 Y2.788
X7.75 Y2.878
X7.591 Y2.926
X7.339 Y2.99
X6.71 Y3.119
X6.087 Y3.275
X5.516 Y3.568
X5.031 Y3.989
X4.649 Y4.506
X4.367 Y5.082
X4.169 Y5.693
X4.036 Y6.321
X3.95 Y6.958
X3.896 Y7.598
X3.862 Y8.239
X3.842 Y8.881
X3.83 Y9.523
X3.823 Y10.165
X3.818 Y10.807
X3.816 Y11.449
X3.814 Y12.734
X3.813 Y17.229
Y50.623
Y100.713
Y112.273
X3.816 Y112.915
X3.865 Y113.555
X4.053 Y114.169
X4.397 Y114.711
X4.862 Y115.154
X5.408 Y115.492
X5.442 Y115.506
X5.617 Y115.596
X5.775 Y115.713
X5.911 Y115.856
X5.945 Y115.899
X5.982 Y115.934
X6.114 Y116.045
X6.566 Y116.393
X7.003 Y116.729
X7.116 Y116.809
G3 X6.932 Y117.38 I-0.191 J0.253
G1 X6.861 Y117.381 Z-0.992
X6.794 Y117.383 Z-0.969
X6.734 Y117.384 Z-0.931
X6.683 Y117.385 Z-0.88
X6.646 Y117.386 Z-0.82
X6.622 Z-0.753
X6.614 Z-0.683
Z2
X8.803 Y2.041
Z-0.365
Z-0.683
X8.798 Y2.048 Z-0.753
X8.784 Y2.066 Z-0.82
X8.762 Y2.097 Z-0.88
X8.731 Y2.137 Z-0.931
X8.695 Y2.185 Z-0.969
X8.655 Y2.239 Z-0.992
X8.613 Y2.295 Z-1
G3 X8.001 Y2.788 I-1.268 J-0.947
G1 X7.441 Y3.021
X7.295 Y3.086
X7.149 Y3.168
X7.066 Y3.226
X7.003 Y3.272
X6.872 Y3.372
X6.343 Y3.737
X5.855 Y4.154
X5.445 Y4.649
X5.297 Y4.905
X5.27 Y4.95
X5.241 Y4.993
X5.211 Y5.035
G3 X4.764 Y5.078 Z-0.5 I-0.245 J-0.202
X4.741 Y4.609 I0.202 J-0.245
G1 X6.445 Y2.903
G3 X6.915 Y2.925 I0.225 J0.224
X6.872 Y3.372 Z-1 I-0.245 J0.202
G1 X6.42 Y3.719
X6.114 Y3.956
X5.982 Y4.066
X5.945 Y4.102
X5.591 Y4.54
X5.107 Y5.171
X5.038 Y5.269
X4.961 Y5.396
X4.951 Y5.415
X4.882 Y5.561
X4.67 Y6.07
X4.524 Y6.422
X4.36 Y6.875
X4.293 Y7.313
X4.197 Y8.043
X4.179 Y8.188
X4.168 Y8.334
X4.162 Y8.772
Y111.228
X4.168 Y111.666
X4.179 Y111.812
X4.197 Y111.958
X4.293 Y112.688
X4.36 Y113.126
X4.524 Y113.578
X4.76 Y114.147
X4.882 Y114.439
X4.951 Y114.585
X4.961 Y114.604
X5.038 Y114.731
X5.107 Y114.829
X5.591 Y115.461
X5.911 Y115.856
G3 X5.576 Y116.354 I-0.254 J0.191
G1 X5.508 Y116.336 Z-0.992
X5.443 Y116.319 Z-0.969
X5.385 Y116.304 Z-0.931
X5.336 Y116.291 Z-0.88
X5.3 Y116.281 Z-0.82
X5.277 Y116.275 Z-0.753
X5.269 Y116.273 Z-0.683
Z2
X128.989 Y118.056
Z-0.365
Z-0.683
X128.996 Y118.051 Z-0.753
X129.014 Y118.037 Z-0.82
X129.043 Y118.013 Z-0.88
X129.083 Y117.982 Z-0.931
X129.13 Y117.944 Z-0.969
X129.182 Y117.902 Z-0.992
X129.238 Y117.858 Z-1
G3 X129.954 Y117.537 I0.985 J1.238
G1 X130.195 Y117.504
X130.392 Y117.455
X130.538 Y117.4
X130.645 Y117.358
X131.065 Y117.184
X131.237 Y117.123
X131.393 Y117.075
X131.591 Y117.025
X131.85 Y116.972
X132.369 Y116.891
X133.007 Y116.823
X133.628 Y116.66
X134.189 Y116.347
X134.658 Y115.908
X135.021 Y115.378
X135.285 Y114.793
X135.468 Y114.177
X135.589 Y113.547
X135.667 Y112.909
X135.715 Y112.269
X135.744 Y111.627
X135.762 Y110.985
X135.773 Y110.343
X135.779 Y109.701
X135.782 Y109.059
X135.786 Y107.775
X135.787 Y104.564
X135.788 Y69.886
Y19.795
X135.787 Y6.951
X135.781 Y6.309
X135.707 Y5.672
X135.477 Y5.072
X135.1 Y4.552
X134.61 Y4.136
X134.048 Y3.826
X133.445 Y3.607
X132.82 Y3.459
X132.391 Y3.395
X132.213 Y3.354
X132.043 Y3.286
X131.886 Y3.193
X131.85 Y3.168
X131.705 Y3.086
X131.559 Y3.02
X130.646 Y2.642
X130.489 Y2.581
X130.449 Y2.566
G3 X130.486 Y1.967 I0.122 J-0.293
G1 X130.554 Y1.948 Z-0.992
X130.618 Y1.93 Z-0.969
X130.676 Y1.914 Z-0.931
X130.725 Y1.901 Z-0.88
X130.761 Y1.89 Z-0.82
X130.784 Y1.884 Z-0.753
X130.791 Y1.882 Z-0.683
Z2
X130.264 Y117.931
Z-0.365
Z-0.683
X130.268 Y117.925 Z-0.753
X130.283 Y117.906 Z-0.82
X130.305 Y117.875 Z-0.88
X130.335 Y117.835 Z-0.931
X130.371 Y117.787 Z-0.969
X130.411 Y117.733 Z-0.992
X130.454 Y117.677 Z-1
G3 X131.065 Y117.184 I1.267 J0.948
G1 X131.559 Y116.98
X131.705 Y116.914
X131.85 Y116.832
X131.896 Y116.8
X132.023 Y116.721
X132.166 Y116.644
X132.746 Y116.368
X133.316 Y116.072
X133.816 Y115.669
X134.223 Y115.173
X134.534 Y114.611
X134.759 Y114.009
X134.914 Y113.386
X135.017 Y112.752
X135.083 Y112.113
X135.124 Y111.472
X135.149 Y110.831
X135.165 Y110.189
X135.174 Y109.547
X135.18 Y108.904
X135.183 Y108.262
X135.186 Y106.978
X135.187 Y103.767
X135.188 Y67.805
Y17.714
X135.187 Y8.081
Y7.439
X135.173 Y6.797
X135.068 Y6.164
X134.808 Y5.576
X134.405 Y5.076
X133.899 Y4.681
X133.48 Y4.467
X133.34 Y4.381
X133.212 Y4.278
X133.1 Y4.157
X133.055 Y4.102
X133.017 Y4.066
X132.886 Y3.956
X132.434 Y3.606
X131.996 Y3.271
X131.886 Y3.193
G3 X132.07 Y2.622 I0.191 J-0.253
G1 X132.141 Y2.62 Z-0.992
X132.208 Y2.619 Z-0.969
X132.268 Y2.618 Z-0.931
X132.318 Y2.616 Z-0.88
X132.356 Z-0.82
X132.38 Y2.615 Z-0.753
X132.388 Z-0.683
Z2
X131.276 Y117.704
Z-0.365
Z-0.683
X131.279 Y117.697 Z-0.753
X131.289 Y117.675 Z-0.82
X131.304 Y117.641 Z-0.88
X131.325 Y117.595 Z-0.931
X131.35 Y117.54 Z-0.969
X131.377 Y117.479 Z-0.992
X131.406 Y117.414 Z-1
G3 X131.896 Y116.8 I1.443 J0.649
G1 X131.996 Y116.729
X132.58 Y116.281
X132.886 Y116.045
X133.017 Y115.935
X133.055 Y115.899
X133.409 Y115.461
X133.892 Y114.83
X133.961 Y114.731
X134.038 Y114.605
X134.049 Y114.585
X134.118 Y114.439
X134.33 Y113.932
X134.476 Y113.58
X134.64 Y113.126
X134.707 Y112.688
X134.803 Y111.958
X134.821 Y111.812
X134.832 Y111.666
X134.837 Y111.228
Y8.772
X134.832 Y8.334
X134.821 Y8.188
X134.784 Y7.897
X134.707 Y7.313
X134.64 Y6.875
X134.476 Y6.42
X134.24 Y5.853
X134.118 Y5.561
X134.049 Y5.415
X134.038 Y5.396
X133.962 Y5.269
X133.892 Y5.17
X133.409 Y4.54
X133.1 Y4.157
G3 X133.138 Y3.732 I0.254 J-0.191
G1 X133.186 Y3.707 Z-0.995
X133.233 Y3.682 Z-0.981
X133.276 Y3.658 Z-0.958
X133.317 Y3.653 Z-0.929
X133.353 Y3.649 Z-0.895
X133.387 Y3.653 Z-0.848
X133.413 Y3.656 Z-0.796
X133.429 Y3.658 Z-0.74
X133.434 Y3.659 Z-0.683
Z2
X-0.327 Y-3.695
Z-1.365
Z-1.683
X-0.325 Y-3.688 Z-1.753
X-0.32 Y-3.665 Z-1.82
X-0.31 Y-3.628 Z-1.88
X-0.298 Y-3.579 Z-1.931
X-0.283 Y-3.521 Z-1.969
X-0.266 Y-3.456 Z-1.992
X-0.249 Y-3.388 Z-2
G3 X0 Y-1.659 I-7.852 J2.011
G1 Y-1.566 F270
X-0.399 Y-1.064 F300
X-0.66 Y-0.476
X-0.814 Y0.147
X-0.899 Y0.783
X-0.944 Y1.424
X-0.966 Y2.066
X-0.977 Y2.708
X-0.982 Y3.35
X-0.985 Y3.992
X-0.987 Y5.277
X-0.988 Y35.459
Y48.303
Y98.394
Y118.944
X-0.933 Y119.26
X-0.803 Y119.554
X-0.433 Y120.079
X0.089 Y120.453
X0.685 Y120.692
X1.311 Y120.832
X1.949 Y120.909
X2.59 Y120.949
X3.232 Y120.968
X3.874 Y120.978
X4.516 Y120.983
X5.158 Y120.985
X7.085 Y120.987
X27.635 Y120.988
X77.725
X127.816
X138.091
X138.398 Y120.896
X138.678 Y120.739
X139.172 Y120.327
X139.514 Y119.784
X139.729 Y119.179
X139.853 Y118.549
X139.92 Y117.91
X139.954 Y117.269
X139.971 Y116.627
X139.98 Y115.985
X139.984 Y115.343
X139.986 Y114.701
X139.987 Y112.774
X139.988 Y81.949
Y31.859
Y1.034
X139.927 Y0.719
X139.793 Y0.427
X139.416 Y-0.093
X138.891 Y-0.463
X138.293 Y-0.698
X137.666 Y-0.836
X137.028 Y-0.911
X136.387 Y-0.949
X135.745 Y-0.969
X135.103 Y-0.978
X134.461 Y-0.983
X133.819 Y-0.985
X131.892 Y-0.987
X121.617 Y-0.988
X71.527
X21.436
X1.85
X1.534 Y-0.929
X1.236 Y-0.81
X0.693 Y-0.466
X0.286 Y0.031
X0.009 Y0.61
X-0.165 Y1.228
X-0.267 Y1.862
X-0.324 Y2.502
X-0.355 Y3.143
X-0.371 Y3.785
X-0.379 Y4.427
X-0.383 Y5.069
X-0.385 Y5.711
X-0.387 Y7.638
Y28.83
Y78.921
Y118.094
X-0.23 Y118.717
X0.127 Y119.25
X0.622 Y119.659
X1.196 Y119.947
X1.811 Y120.133
X2.443 Y120.246
X3.082 Y120.311
X3.723 Y120.347
X4.365 Y120.366
X5.007 Y120.376
X5.649 Y120.382
X6.291 Y120.385
X7.576 Y120.387
X9.502
X59.593
X109.683
X136.655
X137.297 Y120.363
X137.897 Y120.136
X138.393 Y119.727
X138.762 Y119.202
X139.015 Y118.611
X139.175 Y117.989
X139.271 Y117.354
X139.325 Y116.714
X139.354 Y116.073
X139.37 Y115.431
X139.379 Y114.789
X139.383 Y114.147
X139.385 Y113.505
X139.387 Y111.578
Y98.734
Y48.644
Y2.406
X139.376 Y1.764
X139.168 Y1.157
X138.775 Y0.65
X138.258 Y0.268
X137.672 Y0.006
X137.052 Y-0.162
X136.418 Y-0.263
X135.778 Y-0.321
X135.137 Y-0.352
X134.495 Y-0.369
X133.853 Y-0.378
X133.21 Y-0.383
X132.568 Y-0.385
X131.284 Y-0.387
X116.514
X86.973
X36.883
X2.847
X2.21 Y-0.303
X1.632 Y-0.023
X1.162 Y0.414
X0.814 Y0.954
X0.577 Y1.551
X0.425 Y2.175
X0.332 Y2.81
X0.279 Y3.45
X0.249 Y4.092
X0.232 Y4.734
X0.223 Y5.376
X0.218 Y6.018
X0.215 Y6.66
X0.213 Y7.944
Y14.366
Y64.457
Y114.547
Y117.116
X0.301 Y117.752
X0.581 Y118.33
X1.016 Y118.803
X1.552 Y119.156
X2.146 Y119.4
X2.768 Y119.558
X3.403 Y119.656
X4.043 Y119.714
X4.684 Y119.747
X5.326 Y119.765
X5.968 Y119.776
X6.61 Y119.781
X7.252 Y119.784
X8.537 Y119.787
X14.316
X46.426
X96.516
X135.69
X136.332 Y119.782
X136.955 Y119.626
X137.501 Y119.289
X137.934 Y118.814
X138.248 Y118.254
X138.461 Y117.648
X138.596 Y117.021
X138.679 Y116.384
X138.727 Y115.743
X138.754 Y115.102
X138.769 Y114.46
X138.778 Y113.818
X138.782 Y113.175
X138.785 Y112.533
X138.787 Y111.249
Y110.607
X138.788 Y60.516
Y10.426
Y3.362
X138.785 Y2.719
X138.646 Y2.093
X138.321 Y1.538
X137.856 Y1.096
X137.301 Y0.772
X136.698 Y0.553
X136.071 Y0.412
X135.435 Y0.326
X134.794 Y0.276
X134.153 Y0.247
X133.511 Y0.231
X132.869 Y0.223
X132.227 Y0.218
X131.584 Y0.215
X130.3 Y0.213
X122.594
X97.549
X47.458
X3.789
X3.148 Y0.249
X2.541 Y0.458
X2.021 Y0.834
X1.614 Y1.332
X1.321 Y1.903
X1.123 Y2.514
X0.996 Y3.143
X0.918 Y3.781
X0.872 Y4.421
X0.846 Y5.063
X0.831 Y5.705
X0.823 Y6.347
X0.818 Y6.989
X0.815 Y7.632
X0.813 Y8.916
Y15.98
Y55.153
Y105.244
Y116.161
X0.849 Y116.802
X1.052 Y117.411
X1.422 Y117.936
X1.913 Y118.35
X2.48 Y118.651
X3.089 Y118.857
X3.717 Y118.99
X4.354 Y119.072
X4.994 Y119.122
X5.636 Y119.15
X6.277 Y119.167
X6.92 Y119.176
X7.562 Y119.181
X8.204 Y119.184
X9.488 Y119.186
X14.626 Y119.187
X38.387 Y119.188
X88.477
X134.715
X135.357 Y119.186
X135.994 Y119.11
X136.582 Y118.852
X137.075 Y118.439
X137.453 Y117.92
X137.723 Y117.338
X137.904 Y116.721
X138.019 Y116.09
X138.09 Y115.451
X138.132 Y114.811
X138.156 Y114.169
X138.17 Y113.527
X138.178 Y112.885
X138.182 Y112.243
X138.185 Y111.6
X138.187 Y110.316
X138.188 Y103.252
Y67.29
Y17.199
Y4.355
X138.187 Y3.713
X138.126 Y3.074
X137.887 Y2.478
X137.49 Y1.973
X136.98 Y1.583
X136.402 Y1.302
X135.789 Y1.112
X135.158 Y0.991
X134.52 Y0.916
X133.88 Y0.871
X133.238 Y0.846
X132.596 Y0.831
X131.954 Y0.823
X131.312 Y0.818
X130.67 Y0.816
X129.385 Y0.813
X122.963
X103.056
X52.965
X4.801
X4.159 Y0.82
X3.527 Y0.933
X2.954 Y1.223
X2.48 Y1.656
X2.118 Y2.187
X1.861 Y2.775
X1.688 Y3.394
X1.577 Y4.026
X1.509 Y4.665
X1.468 Y5.306
X1.444 Y5.947
X1.43 Y6.589
X1.422 Y7.232
X1.418 Y7.874
X1.416 Y8.516
X1.413 Y9.8
Y16.222
Y50.9
Y100.991
Y115.119
X1.419 Y115.761
X1.519 Y116.395
X1.793 Y116.976
X2.213 Y117.462
X2.735 Y117.836
X3.318 Y118.106
X3.933 Y118.289
X4.564 Y118.407
X5.202 Y118.481
X5.843 Y118.526
X6.484 Y118.552
X7.126 Y118.567
X7.769 Y118.576
X8.411 Y118.581
X9.053 Y118.584
X10.337 Y118.586
X14.833 Y118.587
X35.383 Y118.588
X85.473
X134.279 Y118.587
X134.921 Y118.572
X135.547 Y118.43
X136.107 Y118.116
X136.566 Y117.666
X136.913 Y117.126
X137.159 Y116.532
X137.324 Y115.912
X137.429 Y115.278
X137.495 Y114.639
X137.534 Y113.998
X137.557 Y113.357
X137.57 Y112.715
X137.578 Y112.072
X137.582 Y111.43
X137.584 Y110.788
X137.587 Y109.504
Y103.082
Y69.046
Y18.956
Y4.827
X137.578 Y4.185
X137.464 Y3.553
X137.177 Y2.979
X136.746 Y2.503
X136.218 Y2.137
X135.631 Y1.876
X135.014 Y1.699
X134.382 Y1.585
X133.744 Y1.514
X133.103 Y1.471
X132.461 Y1.446
X131.819 Y1.432
X131.177 Y1.423
X130.535 Y1.418
X129.893 Y1.416
X128.608 Y1.414
X123.471 Y1.413
X103.563
X53.473
X5.951
X5.309
X4.667 Y1.436
X4.044 Y1.59
X3.488 Y1.913
X3.035 Y2.367
X2.691 Y2.91
X2.446 Y3.503
X2.281 Y4.124
X2.175 Y4.757
X2.108 Y5.396
X2.068 Y6.037
X2.045 Y6.679
X2.031 Y7.321
X2.023 Y7.963
X2.018 Y8.605
X2.016 Y9.247
X2.014 Y10.532
X2.013 Y15.669
Y51.631
Y101.722
Y114.566
X2.028 Y115.208
X2.157 Y115.837
X2.451 Y116.408
X2.884 Y116.881
X3.413 Y117.246
X3.999 Y117.509
X4.616 Y117.689
X5.247 Y117.806
X5.885 Y117.879
X6.526 Y117.924
X7.167 Y117.951
X7.809 Y117.966
X8.451 Y117.975
X9.094 Y117.981
X9.736 Y117.984
X11.02 Y117.986
X15.515 Y117.987
X37.35 Y117.988
X87.44
X133.678 Y117.987
X134.319 Y117.963
X134.942 Y117.806
X135.498 Y117.484
X135.953 Y117.031
X136.299 Y116.49
X136.546 Y115.897
X136.713 Y115.277
X136.822 Y114.644
X136.889 Y114.006
X136.93 Y113.365
X136.954 Y112.723
X136.968 Y112.081
X136.977 Y111.439
X136.981 Y110.797
X136.984 Y110.155
X136.986 Y108.87
X136.987 Y104.375
X136.988 Y65.844
Y15.753
X136.987 Y5.478
X136.976 Y4.836
X136.857 Y4.205
X136.575 Y3.628
X136.15 Y3.147
X135.627 Y2.775
X135.044 Y2.505
X134.429 Y2.32
X133.798 Y2.2
X133.161 Y2.124
X132.52 Y2.078
X131.878 Y2.051
X131.236 Y2.035
X130.594 Y2.025
X129.952 Y2.02
X129.31 Y2.017
X128.026 Y2.014
X124.173 Y2.013
X99.127
X49.037
X6.01
X5.369 Y2.033
X4.742 Y2.175
X4.176 Y2.478
X3.707 Y2.917
X3.347 Y3.449
X3.087 Y4.036
X2.91 Y4.653
X2.794 Y5.285
X2.722 Y5.923
X2.677 Y6.564
X2.65 Y7.205
X2.635 Y7.847
X2.625 Y8.489
X2.62 Y9.131
X2.617 Y9.774
X2.614 Y11.058
X2.613 Y14.911
X2.612 Y57.295
Y107.386
X2.613 Y113.808
X2.62 Y114.45
X2.721 Y115.084
X2.985 Y115.67
X3.39 Y116.168
X3.9 Y116.558
X4.475 Y116.845
X5.085 Y117.043
X5.714 Y117.175
X6.351 Y117.259
X6.991 Y117.311
X7.632 Y117.342
X8.168 Y117.358
X8.299 Y117.369
X8.427 Y117.394
X8.552 Y117.434
X8.608 Y117.455
X8.805 Y117.504
X9.337 Y117.577
X9.774 Y117.634
X10.212 Y117.682
X10.358 Y117.683
X128.642
X128.788 Y117.682
X129.225 Y117.634
X129.809 Y117.557
X129.954 Y117.537
X130.594 Y117.482
X131.234 Y117.432
X131.876 Y117.409
X132.518 Y117.398
X133.16 Y117.39
X133.801 Y117.347
X134.415 Y117.159
X134.955 Y116.812
X135.394 Y116.342
X135.725 Y115.792
X135.962 Y115.195
X136.122 Y114.573
X136.225 Y113.94
X136.29 Y113.301
X136.33 Y112.66
X136.354 Y112.018
X136.368 Y111.376
X136.376 Y110.734
X136.381 Y110.092
X136.384 Y109.449
X136.386 Y108.165
X136.387 Y103.67
Y72.203
Y22.112
Y6.058
X136.367 Y5.416
X136.234 Y4.788
X135.94 Y4.217
X135.508 Y3.741
X134.981 Y3.374
X134.397 Y3.107
X133.782 Y2.924
X133.151 Y2.804
X132.513 Y2.727
X131.873 Y2.681
X131.231 Y2.652
X130.837 Y2.642
X130.705 Y2.631
X130.575 Y2.606
X130.449 Y2.566
X130.392 Y2.545
X130.198 Y2.496
X129.663 Y2.423
X129.225 Y2.366
X128.788 Y2.318
X128.642 Y2.317
X10.358
X10.212 Y2.318
X9.774 Y2.366
X9.191 Y2.443
X9.045 Y2.463
X8.405 Y2.518
X7.765 Y2.568
X7.123 Y2.591
X6.481 Y2.605
X5.841 Y2.648
X5.225 Y2.831
X4.68 Y3.171
X4.236 Y3.635
X3.898 Y4.181
X3.656 Y4.776
X3.491 Y5.396
X3.384 Y6.03
X3.316 Y6.668
X3.274 Y7.309
X3.249 Y7.951
X3.234 Y8.593
X3.225 Y9.235
X3.22 Y9.877
X3.217 Y10.519
X3.214 Y11.803
X3.213 Y15.657
Y48.408
Y98.499
Y113.269
X3.23 Y113.911
X3.354 Y114.541
X3.635 Y115.118
X4.056 Y115.603
X4.575 Y115.982
X5.154 Y116.259
X5.767 Y116.451
X6.396 Y116.579
X6.585 Y116.603
X6.773 Y116.643
X6.951 Y116.712
X7.116 Y116.809
X7.149 Y116.832
X7.295 Y116.914
X7.441 Y116.98
X8.356 Y117.358
X8.512 Y117.418
X8.552 Y117.434
G3 X8.515 Y118.033 I-0.122 J0.293
G1 X8.447 Y118.052 Z-1.992
X8.383 Y118.07 Z-1.969
X8.325 Y118.086 Z-1.931
X8.276 Y118.099 Z-1.88
X8.24 Y118.109 Z-1.82
X8.217 Y118.116 Z-1.753
X8.209 Y118.118 Z-1.683
Z2
X10.01 Y1.944
Z-1.365
Z-1.683
X10.004 Y1.949 Z-1.753
X9.986 Y1.964 Z-1.82
X9.956 Y1.987 Z-1.88
X9.917 Y2.019 Z-1.931
X9.87 Y2.056 Z-1.969
X9.817 Y2.098 Z-1.992
X9.762 Y2.142 Z-2
G3 X9.045 Y2.463 I-0.985 J-1.239
G1 X8.802 Y2.496
X8.608 Y2.545
X8.462 Y2.6
X8.354 Y2.642
X8.001 Y2.788
X7.75 Y2.878
X7.591 Y2.926
X7.339 Y2.99
X6.71 Y3.119
X6.087 Y3.275
X5.516 Y3.568
X5.031 Y3.989
X4.649 Y4.506
X4.367 Y5.082
X4.169 Y5.693
X4.036 Y6.321
X3.95 Y6.958
X3.896 Y7.598
X3.862 Y8.239
X3.842 Y8.881
X3.83 Y9.523
X3.823 Y10.165
X3.818 Y10.807
X3.816 Y11.449
X3.814 Y12.734
X3.813 Y17.229
Y50.623
Y100.713
Y112.273
X3.816 Y112.915
X3.865 Y113.555
X4.053 Y114.169
X4.397 Y114.711
X4.862 Y115.154
X5.408 Y115.492
X5.442 Y115.506
X5.617 Y115.596
X5.775 Y115.713
X5.911 Y115.856
X5.945 Y115.899
X5.982 Y115.934
X6.114 Y116.045
X6.566 Y116.393
X7.003 Y116.729
X7.116 Y116.809
G3 X6.932 Y117.38 I-0.191 J0.253
G1 X6.861 Y117.381 Z-1.992
X6.794 Y117.383 Z-1.969
X6.734 Y117.384 Z-1.931
X6.683 Y117.385 Z-1.88
X6.646 Y117.386 Z-1.82
X6.622 Z-1.753
X6.614 Z-1.683
Z2
X8.803 Y2.041
Z-1.365
Z-1.683
X8.798 Y2.048 Z-1.753
X8.784 Y2.066 Z-1.82
X8.762 Y2.097 Z-1.88
X8.731 Y2.137 Z-1.931
X8.695 Y2.185 Z-1.969
X8.655 Y2.239 Z-1.992
X8.613 Y2.295 Z-2
G3 X8.001 Y2.788 I-1.268 J-0.947
G1 X7.441 Y3.021
X7.295 Y3.086
X7.149 Y3.168
X7.066 Y3.226
X7.003 Y3.272
X6.872 Y3.372
X6.343 Y3.737
X5.855 Y4.154
X5.445 Y4.649
X5.297 Y4.905
X5.27 Y4.95
X5.241 Y4.993
X5.211 Y5.035
G3 X4.764 Y5.078 Z-1.5 I-0.245 J-0.202
X4.741 Y4.609 I0.202 J-0.245
G1 X6.445 Y2.903
G3 X6.915 Y2.925 I0.225 J0.224
X6.872 Y3.372 Z-2 I-0.245 J0.202
G1 X6.42 Y3.719
X6.114 Y3.956
X5.982 Y4.066
X5.945 Y4.102
X5.591 Y4.54
X5.107 Y5.171
X5.038 Y5.269
X4.961 Y5.396
X4.951 Y5.415
X4.882 Y5.561
X4.67 Y6.07
X4.524 Y6.422
X4.36 Y6.875
X4.293 Y7.313
X4.197 Y8.043
X4.179 Y8.188
X4.168 Y8.334
X4.162 Y8.772
Y111.228
X4.168 Y111.666
X4.179 Y111.812
X4.197 Y111.958
X4.293 Y112.688
X4.36 Y113.126
X4.524 Y113.578
X4.76 Y114.147
X4.882 Y114.439
X4.951 Y114.585
X4.961 Y114.604
X5.038 Y114.731
X5.107 Y114.829
X5.591 Y115.461
X5.911 Y115.856
G3 X5.576 Y116.354 I-0.254 J0.191
G1 X5.508 Y116.336 Z-1.992
X5.443 Y116.319 Z-1.969
X5.385 Y116.304 Z-1.931
X5.336 Y116.291 Z-1.88
X5.3 Y116.281 Z-1.82
X5.277 Y116.275 Z-1.753
X5.269 Y116.273 Z-1.683
Z2
X128.989 Y118.056
Z-1.365
Z-1.683
X128.996 Y118.051 Z-1.753
X129.014 Y118.037 Z-1.82
X129.043 Y118.013 Z-1.88
X129.083 Y117.982 Z-1.931
X129.13 Y117.944 Z-1.969
X129.182 Y117.902 Z-1.992
X129.238 Y117.858 Z-2
G3 X129.954 Y117.537 I0.985 J1.238
G1 X130.195 Y117.504
X130.392 Y117.455
X130.538 Y117.4
X130.645 Y117.358
X131.065 Y117.184
X131.237 Y117.123
X131.393 Y117.075
X131.591 Y117.025
X131.85 Y116.972
X132.369 Y116.891
X133.007 Y116.823
X133.628 Y116.66
X134.189 Y116.347
X134.658 Y115.908
X135.021 Y115.378
X135.285 Y114.793
X135.468 Y114.177
X135.589 Y113.547
X135.667 Y112.909
X135.715 Y112.269
X135.744 Y111.627
X135.762 Y110.985
X135.773 Y110.343
X135.779 Y109.701
X135.782 Y109.059
X135.786 Y107.775
X135.787 Y104.564
X135.788 Y69.886
Y19.795
X135.787 Y6.951
X135.781 Y6.309
X135.707 Y5.672
X135.477 Y5.072
X135.1 Y4.552
X134.61 Y4.136
X134.048 Y3.826
X133.445 Y3.607
X132.82 Y3.459
X132.391 Y3.395
X132.213 Y3.354
X132.043 Y3.286
X131.886 Y3.193
X131.85 Y3.168
X131.705 Y3.086
X131.559 Y3.02
X130.646 Y2.642
X130.489 Y2.581
X130.449 Y2.566
G3 X130.486 Y1.967 I0.122 J-0.293
G1 X130.554 Y1.948 Z-1.992
X130.618 Y1.93 Z-1.969
X130.676 Y1.914 Z-1.931
X130.725 Y1.901 Z-1.88
X130.761 Y1.89 Z-1.82
X130.784 Y1.884 Z-1.753
X130.791 Y1.882 Z-1.683
Z2
X130.264 Y117.931
Z-1.365
Z-1.683
X130.268 Y117.925 Z-1.753
X130.283 Y117.906 Z-1.82
X130.305 Y117.875 Z-1.88
X130.335 Y117.835 Z-1.931
X130.371 Y117.787 Z-1.969
X130.411 Y117.733 Z-1.992
X130.454 Y117.677 Z-2
G3 X131.065 Y117.184 I1.267 J0.948
G1 X131.559 Y116.98
X131.705 Y116.914
X131.85 Y116.832
X131.896 Y116.8
X132.023 Y116.721
X132.166 Y116.644
X132.746 Y116.368
X133.316 Y116.072
X133.816 Y115.669
X134.223 Y115.173
X134.534 Y114.611
X134.759 Y114.009
X134.914 Y113.386
X135.017 Y112.752
X135.083 Y112.113
X135.124 Y111.472
X135.149 Y110.831
X135.165 Y110.189
X135.174 Y109.547
X135.18 Y108.904
X135.183 Y108.262
X135.186 Y106.978
X135.187 Y103.767
X135.188 Y67.805
Y17.714
X135.187 Y8.081
Y7.439
X135.173 Y6.797
X135.068 Y6.164
X134.808 Y5.576
X134.405 Y5.076
X133.899 Y4.681
X133.48 Y4.467
X133.34 Y4.381
X133.212 Y4.278
X133.1 Y4.157
X133.055 Y4.102
X133.017 Y4.066
X132.886 Y3.956
X132.434 Y3.606
X131.996 Y3.271
X131.886 Y3.193
G3 X132.07 Y2.622 I0.191 J-0.253
G1 X132.141 Y2.62 Z-1.992
X132.208 Y2.619 Z-1.969
X132.268 Y2.618 Z-1.931
X132.318 Y2.616 Z-1.88
X132.356 Z-1.82
X132.38 Y2.615 Z-1.753
X132.388 Z-1.683
Z2
X131.276 Y117.704
Z-1.365
Z-1.683
X131.279 Y117.697 Z-1.753
X131.289 Y117.675 Z-1.82
X131.304 Y117.641 Z-1.88
X131.325 Y117.595 Z-1.931
X131.35 Y117.54 Z-1.969
X131.377 Y117.479 Z-1.992
X131.406 Y117.414 Z-2
G3 X131.896 Y116.8 I1.443 J0.649
G1 X131.996 Y116.729
X132.58 Y116.281
X132.886 Y116.045
X133.017 Y115.935
X133.055 Y115.899
X133.409 Y115.461
X133.892 Y114.83
X133.961 Y114.731
X134.038 Y114.605
X134.049 Y114.585
X134.118 Y114.439
X134.33 Y113.932
X134.476 Y113.58
X134.64 Y113.126
X134.707 Y112.688
X134.803 Y111.958
X134.821 Y111.812
X134.832 Y111.666
X134.837 Y111.228
Y8.772
X134.832 Y8.334
X134.821 Y8.188
X134.784 Y7.897
X134.707 Y7.313
X134.64 Y6.875
X134.476 Y6.42
X134.24 Y5.853
X134.118 Y5.561
X134.049 Y5.415
X134.038 Y5.396
X133.962 Y5.269
X133.892 Y5.17
X133.409 Y4.54
X133.1 Y4.157
G3 X133.138 Y3.732 I0.254 J-0.191
G1 X133.186 Y3.707 Z-1.995
X133.233 Y3.682 Z-1.981
X133.276 Y3.658 Z-1.958
X133.317 Y3.653 Z-1.929
X133.353 Y3.649 Z-1.895
X133.387 Y3.653 Z-1.848
X133.413 Y3.656 Z-1.796
X133.429 Y3.658 Z-1.74
X133.434 Y3.659 Z-1.683
Z2
X-0.327 Y-3.695
Z-2.365
Z-2.682
X-0.325 Y-3.688 Z-2.753
X-0.32 Y-3.665 Z-2.82
X-0.31 Y-3.628 Z-2.88
X-0.298 Y-3.579 Z-2.931
X-0.283 Y-3.521 Z-2.969
X-0.266 Y-3.456 Z-2.992
X-0.249 Y-3.388 Z-3
G3 X0 Y-1.659 I-7.852 J2.011
G1 Y-1.566 F270
X-0.399 Y-1.064 F300
X-0.66 Y-0.476
X-0.814 Y0.147
X-0.899 Y0.783
X-0.944 Y1.424
X-0.966 Y2.066
X-0.977 Y2.708
X-0.982 Y3.35
X-0.985 Y3.992
X-0.987 Y5.277
X-0.988 Y35.459
Y48.303
Y98.394
Y118.944
X-0.933 Y119.26
X-0.803 Y119.554
X-0.433 Y120.079
X0.089 Y120.453
X0.685 Y120.692
X1.311 Y120.832
X1.949 Y120.909
X2.59 Y120.949
X3.232 Y120.968
X3.874 Y120.978
X4.516 Y120.983
X5.158 Y120.985
X7.085 Y120.987
X27.635 Y120.988
X77.725
X127.816
X138.091
X138.398 Y120.896
X138.678 Y120.739
X139.172 Y120.327
X139.514 Y119.784
X139.729 Y119.179
X139.853 Y118.549
X139.92 Y117.91
X139.954 Y117.269
X139.971 Y116.627
X139.98 Y115.985
X139.984 Y115.343
X139.986 Y114.701
X139.987 Y112.774
X139.988 Y81.949
Y31.859
Y1.034
X139.927 Y0.719
X139.793 Y0.427
X139.416 Y-0.093
X138.891 Y-0.463
X138.293 Y-0.698
X137.666 Y-0.836
X137.028 Y-0.911
X136.387 Y-0.949
X135.745 Y-0.969
X135.103 Y-0.978
X134.461 Y-0.983
X133.819 Y-0.985
X131.892 Y-0.987
X121.617 Y-0.988
X71.527
X21.436
X1.85
X1.534 Y-0.929
X1.236 Y-0.81
X0.693 Y-0.466
X0.286 Y0.031
X0.009 Y0.61
X-0.165 Y1.228
X-0.267 Y1.862
X-0.324 Y2.502
X-0.355 Y3.143
X-0.371 Y3.785
X-0.379 Y4.427
X-0.383 Y5.069
X-0.385 Y5.711
X-0.387 Y7.638
Y28.83
Y78.921
Y118.094
X-0.23 Y118.717
X0.127 Y119.25
X0.622 Y119.659
X1.196 Y119.947
X1.811 Y120.133
X2.443 Y120.246
X3.082 Y120.311
X3.723 Y120.347
X4.365 Y120.366
X5.007 Y120.376
X5.649 Y120.382
X6.291 Y120.385
X7.576 Y120.387
X9.502
X59.593
X109.683
X136.655
X137.297 Y120.363
X137.897 Y120.136
X138.393 Y119.727
X138.762 Y119.202
X139.015 Y118.611
X139.175 Y117.989
X139.271 Y117.354
X139.325 Y116.714
X139.354 Y116.073
X139.37 Y115.431
X139.379 Y114.789
X139.383 Y114.147
X139.385 Y113.505
X139.387 Y111.578
Y98.734
Y48.644
Y2.406
X139.376 Y1.764
X139.168 Y1.157
X138.775 Y0.65
X138.258 Y0.268
X137.672 Y0.006
X137.052 Y-0.162
X136.418 Y-0.263
X135.778 Y-0.321
X135.137 Y-0.352
X134.495 Y-0.369
X133.853 Y-0.378
X133.21 Y-0.383
X132.568 Y-0.385
X131.284 Y-0.387
X116.514
X86.973
X36.883
X2.847
X2.21 Y-0.303
X1.632 Y-0.023
X1.162 Y0.414
X0.814 Y0.954
X0.577 Y1.551
X0.425 Y2.175
X0.332 Y2.81
X0.279 Y3.45
X0.249 Y4.092
X0.232 Y4.734
X0.223 Y5.376
X0.218 Y6.018
X0.215 Y6.66
X0.213 Y7.944
Y14.366
Y64.457
Y114.547
Y117.116
X0.301 Y117.752
X0.581 Y118.33
X1.016 Y118.803
X1.552 Y119.156
X2.146 Y119.4
X2.768 Y119.558
X3.403 Y119.656
X4.043 Y119.714
X4.684 Y119.747
X5.326 Y119.765
X5.968 Y119.776
X6.61 Y119.781
X7.252 Y119.784
X8.537 Y119.787
X14.316
X46.426
X96.516
X135.69
X136.332 Y119.782
X136.955 Y119.626
X137.501 Y119.289
X137.934 Y118.814
X138.248 Y118.254
X138.461 Y117.648
X138.596 Y117.021
X138.679 Y116.384
X138.727 Y115.743
X138.754 Y115.102
X138.769 Y114.46
X138.778 Y113.818
X138.782 Y113.175
X138.785 Y112.533
X138.787 Y111.249
Y110.607
X138.788 Y60.516
Y10.426
Y3.362
X138.785 Y2.719
X138.646 Y2.093
X138.321 Y1.538
X137.856 Y1.096
X137.301 Y0.772
X136.698 Y0.553
X136.071 Y0.412
X135.435 Y0.326
X134.794 Y0.276
X134.153 Y0.247
X133.511 Y0.231
X132.869 Y0.223
X132.227 Y0.218
X131.584 Y0.215
X130.3 Y0.213
X122.594
X97.549
X47.458
X3.789
X3.148 Y0.249
X2.541 Y0.458
X2.021 Y0.834
X1.614 Y1.332
X1.321 Y1.903
X1.123 Y2.514
X0.996 Y3.143
X0.918 Y3.781
X0.872 Y4.421
X0.846 Y5.063
X0.831 Y5.705
X0.823 Y6.347
X0.818 Y6.989
X0.815 Y7.632
X0.813 Y8.916
Y15.98
Y55.153
Y105.244
Y116.161
X0.849 Y116.802
X1.052 Y117.411
X1.422 Y117.936
X1.913 Y118.35
X2.48 Y118.651
X3.089 Y118.857
X3.717 Y118.99
X4.354 Y119.072
X4.994 Y119.122
X5.636 Y119.15
X6.277 Y119.167
X6.92 Y119.176
X7.562 Y119.181
X8.204 Y119.184
X9.488 Y119.186
X14.626 Y119.187
X38.387 Y119.188
X88.477
X134.715
X135.357 Y119.186
X135.994 Y119.11
X136.582 Y118.852
X137.075 Y118.439
X137.453 Y117.92
X137.723 Y117.338
X137.904 Y116.721
X138.019 Y116.09
X138.09 Y115.451
X138.132 Y114.811
X138.156 Y114.169
X138.17 Y113.527
X138.178 Y112.885
X138.182 Y112.243
X138.185 Y111.6
X138.187 Y110.316
X138.188 Y103.252
Y67.29
Y17.199
Y4.355
X138.187 Y3.713
X138.126 Y3.074
X137.887 Y2.478
X137.49 Y1.973
X136.98 Y1.583
X136.402 Y1.302
X135.789 Y1.112
X135.158 Y0.991
X134.52 Y0.916
X133.88 Y0.871
X133.238 Y0.846
X132.596 Y0.831
X131.954 Y0.823
X131.312 Y0.818
X130.67 Y0.816
X129.385 Y0.813
X122.963
X103.056
X52.965
X4.801
X4.159 Y0.82
X3.527 Y0.933
X2.954 Y1.223
X2.48 Y1.656
X2.118 Y2.187
X1.861 Y2.775
X1.688 Y3.394
X1.577 Y4.026
X1.509 Y4.665
X1.468 Y5.306
X1.444 Y5.947
X1.43 Y6.589
X1.422 Y7.232
X1.418 Y7.874
X1.416 Y8.516
X1.413 Y9.8
Y16.222
Y50.9
Y100.991
Y115.119
X1.419 Y115.761
X1.519 Y116.395
X1.793 Y116.976
X2.213 Y117.462
X2.735 Y117.836
X3.318 Y118.106
X3.933 Y118.289
X4.564 Y118.407
X5.202 Y118.481
X5.843 Y118.526
X6.484 Y118.552
X7.126 Y118.567
X7.769 Y118.576
X8.411 Y118.581
X9.053 Y118.584
X10.337 Y118.586
X14.833 Y118.587
X35.383 Y118.588
X85.473
X134.279 Y118.587
X134.921 Y118.572
X135.547 Y118.43
X136.107 Y118.116
X136.566 Y117.666
X136.913 Y117.126
X137.159 Y116.532
X137.324 Y115.912
X137.429 Y115.278
X137.495 Y114.639
X137.534 Y113.998
X137.557 Y113.357
X137.57 Y112.715
X137.578 Y112.072
X137.582 Y111.43
X137.584 Y110.788
X137.587 Y109.504
Y103.082
Y69.046
Y18.956
Y4.827
X137.578 Y4.185
X137.464 Y3.553
X137.177 Y2.979
X136.746 Y2.503
X136.218 Y2.137
X135.631 Y1.876
X135.014 Y1.699
X134.382 Y1.585
X133.744 Y1.514
X133.103 Y1.471
X132.461 Y1.446
X131.819 Y1.432
X131.177 Y1.423
X130.535 Y1.418
X129.893 Y1.416
X128.608 Y1.414
X123.471 Y1.413
X103.563
X53.473
X5.951
X5.309
X4.667 Y1.436
X4.044 Y1.59
X3.488 Y1.913
X3.035 Y2.367
X2.691 Y2.91
X2.446 Y3.503
X2.281 Y4.124
X2.175 Y4.757
X2.108 Y5.396
X2.068 Y6.037
X2.045 Y6.679
X2.031 Y7.321
X2.023 Y7.963
X2.018 Y8.605
X2.016 Y9.247
X2.014 Y10.532
X2.013 Y15.669
Y51.631
Y101.722
Y114.566
X2.028 Y115.208
X2.157 Y115.837
X2.451 Y116.408
X2.884 Y116.881
X3.413 Y117.246
X3.999 Y117.509
X4.616 Y117.689
X5.247 Y117.806
X5.885 Y117.879
X6.526 Y117.924
X7.167 Y117.951
X7.809 Y117.966
X8.451 Y117.975
X9.094 Y117.981
X9.736 Y117.984
X11.02 Y117.986
X15.515 Y117.987
X37.35 Y117.988
X87.44
X133.678 Y117.987
X134.319 Y117.963
X134.942 Y117.806
X135.498 Y117.484
X135.953 Y117.031
X136.299 Y116.49
X136.546 Y115.897
X136.713 Y115.277
X136.822 Y114.644
X136.889 Y114.006
X136.93 Y113.365
X136.954 Y112.723
X136.968 Y112.081
X136.977 Y111.439
X136.981 Y110.797
X136.984 Y110.155
X136.986 Y108.87
X136.987 Y104.375
X136.988 Y65.844
Y15.753
X136.987 Y5.478
X136.976 Y4.836
X136.857 Y4.205
X136.575 Y3.628
X136.15 Y3.147
X135.627 Y2.775
X135.044 Y2.505
X134.429 Y2.32
X133.798 Y2.2
X133.161 Y2.124
X132.52 Y2.078
X131.878 Y2.051
X131.236 Y2.035
X130.594 Y2.025
X129.952 Y2.02
X129.31 Y2.017
X128.026 Y2.014
X124.173 Y2.013
X99.127
X49.037
X6.01
X5.369 Y2.033
X4.742 Y2.175
X4.176 Y2.478
X3.707 Y2.917
X3.347 Y3.449
X3.087 Y4.036
X2.91 Y4.653
X2.794 Y5.285
X2.722 Y5.923
X2.677 Y6.564
X2.65 Y7.205
X2.635 Y7.847
X2.625 Y8.489
X2.62 Y9.131
X2.617 Y9.774
X2.614 Y11.058
X2.613 Y14.911
X2.612 Y57.295
Y107.386
X2.613 Y113.808
X2.62 Y114.45
X2.721 Y115.084
X2.985 Y115.67
X3.39 Y116.168
X3.9 Y116.558
X4.475 Y116.845
X5.085 Y117.043
X5.714 Y117.175
X6.351 Y117.259
X6.991 Y117.311
X7.632 Y117.342
X8.168 Y117.358
X8.299 Y117.369
X8.427 Y117.394
X8.552 Y117.434
X8.608 Y117.455
X8.805 Y117.504
X9.337 Y117.577
X9.774 Y117.634
X10.212 Y117.682
X10.358 Y117.683
X128.642
X128.788 Y117.682
X129.225 Y117.634
X129.809 Y117.557
X129.954 Y117.537
X130.594 Y117.482
X131.234 Y117.432
X131.876 Y117.409
X132.518 Y117.398
X133.16 Y117.39
X133.801 Y117.347
X134.415 Y117.159
X134.955 Y116.812
X135.394 Y116.342
X135.725 Y115.792
X135.962 Y115.195
X136.122 Y114.573
X136.225 Y113.94
X136.29 Y113.301
X136.33 Y112.66
X136.354 Y112.018
X136.368 Y111.376
X136.376 Y110.734
X136.381 Y110.092
X136.384 Y109.449
X136.386 Y108.165
X136.387 Y103.67
Y72.203
Y22.112
Y6.058
X136.367 Y5.416
X136.234 Y4.788
X135.94 Y4.217
X135.508 Y3.741
X134.981 Y3.374
X134.397 Y3.107
X133.782 Y2.924
X133.151 Y2.804
X132.513 Y2.727
X131.873 Y2.681
X131.231 Y2.652
X130.837 Y2.642
X130.705 Y2.631
X130.575 Y2.606
X130.449 Y2.566
X130.392 Y2.545
X130.198 Y2.496
X129.663 Y2.423
X129.225 Y2.366
X128.788 Y2.318
X128.642 Y2.317
X10.358
X10.212 Y2.318
X9.774 Y2.366
X9.191 Y2.443
X9.045 Y2.463
X8.405 Y2.518
X7.765 Y2.568
X7.123 Y2.591
X6.481 Y2.605
X5.841 Y2.648
X5.225 Y2.831
X4.68 Y3.171
X4.236 Y3.635
X3.898 Y4.181
X3.656 Y4.776
X3.491 Y5.396
X3.384 Y6.03
X3.316 Y6.668
X3.274 Y7.309
X3.249 Y7.951
X3.234 Y8.593
X3.225 Y9.235
X3.22 Y9.877
X3.217 Y10.519
X3.214 Y11.803
X3.213 Y15.657
Y48.408
Y98.499
Y113.269
X3.23 Y113.911
X3.354 Y114.541
X3.635 Y115.118
X4.056 Y115.603
X4.575 Y115.982
X5.154 Y116.259
X5.767 Y116.451
X6.396 Y116.579
X6.585 Y116.603
X6.773 Y116.643
X6.951 Y116.712
X7.116 Y116.809
X7.149 Y116.832
X7.295 Y116.914
X7.441 Y116.98
X8.356 Y117.358
X8.512 Y117.418
X8.552 Y117.434
G3 X8.515 Y118.033 I-0.122 J0.293
G1 X8.447 Y118.052 Z-2.992
X8.383 Y118.07 Z-2.969
X8.325 Y118.086 Z-2.931
X8.276 Y118.099 Z-2.88
X8.24 Y118.109 Z-2.82
X8.217 Y118.116 Z-2.753
X8.209 Y118.118 Z-2.682
Z2
X10.01 Y1.944
Z-2.365
Z-2.682
X10.004 Y1.949 Z-2.753
X9.986 Y1.964 Z-2.82
X9.956 Y1.987 Z-2.88
X9.917 Y2.019 Z-2.931
X9.87 Y2.056 Z-2.969
X9.817 Y2.098 Z-2.992
X9.762 Y2.142 Z-3
G3 X9.045 Y2.463 I-0.985 J-1.239
G1 X8.802 Y2.496
X8.608 Y2.545
X8.462 Y2.6
X8.354 Y2.642
X8.001 Y2.788
X7.75 Y2.878
X7.591 Y2.926
X7.339 Y2.99
X6.71 Y3.119
X6.087 Y3.275
X5.516 Y3.568
X5.031 Y3.989
X4.649 Y4.506
X4.367 Y5.082
X4.169 Y5.693
X4.036 Y6.321
X3.95 Y6.958
X3.896 Y7.598
X3.862 Y8.239
X3.842 Y8.881
X3.83 Y9.523
X3.823 Y10.165
X3.818 Y10.807
X3.816 Y11.449
X3.814 Y12.734
X3.813 Y17.229
Y50.623
Y100.713
Y112.273
X3.816 Y112.915
X3.865 Y113.555
X4.053 Y114.169
X4.397 Y114.711
X4.862 Y115.154
X5.408 Y115.492
X5.442 Y115.506
X5.617 Y115.596
X5.775 Y115.713
X5.911 Y115.856
X5.945 Y115.899
X5.982 Y115.934
X6.114 Y116.045
X6.566 Y116.393
X7.003 Y116.729
X7.116 Y116.809
G3 X6.932 Y117.38 I-0.191 J0.253
G1 X6.861 Y117.381 Z-2.992
X6.794 Y117.383 Z-2.969
X6.734 Y117.384 Z-2.931
X6.683 Y117.385 Z-2.88
X6.646 Y117.386 Z-2.82
X6.622 Z-2.753
X6.614 Z-2.682
Z2
X8.803 Y2.041
Z-2.365
Z-2.682
X8.798 Y2.048 Z-2.753
X8.784 Y2.066 Z-2.82
X8.762 Y2.097 Z-2.88
X8.731 Y2.137 Z-2.931
X8.695 Y2.185 Z-2.969
X8.655 Y2.239 Z-2.992
X8.613 Y2.295 Z-3
G3 X8.001 Y2.788 I-1.268 J-0.947
G1 X7.441 Y3.021
X7.295 Y3.086
X7.149 Y3.168
X7.066 Y3.226
X7.003 Y3.272
X6.872 Y3.372
X6.343 Y3.737
X5.855 Y4.154
X5.445 Y4.649
X5.297 Y4.905
X5.27 Y4.95
X5.241 Y4.993
X5.211 Y5.035
G3 X4.764 Y5.078 Z-2.5 I-0.245 J-0.202
X4.741 Y4.609 I0.202 J-0.245
G1 X6.445 Y2.903
G3 X6.915 Y2.925 I0.225 J0.224
X6.872 Y3.372 Z-3 I-0.245 J0.202
G1 X6.42 Y3.719
X6.114 Y3.956
X5.982 Y4.066
X5.945 Y4.102
X5.591 Y4.54
X5.107 Y5.171
X5.038 Y5.269
X4.961 Y5.396
X4.951 Y5.415
X4.882 Y5.561
X4.67 Y6.07
X4.524 Y6.422
X4.36 Y6.875
X4.293 Y7.313
X4.197 Y8.043
X4.179 Y8.188
X4.168 Y8.334
X4.162 Y8.772
Y111.228
X4.168 Y111.666
X4.179 Y111.812
X4.197 Y111.958
X4.293 Y112.688
X4.36 Y113.126
X4.524 Y113.578
X4.76 Y114.147
X4.882 Y114.439
X4.951 Y114.585
X4.961 Y114.604
X5.038 Y114.731
X5.107 Y114.829
X5.591 Y115.461
X5.911 Y115.856
G3 X5.576 Y116.354 I-0.254 J0.191
G1 X5.508 Y116.336 Z-2.992
X5.443 Y116.319 Z-2.969
X5.385 Y116.304 Z-2.931
X5.336 Y116.291 Z-2.88
X5.3 Y116.281 Z-2.82
X5.277 Y116.275 Z-2.753
X5.269 Y116.273 Z-2.682
Z2
X128.989 Y118.056
Z-2.365
Z-2.682
X128.996 Y118.051 Z-2.753
X129.014 Y118.037 Z-2.82
X129.043 Y118.013 Z-2.88
X129.083 Y117.982 Z-2.931
X129.13 Y117.944 Z-2.969
X129.182 Y117.902 Z-2.992
X129.238 Y117.858 Z-3
G3 X129.954 Y117.537 I0.985 J1.238
G1 X130.195 Y117.504
X130.392 Y117.455
X130.538 Y117.4
X130.645 Y117.358
X131.065 Y117.184
X131.237 Y117.123
X131.393 Y117.075
X131.591 Y117.025
X131.85 Y116.972
X132.369 Y116.891
X133.007 Y116.823
X133.628 Y116.66
X134.189 Y116.347
X134.658 Y115.908
X135.021 Y115.378
X135.285 Y114.793
X135.468 Y114.177
X135.589 Y113.547
X135.667 Y112.909
X135.715 Y112.269
X135.744 Y111.627
X135.762 Y110.985
X135.773 Y110.343
X135.779 Y109.701
X135.782 Y109.059
X135.786 Y107.775
X135.787 Y104.564
X135.788 Y69.886
Y19.795
X135.787 Y6.951
X135.781 Y6.309
X135.707 Y5.672
X135.477 Y5.072
X135.1 Y4.552
X134.61 Y4.136
X134.048 Y3.826
X133.445 Y3.607
X132.82 Y3.459
X132.391 Y3.395
X132.213 Y3.354
X132.043 Y3.286
X131.886 Y3.193
X131.85 Y3.168
X131.705 Y3.086
X131.559 Y3.02
X130.646 Y2.642
X130.489 Y2.581
X130.449 Y2.566
G3 X130.486 Y1.967 I0.122 J-0.293
G1 X130.554 Y1.948 Z-2.992
X130.618 Y1.93 Z-2.969
X130.676 Y1.914 Z-2.931
X130.725 Y1.901 Z-2.88
X130.761 Y1.89 Z-2.82
X130.784 Y1.884 Z-2.753
X130.791 Y1.882 Z-2.682
Z2
X130.264 Y117.931
Z-2.365
Z-2.682
X130.268 Y117.925 Z-2.753
X130.283 Y117.906 Z-2.82
X130.305 Y117.875 Z-2.88
X130.335 Y117.835 Z-2.931
X130.371 Y117.787 Z-2.969
X130.411 Y117.733 Z-2.992
X130.454 Y117.677 Z-3
G3 X131.065 Y117.184 I1.267 J0.948
G1 X131.559 Y116.98
X131.705 Y116.914
X131.85 Y116.832
X131.896 Y116.8
X132.023 Y116.721
X132.166 Y116.644
X132.746 Y116.368
X133.316 Y116.072
X133.816 Y115.669
X134.223 Y115.173
X134.534 Y114.611
X134.759 Y114.009
X134.914 Y113.386
X135.017 Y112.752
X135.083 Y112.113
X135.124 Y111.472
X135.149 Y110.831
X135.165 Y110.189
X135.174 Y109.547
X135.18 Y108.904
X135.183 Y108.262
X135.186 Y106.978
X135.187 Y103.767
X135.188 Y67.805
Y17.714
X135.187 Y8.081
Y7.439
X135.173 Y6.797
X135.068 Y6.164
X134.808 Y5.576
X134.405 Y5.076
X133.899 Y4.681
X133.48 Y4.467
X133.34 Y4.381
X133.212 Y4.278
X133.1 Y4.157
X133.055 Y4.102
X133.017 Y4.066
X132.886 Y3.956
X132.434 Y3.606
X131.996 Y3.271
X131.886 Y3.193
G3 X132.07 Y2.622 I0.191 J-0.253
G1 X132.141 Y2.62 Z-2.992
X132.208 Y2.619 Z-2.969
X132.268 Y2.618 Z-2.931
X132.318 Y2.616 Z-2.88
X132.356 Z-2.82
X132.38 Y2.615 Z-2.753
X132.388 Z-2.682
Z2
X131.276 Y117.704
Z-2.365
Z-2.682
X131.279 Y117.697 Z-2.753
X131.289 Y117.675 Z-2.82
X131.304 Y117.641 Z-2.88
X131.325 Y117.595 Z-2.931
X131.35 Y117.54 Z-2.969
X131.377 Y117.479 Z-2.992
X131.406 Y117.414 Z-3
G3 X131.896 Y116.8 I1.443 J0.649
G1 X131.996 Y116.729
X132.58 Y116.281
X132.886 Y116.045
X133.017 Y115.935
X133.055 Y115.899
X133.409 Y115.461
X133.892 Y114.83
X133.961 Y114.731
X134.038 Y114.605
X134.049 Y114.585
X134.118 Y114.439
X134.33 Y113.932
X134.476 Y113.58
X134.64 Y113.126
X134.707 Y112.688
X134.803 Y111.958
X134.821 Y111.812
X134.832 Y111.666
X134.837 Y111.228
Y8.772
X134.832 Y8.334
X134.821 Y8.188
X134.784 Y7.897
X134.707 Y7.313
X134.64 Y6.875
X134.476 Y6.42
X134.24 Y5.853
X134.118 Y5.561
X134.049 Y5.415
X134.038 Y5.396
X133.962 Y5.269
X133.892 Y5.17
X133.409 Y4.54
X133.1 Y4.157
G3 X133.138 Y3.732 I0.254 J-0.191
G1 X133.186 Y3.707 Z-2.995
X133.233 Y3.682 Z-2.981
X133.276 Y3.658 Z-2.958
X133.317 Y3.653 Z-2.929
X133.353 Y3.649 Z-2.895
X133.387 Y3.653 Z-2.848
X133.413 Y3.656 Z-2.796
X133.429 Y3.658 Z-2.74
X133.434 Y3.659 Z-2.683
Z2
X-0.327 Y-3.695
Z-3.365
Z-3.682
X-0.325 Y-3.688 Z-3.753
X-0.32 Y-3.665 Z-3.82
X-0.31 Y-3.628 Z-3.88
X-0.298 Y-3.579 Z-3.931
X-0.283 Y-3.521 Z-3.969
X-0.266 Y-3.456 Z-3.992
X-0.249 Y-3.388 Z-4
G3 X0 Y-1.659 I-7.852 J2.011
G1 Y-1.566 F270
X-0.399 Y-1.064 F300
X-0.66 Y-0.476
X-0.814 Y0.147
X-0.899 Y0.783
X-0.944 Y1.424
X-0.966 Y2.066
X-0.977 Y2.708
X-0.982 Y3.35
X-0.985 Y3.992
X-0.987 Y5.277
X-0.988 Y35.459
Y48.303
Y98.394
Y118.944
X-0.933 Y119.26
X-0.803 Y119.554
X-0.433 Y120.079
X0.089 Y120.453
X0.685 Y120.692
X1.311 Y120.832
X1.949 Y120.909
X2.59 Y120.949
X3.232 Y120.968
X3.874 Y120.978
X4.516 Y120.983
X5.158 Y120.985
X7.085 Y120.987
X27.635 Y120.988
X77.725
X127.816
X138.091
X138.398 Y120.896
X138.678 Y120.739
X139.172 Y120.327
X139.514 Y119.784
X139.729 Y119.179
X139.853 Y118.549
X139.92 Y117.91
X139.954 Y117.269
X139.971 Y116.627
X139.98 Y115.985
X139.984 Y115.343
X139.986 Y114.701
X139.987 Y112.774
X139.988 Y81.949
Y31.859
Y1.034
X139.927 Y0.719
X139.793 Y0.427
X139.416 Y-0.093
X138.891 Y-0.463
X138.293 Y-0.698
X137.666 Y-0.836
X137.028 Y-0.911
X136.387 Y-0.949
X135.745 Y-0.969
X135.103 Y-0.978
X134.461 Y-0.983
X133.819 Y-0.985
X131.892 Y-0.987
X121.617 Y-0.988
X71.527
X21.436
X1.85
X1.534 Y-0.929
X1.236 Y-0.81
X0.693 Y-0.466
X0.286 Y0.031
X0.009 Y0.61
X-0.165 Y1.228
X-0.267 Y1.862
X-0.324 Y2.502
X-0.355 Y3.143
X-0.371 Y3.785
X-0.379 Y4.427
X-0.383 Y5.069
X-0.385 Y5.711
X-0.387 Y7.638
Y28.83
Y78.921
Y118.094
X-0.23 Y118.717
X0.127 Y119.25
X0.622 Y119.659
X1.196 Y119.947
X1.811 Y120.133
X2.443 Y120.246
X3.082 Y120.311
X3.723 Y120.347
X4.365 Y120.366
X5.007 Y120.376
X5.649 Y120.382
X6.291 Y120.385
X7.576 Y120.387
X9.502
X59.593
X109.683
X136.655
X137.297 Y120.363
X137.897 Y120.136
X138.393 Y119.727
X138.762 Y119.202
X139.015 Y118.611
X139.175 Y117.989
X139.271 Y117.354
X139.325 Y116.714
X139.354 Y116.073
X139.37 Y115.431
X139.379 Y114.789
X139.383 Y114.147
X139.385 Y113.505
X139.387 Y111.578
Y98.734
Y48.644
Y2.406
X139.376 Y1.764
X139.168 Y1.157
X138.775 Y0.65
X138.258 Y0.268
X137.672 Y0.006
X137.052 Y-0.162
X136.418 Y-0.263
X135.778 Y-0.321
X135.137 Y-0.352
X134.495 Y-0.369
X133.853 Y-0.378
X133.21 Y-0.383
X132.568 Y-0.385
X131.284 Y-0.387
X116.514
X86.973
X36.883
X2.847
X2.21 Y-0.303
X1.632 Y-0.023
X1.162 Y0.414
X0.814 Y0.954
X0.577 Y1.551
X0.425 Y2.175
X0.332 Y2.81
X0.279 Y3.45
X0.249 Y4.092
X0.232 Y4.734
X0.223 Y5.376
X0.218 Y6.018
X0.215 Y6.66
X0.213 Y7.944
Y14.366
Y64.457
Y114.547
Y117.116
X0.301 Y117.752
X0.581 Y118.33
X1.016 Y118.803
X1.552 Y119.156
X2.146 Y119.4
X2.768 Y119.558
X3.403 Y119.656
X4.043 Y119.714
X4.684 Y119.747
X5.326 Y119.765
X5.968 Y119.776
X6.61 Y119.781
X7.252 Y119.784
X8.537 Y119.787
X14.316
X46.426
X96.516
X135.69
X136.332 Y119.782
X136.955 Y119.626
X137.501 Y119.289
X137.934 Y118.814
X138.248 Y118.254
X138.461 Y117.648
X138.596 Y117.021
X138.679 Y116.384
X138.727 Y115.743
X138.754 Y115.102
X138.769 Y114.46
X138.778 Y113.818
X138.782 Y113.175
X138.785 Y112.533
X138.787 Y111.249
Y110.607
X138.788 Y60.516
Y10.426
Y3.362
X138.785 Y2.719
X138.646 Y2.093
X138.321 Y1.538
X137.856 Y1.096
X137.301 Y0.772
X136.698 Y0.553
X136.071 Y0.412
X135.435 Y0.326
X134.794 Y0.276
X134.153 Y0.247
X133.511 Y0.231
X132.869 Y0.223
X132.227 Y0.218
X131.584 Y0.215
X130.3 Y0.213
X122.594
X97.549
X47.458
X3.789
X3.148 Y0.249
X2.541 Y0.458
X2.021 Y0.834
X1.614 Y1.332
X1.321 Y1.903
X1.123 Y2.514
X0.996 Y3.143
X0.918 Y3.781
X0.872 Y4.421
X0.846 Y5.063
X0.831 Y5.705
X0.823 Y6.347
X0.818 Y6.989
X0.815 Y7.632
X0.813 Y8.916
Y15.98
Y55.153
Y105.244
Y116.161
X0.849 Y116.802
X1.052 Y117.411
X1.422 Y117.936
X1.913 Y118.35
X2.48 Y118.651
X3.089 Y118.857
X3.717 Y118.99
X4.354 Y119.072
X4.994 Y119.122
X5.636 Y119.15
X6.277 Y119.167
X6.92 Y119.176
X7.562 Y119.181
X8.204 Y119.184
X9.488 Y119.186
X14.626 Y119.187
X38.387 Y119.188
X88.477
X134.715
X135.357 Y119.186
X135.994 Y119.11
X136.582 Y118.852
X137.075 Y118.439
X137.453 Y117.92
X137.723 Y117.338
X137.904 Y116.721
X138.019 Y116.09
X138.09 Y115.451
X138.132 Y114.811
X138.156 Y114.169
X138.17 Y113.527
X138.178 Y112.885
X138.182 Y112.243
X138.185 Y111.6
X138.187 Y110.316
X138.188 Y103.252
Y67.29
Y17.199
Y4.355
X138.187 Y3.713
X138.126 Y3.074
X137.887 Y2.478
X137.49 Y1.973
X136.98 Y1.583
X136.402 Y1.302
X135.789 Y1.112
X135.158 Y0.991
X134.52 Y0.916
X133.88 Y0.871
X133.238 Y0.846
X132.596 Y0.831
X131.954 Y0.823
X131.312 Y0.818
X130.67 Y0.816
X129.385 Y0.813
X122.963
X103.056
X52.965
X4.801
X4.159 Y0.82
X3.527 Y0.933
X2.954 Y1.223
X2.48 Y1.656
X2.118 Y2.187
X1.861 Y2.775
X1.688 Y3.394
X1.577 Y4.026
X1.509 Y4.665
X1.468 Y5.306
X1.444 Y5.947
X1.43 Y6.589
X1.422 Y7.232
X1.418 Y7.874
X1.416 Y8.516
X1.413 Y9.8
Y16.222
Y50.9
Y100.991
Y115.119
X1.419 Y115.761
X1.519 Y116.395
X1.793 Y116.976
X2.213 Y117.462
X2.735 Y117.836
X3.318 Y118.106
X3.933 Y118.289
X4.564 Y118.407
X5.202 Y118.481
X5.843 Y118.526
X6.484 Y118.552
X7.126 Y118.567
X7.769 Y118.576
X8.411 Y118.581
X9.053 Y118.584
X10.337 Y118.586
X14.833 Y118.587
X35.383 Y118.588
X85.473
X134.279 Y118.587
X134.921 Y118.572
X135.547 Y118.43
X136.107 Y118.116
X136.566 Y117.666
X136.913 Y117.126
X137.159 Y116.532
X137.324 Y115.912
X137.429 Y115.278
X137.495 Y114.639
X137.534 Y113.998
X137.557 Y113.357
X137.57 Y112.715
X137.578 Y112.072
X137.582 Y111.43
X137.584 Y110.788
X137.587 Y109.504
Y103.082
Y69.046
Y18.956
Y4.827
X137.578 Y4.185
X137.464 Y3.553
X137.177 Y2.979
X136.746 Y2.503
X136.218 Y2.137
X135.631 Y1.876
X135.014 Y1.699
X134.382 Y1.585
X133.744 Y1.514
X133.103 Y1.471
X132.461 Y1.446
X131.819 Y1.432
X131.177 Y1.423
X130.535 Y1.418
X129.893 Y1.416
X128.608 Y1.414
X123.471 Y1.413
X103.563
X53.473
X5.951
X5.309
X4.667 Y1.436
X4.044 Y1.59
X3.488 Y1.913
X3.035 Y2.367
X2.691 Y2.91
X2.446 Y3.503
X2.281 Y4.124
X2.175 Y4.757
X2.108 Y5.396
X2.068 Y6.037
X2.045 Y6.679
X2.031 Y7.321
X2.023 Y7.963
X2.018 Y8.605
X2.016 Y9.247
X2.014 Y10.532
X2.013 Y15.669
Y51.631
Y101.722
Y114.566
X2.028 Y115.208
X2.157 Y115.837
X2.451 Y116.408
X2.884 Y116.881
X3.413 Y117.246
X3.999 Y117.509
X4.616 Y117.689
X5.247 Y117.806
X5.885 Y117.879
X6.526 Y117.924
X7.167 Y117.951
X7.809 Y117.966
X8.451 Y117.975
X9.094 Y117.981
X9.736 Y117.984
X11.02 Y117.986
X15.515 Y117.987
X37.35 Y117.988
X87.44
X133.678 Y117.987
X134.319 Y117.963
X134.942 Y117.806
X135.498 Y117.484
X135.953 Y117.031
X136.299 Y116.49
X136.546 Y115.897
X136.713 Y115.277
X136.822 Y114.644
X136.889 Y114.006
X136.93 Y113.365
X136.954 Y112.723
X136.968 Y112.081
X136.977 Y111.439
X136.981 Y110.797
X136.984 Y110.155
X136.986 Y108.87
X136.987 Y104.375
X136.988 Y65.844
Y15.753
X136.987 Y5.478
X136.976 Y4.836
X136.857 Y4.205
X136.575 Y3.628
X136.15 Y3.147
X135.627 Y2.775
X135.044 Y2.505
X134.429 Y2.32
X133.798 Y2.2
X133.161 Y2.124
X132.52 Y2.078
X131.878 Y2.051
X131.236 Y2.035
X130.594 Y2.025
X129.952 Y2.02
X129.31 Y2.017
X128.026 Y2.014
X124.173 Y2.013
X99.127
X49.037
X6.01
X5.369 Y2.033
X4.742 Y2.175
X4.176 Y2.478
X3.707 Y2.917
X3.347 Y3.449
X3.087 Y4.036
X2.91 Y4.653
X2.794 Y5.285
X2.722 Y5.923
X2.677 Y6.564
X2.65 Y7.205
X2.635 Y7.847
X2.625 Y8.489
X2.62 Y9.131
X2.617 Y9.774
X2.614 Y11.058
X2.613 Y14.911
X2.612 Y57.295
Y107.386
X2.613 Y113.808
X2.62 Y114.45
X2.721 Y115.084
X2.985 Y115.67
X3.39 Y116.168
X3.9 Y116.558
X4.475 Y116.845
X5.085 Y117.043
X5.714 Y117.175
X6.351 Y117.259
X6.991 Y117.311
X7.632 Y117.342
X8.168 Y117.358
X8.299 Y117.369
X8.427 Y117.394
X8.552 Y117.434
X8.608 Y117.455
X8.805 Y117.504
X9.337 Y117.577
X9.774 Y117.634
X10.212 Y117.682
X10.358 Y117.683
X128.642
X128.788 Y117.682
X129.225 Y117.634
X129.809 Y117.557
X129.954 Y117.537
X130.594 Y117.482
X131.234 Y117.432
X131.876 Y117.409
X132.518 Y117.398
X133.16 Y117.39
X133.801 Y117.347
X134.415 Y117.159
X134.955 Y116.812
X135.394 Y116.342
X135.725 Y115.792
X135.962 Y115.195
X136.122 Y114.573
X136.225 Y113.94
X136.29 Y113.301
X136.33 Y112.66
X136.354 Y112.018
X136.368 Y111.376
X136.376 Y110.734
X136.381 Y110.092
X136.384 Y109.449
X136.386 Y108.165
X136.387 Y103.67
Y72.203
Y22.112
Y6.058
X136.367 Y5.416
X136.234 Y4.788
X135.94 Y4.217
X135.508 Y3.741
X134.981 Y3.374
X134.397 Y3.107
X133.782 Y2.924
X133.151 Y2.804
X132.513 Y2.727
X131.873 Y2.681
X131.231 Y2.652
X130.837 Y2.642
X130.705 Y2.631
X130.575 Y2.606
X130.449 Y2.566
X130.392 Y2.545
X130.198 Y2.496
X129.663 Y2.423
X129.225 Y2.366
X128.788 Y2.318
X128.642 Y2.317
X10.358
X10.212 Y2.318
X9.774 Y2.366
X9.191 Y2.443
X9.045 Y2.463
X8.405 Y2.518
X7.765 Y2.568
X7.123 Y2.591
X6.481 Y2.605
X5.841 Y2.648
X5.225 Y2.831
X4.68 Y3.171
X4.236 Y3.635
X3.898 Y4.181
X3.656 Y4.776
X3.491 Y5.396
X3.384 Y6.03
X3.316 Y6.668
X3.274 Y7.309
X3.249 Y7.951
X3.234 Y8.593
X3.225 Y9.235
X3.22 Y9.877
X3.217 Y10.519
X3.214 Y11.803
X3.213 Y15.657
Y48.408
Y98.499
Y113.269
X3.23 Y113.911
X3.354 Y114.541
X3.635 Y115.118
X4.056 Y115.603
X4.575 Y115.982
X5.154 Y116.259
X5.767 Y116.451
X6.396 Y116.579
X6.585 Y116.603
X6.773 Y116.643
X6.951 Y116.712
X7.116 Y116.809
X7.149 Y116.832
X7.295 Y116.914
X7.441 Y116.98
X8.356 Y117.358
X8.512 Y117.418
X8.552 Y117.434
G3 X8.515 Y118.033 I-0.122 J0.293
G1 X8.447 Y118.052 Z-3.992
X8.383 Y118.07 Z-3.969
X8.325 Y118.086 Z-3.931
X8.276 Y118.099 Z-3.88
X8.24 Y118.109 Z-3.82
X8.217 Y118.116 Z-3.753
X8.209 Y118.118 Z-3.682
Z2
X10.01 Y1.944
Z-3.365
Z-3.682
X10.004 Y1.949 Z-3.753
X9.986 Y1.964 Z-3.82
X9.956 Y1.987 Z-3.88
X9.917 Y2.019 Z-3.931
X9.87 Y2.056 Z-3.969
X9.817 Y2.098 Z-3.992
X9.762 Y2.142 Z-4
G3 X9.045 Y2.463 I-0.985 J-1.239
G1 X8.802 Y2.496
X8.608 Y2.545
X8.462 Y2.6
X8.354 Y2.642
X8.001 Y2.788
X7.75 Y2.878
X7.591 Y2.926
X7.339 Y2.99
X6.71 Y3.119
X6.087 Y3.275
X5.516 Y3.568
X5.031 Y3.989
X4.649 Y4.506
X4.367 Y5.082
X4.169 Y5.693
X4.036 Y6.321
X3.95 Y6.958
X3.896 Y7.598
X3.862 Y8.239
X3.842 Y8.881
X3.83 Y9.523
X3.823 Y10.165
X3.818 Y10.807
X3.816 Y11.449
X3.814 Y12.734
X3.813 Y17.229
Y50.623
Y100.713
Y112.273
X3.816 Y112.915
X3.865 Y113.555
X4.053 Y114.169
X4.397 Y114.711
X4.862 Y115.154
X5.408 Y115.492
X5.442 Y115.506
X5.617 Y115.596
X5.775 Y115.713
X5.911 Y115.856
X5.945 Y115.899
X5.982 Y115.934
X6.114 Y116.045
X6.566 Y116.393
X7.003 Y116.729
X7.116 Y116.809
G3 X6.932 Y117.38 I-0.191 J0.253
G1 X6.861 Y117.381 Z-3.992
X6.794 Y117.383 Z-3.969
X6.734 Y117.384 Z-3.931
X6.683 Y117.385 Z-3.88
X6.646 Y117.386 Z-3.82
X6.622 Z-3.753
X6.614 Z-3.682
Z2
X8.803 Y2.041
Z-3.365
Z-3.682
X8.798 Y2.048 Z-3.753
X8.784 Y2.066 Z-3.82
X8.762 Y2.097 Z-3.88
X8.731 Y2.137 Z-3.931
X8.695 Y2.185 Z-3.969
X8.655 Y2.239 Z-3.992
X8.613 Y2.295 Z-4
G3 X8.001 Y2.788 I-1.268 J-0.947
G1 X7.441 Y3.021
X7.295 Y3.086
X7.149 Y3.168
X7.066 Y3.226
X7.003 Y3.272
X6.872 Y3.372
X6.343 Y3.737
X5.855 Y4.154
X5.445 Y4.649
X5.297 Y4.905
X5.27 Y4.95
X5.241 Y4.993
X5.211 Y5.035
G3 X4.764 Y5.078 Z-3.5 I-0.245 J-0.202
X4.741 Y4.609 I0.202 J-0.245
G1 X6.445 Y2.903
G3 X6.915 Y2.925 I0.225 J0.224
X6.872 Y3.372 Z-4 I-0.245 J0.202
G1 X6.42 Y3.719
X6.114 Y3.956
X5.982 Y4.066
X5.945 Y4.102
X5.591 Y4.54
X5.107 Y5.171
X5.038 Y5.269
X4.961 Y5.396
X4.951 Y5.415
X4.882 Y5.561
X4.67 Y6.07
X4.524 Y6.422
X4.36 Y6.875
X4.293 Y7.313
X4.197 Y8.043
X4.179 Y8.188
X4.168 Y8.334
X4.162 Y8.772
Y111.228
X4.168 Y111.666
X4.179 Y111.812
X4.197 Y111.958
X4.293 Y112.688
X4.36 Y113.126
X4.524 Y113.578
X4.76 Y114.147
X4.882 Y114.439
X4.951 Y114.585
X4.961 Y114.604
X5.038 Y114.731
X5.107 Y114.829
X5.591 Y115.461
X5.911 Y115.856
G3 X5.576 Y116.354 I-0.254 J0.191
G1 X5.508 Y116.336 Z-3.992
X5.443 Y116.319 Z-3.969
X5.385 Y116.304 Z-3.931
X5.336 Y116.291 Z-3.88
X5.3 Y116.281 Z-3.82
X5.277 Y116.275 Z-3.753
X5.269 Y116.273 Z-3.682
Z2
X128.989 Y118.056
Z-3.365
Z-3.682
X128.996 Y118.051 Z-3.753
X129.014 Y118.037 Z-3.82
X129.043 Y118.013 Z-3.88
X129.083 Y117.982 Z-3.931
X129.13 Y117.944 Z-3.969
X129.182 Y117.902 Z-3.992
X129.238 Y117.858 Z-4
G3 X129.954 Y117.537 I0.985 J1.238
G1 X130.195 Y117.504
X130.392 Y117.455
X130.538 Y117.4
X130.645 Y117.358
X131.065 Y117.184
X131.237 Y117.123
X131.393 Y117.075
X131.591 Y117.025
X131.85 Y116.972
X132.369 Y116.891
X133.007 Y116.823
X133.628 Y116.66
X134.189 Y116.347
X134.658 Y115.908
X135.021 Y115.378
X135.285 Y114.793
X135.468 Y114.177
X135.589 Y113.547
X135.667 Y112.909
X135.715 Y112.269
X135.744 Y111.627
X135.762 Y110.985
X135.773 Y110.343
X135.779 Y109.701
X135.782 Y109.059
X135.786 Y107.775
X135.787 Y104.564
X135.788 Y69.886
Y19.795
X135.787 Y6.951
X135.781 Y6.309
X135.707 Y5.672
X135.477 Y5.072
X135.1 Y4.552
X134.61 Y4.136
X134.048 Y3.826
X133.445 Y3.607
X132.82 Y3.459
X132.391 Y3.395
X132.213 Y3.354
X132.043 Y3.286
X131.886 Y3.193
X131.85 Y3.168
X131.705 Y3.086
X131.559 Y3.02
X130.646 Y2.642
X130.489 Y2.581
X130.449 Y2.566
G3 X130.486 Y1.967 I0.122 J-0.293
G1 X130.554 Y1.948 Z-3.992
X130.618 Y1.93 Z-3.969
X130.676 Y1.914 Z-3.931
X130.725 Y1.901 Z-3.88
X130.761 Y1.89 Z-3.82
X130.784 Y1.884 Z-3.753
X130.791 Y1.882 Z-3.682
Z2
X130.264 Y117.931
Z-3.365
Z-3.682
X130.268 Y117.925 Z-3.753
X130.283 Y117.906 Z-3.82
X130.305 Y117.875 Z-3.88
X130.335 Y117.835 Z-3.931
X130.371 Y117.787 Z-3.969
X130.411 Y117.733 Z-3.992
X130.454 Y117.677 Z-4
G3 X131.065 Y117.184 I1.267 J0.948
G1 X131.559 Y116.98
X131.705 Y116.914
X131.85 Y116.832
X131.896 Y116.8
X132.023 Y116.721
X132.166 Y116.644
X132.746 Y116.368
X133.316 Y116.072
X133.816 Y115.669
X134.223 Y115.173
X134.534 Y114.611
X134.759 Y114.009
X134.914 Y113.386
X135.017 Y112.752
X135.083 Y112.113
X135.124 Y111.472
X135.149 Y110.831
X135.165 Y110.189
X135.174 Y109.547
X135.18 Y108.904
X135.183 Y108.262
X135.186 Y106.978
X135.187 Y103.767
X135.188 Y67.805
Y17.714
X135.187 Y8.081
Y7.439
X135.173 Y6.797
X135.068 Y6.164
X134.808 Y5.576
X134.405 Y5.076
X133.899 Y4.681
X133.48 Y4.467
X133.34 Y4.381
X133.212 Y4.278
X133.1 Y4.157
X133.055 Y4.102
X133.017 Y4.066
X132.886 Y3.956
X132.434 Y3.606
X131.996 Y3.271
X131.886 Y3.193
G3 X132.07 Y2.622 I0.191 J-0.253
G1 X132.141 Y2.62 Z-3.992
X132.208 Y2.619 Z-3.969
X132.268 Y2.618 Z-3.931
X132.318 Y2.616 Z-3.88
X132.356 Z-3.82
X132.38 Y2.615 Z-3.753
X132.388 Z-3.682
Z2
X131.276 Y117.704
Z-3.365
Z-3.682
X131.279 Y117.697 Z-3.753
X131.289 Y117.675 Z-3.82
X131.304 Y117.641 Z-3.88
X131.325 Y117.595 Z-3.931
X131.35 Y117.54 Z-3.969
X131.377 Y117.479 Z-3.992
X131.406 Y117.414 Z-4
G3 X131.896 Y116.8 I1.443 J0.649
G1 X131.996 Y116.729
X132.58 Y116.281
X132.886 Y116.045
X133.017 Y115.935
X133.055 Y115.899
X133.409 Y115.461
X133.892 Y114.83
X133.961 Y114.731
X134.038 Y114.605
X134.049 Y114.585
X134.118 Y114.439
X134.33 Y113.932
X134.476 Y113.58
X134.64 Y113.126
X134.707 Y112.688
X134.803 Y111.958
X134.821 Y111.812
X134.832 Y111.666
X134.837 Y111.228
Y8.772
X134.832 Y8.334
X134.821 Y8.188
X134.784 Y7.897
X134.707 Y7.313
X134.64 Y6.875
X134.476 Y6.42
X134.24 Y5.853
X134.118 Y5.561
X134.049 Y5.415
X134.038 Y5.396
X133.962 Y5.269
X133.892 Y5.17
X133.409 Y4.54
X133.1 Y4.157
G3 X133.138 Y3.732 I0.254 J-0.191
G1 X133.186 Y3.707 Z-3.995
X133.233 Y3.682 Z-3.981
X133.276 Y3.658 Z-3.958
X133.317 Y3.653 Z-3.929
X133.353 Y3.649 Z-3.895
X133.387 Y3.653 Z-3.848
X133.413 Y3.656 Z-3.796
X133.429 Y3.658 Z-3.74
X133.434 Y3.659 Z-3.683
Z2
X-0.327 Y-3.695
Z-4.365
Z-4.682
X-0.325 Y-3.688 Z-4.753
X-0.32 Y-3.665 Z-4.82
X-0.31 Y-3.628 Z-4.88
X-0.298 Y-3.579 Z-4.931
X-0.283 Y-3.521 Z-4.969
X-0.266 Y-3.456 Z-4.992
X-0.249 Y-3.388 Z-5
G3 X0 Y-1.659 I-7.852 J2.011
G1 Y-1.566 F270
X-0.399 Y-1.064 F300
X-0.66 Y-0.476
X-0.814 Y0.147
X-0.899 Y0.783
X-0.944 Y1.424
X-0.966 Y2.066
X-0.977 Y2.708
X-0.982 Y3.35
X-0.985 Y3.992
X-0.987 Y5.277
X-0.988 Y35.459
Y48.303
Y98.394
Y118.944
X-0.933 Y119.26
X-0.803 Y119.554
X-0.433 Y120.079
X0.089 Y120.453
X0.685 Y120.692
X1.311 Y120.832
X1.949 Y120.909
X2.59 Y120.949
X3.232 Y120.968
X3.874 Y120.978
X4.516 Y120.983
X5.158 Y120.985
X7.085 Y120.987
X27.635 Y120.988
X77.725
X127.816
X138.091
X138.398 Y120.896
X138.678 Y120.739
X139.172 Y120.327
X139.514 Y119.784
X139.729 Y119.179
X139.853 Y118.549
X139.92 Y117.91
X139.954 Y117.269
X139.971 Y116.627
X139.98 Y115.985
X139.984 Y115.343
X139.986 Y114.701
X139.987 Y112.774
X139.988 Y81.949
Y31.859
Y1.034
X139.927 Y0.719
X139.793 Y0.427
X139.416 Y-0.093
X138.891 Y-0.463
X138.293 Y-0.698
X137.666 Y-0.836
X137.028 Y-0.911
X136.387 Y-0.949
X135.745 Y-0.969
X135.103 Y-0.978
X134.461 Y-0.983
X133.819 Y-0.985
X131.892 Y-0.987
X121.617 Y-0.988
X71.527
X21.436
X1.85
X1.534 Y-0.929
X1.236 Y-0.81
X0.693 Y-0.466
X0.286 Y0.031
X0.009 Y0.61
X-0.165 Y1.228
X-0.267 Y1.862
X-0.324 Y2.502
X-0.355 Y3.143
X-0.371 Y3.785
X-0.379 Y4.427
X-0.383 Y5.069
X-0.385 Y5.711
X-0.387 Y7.638
Y28.83
Y78.921
Y118.094
X-0.23 Y118.717
X0.127 Y119.25
X0.622 Y119.659
X1.196 Y119.947
X1.811 Y120.133
X2.443 Y120.246
X3.082 Y120.311
X3.723 Y120.347
X4.365 Y120.366
X5.007 Y120.376
X5.649 Y120.382
X6.291 Y120.385
X7.576 Y120.387
X9.502
X59.593
X109.683
X136.655
X137.297 Y120.363
X137.897 Y120.136
X138.393 Y119.727
X138.762 Y119.202
X139.015 Y118.611
X139.175 Y117.989
X139.271 Y117.354
X139.325 Y116.714
X139.354 Y116.073
X139.37 Y115.431
X139.379 Y114.789
X139.383 Y114.147
X139.385 Y113.505
X139.387 Y111.578
Y98.734
Y48.644
Y2.406
X139.376 Y1.764
X139.168 Y1.157
X138.775 Y0.65
X138.258 Y0.268
X137.672 Y0.006
X137.052 Y-0.162
X136.418 Y-0.263
X135.778 Y-0.321
X135.137 Y-0.352
X134.495 Y-0.369
X133.853 Y-0.378
X133.21 Y-0.383
X132.568 Y-0.385
X131.284 Y-0.387
X116.514
X86.973
X36.883
X2.847
X2.21 Y-0.303
X1.632 Y-0.023
X1.162 Y0.414
X0.814 Y0.954
X0.577 Y1.551
X0.425 Y2.175
X0.332 Y2.81
X0.279 Y3.45
X0.249 Y4.092
X0.232 Y4.734
X0.223 Y5.376
X0.218 Y6.018
X0.215 Y6.66
X0.213 Y7.944
Y14.366
Y64.457
Y114.547
Y117.116
X0.301 Y117.752
X0.581 Y118.33
X1.016 Y118.803
X1.552 Y119.156
X2.146 Y119.4
X2.768 Y119.558
X3.403 Y119.656
X4.043 Y119.714
X4.684 Y119.747
X5.326 Y119.765
X5.968 Y119.776
X6.61 Y119.781
X7.252 Y119.784
X8.537 Y119.787
X14.316
X46.426
X96.516
X135.69
X136.332 Y119.782
X136.955 Y119.626
X137.501 Y119.289
X137.934 Y118.814
X138.248 Y118.254
X138.461 Y117.648
X138.596 Y117.021
X138.679 Y116.384
X138.727 Y115.743
X138.754 Y115.102
X138.769 Y114.46
X138.778 Y113.818
X138.782 Y113.175
X138.785 Y112.533
X138.787 Y111.249
Y110.607
X138.788 Y60.516
Y10.426
Y3.362
X138.785 Y2.719
X138.646 Y2.093
X138.321 Y1.538
X137.856 Y1.096
X137.301 Y0.772
X136.698 Y0.553
X136.071 Y0.412
X135.435 Y0.326
X134.794 Y0.276
X134.153 Y0.247
X133.511 Y0.231
X132.869 Y0.223
X132.227 Y0.218
X131.584 Y0.215
X130.3 Y0.213
X122.594
X97.549
X47.458
X3.789
X3.148 Y0.249
X2.541 Y0.458
X2.021 Y0.834
X1.614 Y1.332
X1.321 Y1.903
X1.123 Y2.514
X0.996 Y3.143
X0.918 Y3.781
X0.872 Y4.421
X0.846 Y5.063
X0.831 Y5.705
X0.823 Y6.347
X0.818 Y6.989
X0.815 Y7.632
X0.813 Y8.916
Y15.98
Y55.153
Y105.244
Y116.161
X0.849 Y116.802
X1.052 Y117.411
X1.422 Y117.936
X1.913 Y118.35
X2.48 Y118.651
X3.089 Y118.857
X3.717 Y118.99
X4.354 Y119.072
X4.994 Y119.122
X5.636 Y119.15
X6.277 Y119.167
X6.92 Y119.176
X7.562 Y119.181
X8.204 Y119.184
X9.488 Y119.186
X14.626 Y119.187
X38.387 Y119.188
X88.477
X134.715
X135.357 Y119.186
X135.994 Y119.11
X136.582 Y118.852
X137.075 Y118.439
X137.453 Y117.92
X137.723 Y117.338
X137.904 Y116.721
X138.019 Y116.09
X138.09 Y115.451
X138.132 Y114.811
X138.156 Y114.169
X138.17 Y113.527
X138.178 Y112.885
X138.182 Y112.243
X138.185 Y111.6
X138.187 Y110.316
X138.188 Y103.252
Y67.29
Y17.199
Y4.355
X138.187 Y3.713
X138.126 Y3.074
X137.887 Y2.478
X137.49 Y1.973
X136.98 Y1.583
X136.402 Y1.302
X135.789 Y1.112
X135.158 Y0.991
X134.52 Y0.916
X133.88 Y0.871
X133.238 Y0.846
X132.596 Y0.831
X131.954 Y0.823
X131.312 Y0.818
X130.67 Y0.816
X129.385 Y0.813
X122.963
X103.056
X52.965
X4.801
X4.159 Y0.82
X3.527 Y0.933
X2.954 Y1.223
X2.48 Y1.656
X2.118 Y2.187
X1.861 Y2.775
X1.688 Y3.394
X1.577 Y4.026
X1.509 Y4.665
X1.468 Y5.306
X1.444 Y5.947
X1.43 Y6.589
X1.422 Y7.232
X1.418 Y7.874
X1.416 Y8.516
X1.413 Y9.8
Y16.222
Y50.9
Y100.991
Y115.119
X1.419 Y115.761
X1.519 Y116.395
X1.793 Y116.976
X2.213 Y117.462
X2.735 Y117.836
X3.318 Y118.106
X3.933 Y118.289
X4.564 Y118.407
X5.202 Y118.481
X5.843 Y118.526
X6.484 Y118.552
X7.126 Y118.567
X7.769 Y118.576
X8.411 Y118.581
X9.053 Y118.584
X10.337 Y118.586
X14.833 Y118.587
X35.383 Y118.588
X85.473
X134.279 Y118.587
X134.921 Y118.572
X135.547 Y118.43
X136.107 Y118.116
X136.566 Y117.666
X136.913 Y117.126
X137.159 Y116.532
X137.324 Y115.912
X137.429 Y115.278
X137.495 Y114.639
X137.534 Y113.998
X137.557 Y113.357
X137.57 Y112.715
X137.578 Y112.072
X137.582 Y111.43
X137.584 Y110.788
X137.587 Y109.504
Y103.082
Y69.046
Y18.956
Y4.827
X137.578 Y4.185
X137.464 Y3.553
X137.177 Y2.979
X136.746 Y2.503
X136.218 Y2.137
X135.631 Y1.876
X135.014 Y1.699
X134.382 Y1.585
X133.744 Y1.514
X133.103 Y1.471
X132.461 Y1.446
X131.819 Y1.432
X131.177 Y1.423
X130.535 Y1.418
X129.893 Y1.416
X128.608 Y1.414
X123.471 Y1.413
X103.563
X53.473
X5.951
X5.309
X4.667 Y1.436
X4.044 Y1.59
X3.488 Y1.913
X3.035 Y2.367
X2.691 Y2.91
X2.446 Y3.503
X2.281 Y4.124
X2.175 Y4.757
X2.108 Y5.396
X2.068 Y6.037
X2.045 Y6.679
X2.031 Y7.321
X2.023 Y7.963
X2.018 Y8.605
X2.016 Y9.247
X2.014 Y10.532
X2.013 Y15.669
Y51.631
Y101.722
Y114.566
X2.028 Y115.208
X2.157 Y115.837
X2.451 Y116.408
X2.884 Y116.881
X3.413 Y117.246
X3.999 Y117.509
X4.616 Y117.689
X5.247 Y117.806
X5.885 Y117.879
X6.526 Y117.924
X7.167 Y117.951
X7.809 Y117.966
X8.451 Y117.975
X9.094 Y117.981
X9.736 Y117.984
X11.02 Y117.986
X15.515 Y117.987
X37.35 Y117.988
X87.44
X133.678 Y117.987
X134.319 Y117.963
X134.942 Y117.806
X135.498 Y117.484
X135.953 Y117.031
X136.299 Y116.49
X136.546 Y115.897
X136.713 Y115.277
X136.822 Y114.644
X136.889 Y114.006
X136.93 Y113.365
X136.954 Y112.723
X136.968 Y112.081
X136.977 Y111.439
X136.981 Y110.797
X136.984 Y110.155
X136.986 Y108.87
X136.987 Y104.375
X136.988 Y65.844
Y15.753
X136.987 Y5.478
X136.976 Y4.836
X136.857 Y4.205
X136.575 Y3.628
X136.15 Y3.147
X135.627 Y2.775
X135.044 Y2.505
X134.429 Y2.32
X133.798 Y2.2
X133.161 Y2.124
X132.52 Y2.078
X131.878 Y2.051
X131.236 Y2.035
X130.594 Y2.025
X129.952 Y2.02
X129.31 Y2.017
X128.026 Y2.014
X124.173 Y2.013
X99.127
X49.037
X6.01
X5.369 Y2.033
X4.742 Y2.175
X4.176 Y2.478
X3.707 Y2.917
X3.347 Y3.449
X3.087 Y4.036
X2.91 Y4.653
X2.794 Y5.285
X2.722 Y5.923
X2.677 Y6.564
X2.65 Y7.205
X2.635 Y7.847
X2.625 Y8.489
X2.62 Y9.131
X2.617 Y9.774
X2.614 Y11.058
X2.613 Y14.911
X2.612 Y57.295
Y107.386
X2.613 Y113.808
X2.62 Y114.45
X2.721 Y115.084
X2.985 Y115.67
X3.39 Y116.168
X3.9 Y116.558
X4.475 Y116.845
X5.085 Y117.043
X5.714 Y117.175
X6.351 Y117.259
X6.991 Y117.311
X7.632 Y117.342
X8.168 Y117.358
X8.299 Y117.369
X8.427 Y117.394
X8.552 Y117.434
X8.608 Y117.455
X8.805 Y117.504
X9.337 Y117.577
X9.774 Y117.634
X10.212 Y117.682
X10.358 Y117.683
X128.642
X128.788 Y117.682
X129.225 Y117.634
X129.809 Y117.557
X129.954 Y117.537
X130.594 Y117.482
X131.234 Y117.432
X131.876 Y117.409
X132.518 Y117.398
X133.16 Y117.39
X133.801 Y117.347
X134.415 Y117.159
X134.955 Y116.812
X135.394 Y116.342
X135.725 Y115.792
X135.962 Y115.195
X136.122 Y114.573
X136.225 Y113.94
X136.29 Y113.301
X136.33 Y112.66
X136.354 Y112.018
X136.368 Y111.376
X136.376 Y110.734
X136.381 Y110.092
X136.384 Y109.449
X136.386 Y108.165
X136.387 Y103.67
Y72.203
Y22.112
Y6.058
X136.367 Y5.416
X136.234 Y4.788
X135.94 Y4.217
X135.508 Y3.741
X134.981 Y3.374
X134.397 Y3.107
X133.782 Y2.924
X133.151 Y2.804
X132.513 Y2.727
X131.873 Y2.681
X131.231 Y2.652
X130.837 Y2.642
X130.705 Y2.631
X130.575 Y2.606
X130.449 Y2.566
X130.392 Y2.545
X130.198 Y2.496
X129.663 Y2.423
X129.225 Y2.366
X128.788 Y2.318
X128.642 Y2.317
X10.358
X10.212 Y2.318
X9.774 Y2.366
X9.191 Y2.443
X9.045 Y2.463
X8.405 Y2.518
X7.765 Y2.568
X7.123 Y2.591
X6.481 Y2.605
X5.841 Y2.648
X5.225 Y2.831
X4.68 Y3.171
X4.236 Y3.635
X3.898 Y4.181
X3.656 Y4.776
X3.491 Y5.396
X3.384 Y6.03
X3.316 Y6.668
X3.274 Y7.309
X3.249 Y7.951
X3.234 Y8.593
X3.225 Y9.235
X3.22 Y9.877
X3.217 Y10.519
X3.214 Y11.803
X3.213 Y15.657
Y48.408
Y98.499
Y113.269
X3.23 Y113.911
X3.354 Y114.541
X3.635 Y115.118
X4.056 Y115.603
X4.575 Y115.982
X5.154 Y116.259
X5.767 Y116.451
X6.396 Y116.579
X6.585 Y116.603
X6.773 Y116.643
X6.951 Y116.712
X7.116 Y116.809
X7.149 Y116.832
X7.295 Y116.914
X7.441 Y116.98
X8.356 Y117.358
X8.512 Y117.418
X8.552 Y117.434
G3 X8.515 Y118.033 I-0.122 J0.293
G1 X8.447 Y118.052 Z-4.992
X8.383 Y118.07 Z-4.969
X8.325 Y118.086 Z-4.931
X8.276 Y118.099 Z-4.88
X8.24 Y118.109 Z-4.82
X8.217 Y118.116 Z-4.753
X8.209 Y118.118 Z-4.682
Z2
X10.01 Y1.944
Z-4.365
Z-4.682
X10.004 Y1.949 Z-4.753
X9.986 Y1.964 Z-4.82
X9.956 Y1.987 Z-4.88
X9.917 Y2.019 Z-4.931
X9.87 Y2.056 Z-4.969
X9.817 Y2.098 Z-4.992
X9.762 Y2.142 Z-5
G3 X9.045 Y2.463 I-0.985 J-1.239
G1 X8.802 Y2.496
X8.608 Y2.545
X8.462 Y2.6
X8.354 Y2.642
X8.001 Y2.788
X7.75 Y2.878
X7.591 Y2.926
X7.339 Y2.99
X6.71 Y3.119
X6.087 Y3.275
X5.516 Y3.568
X5.031 Y3.989
X4.649 Y4.506
X4.367 Y5.082
X4.169 Y5.693
X4.036 Y6.321
X3.95 Y6.958
X3.896 Y7.598
X3.862 Y8.239
X3.842 Y8.881
X3.83 Y9.523
X3.823 Y10.165
X3.818 Y10.807
X3.816 Y11.449
X3.814 Y12.734
X3.813 Y17.229
Y50.623
Y100.713
Y112.273
X3.816 Y112.915
X3.865 Y113.555
X4.053 Y114.169
X4.397 Y114.711
X4.862 Y115.154
X5.408 Y115.492
X5.442 Y115.506
X5.617 Y115.596
X5.775 Y115.713
X5.911 Y115.856
X5.945 Y115.899
X5.982 Y115.934
X6.114 Y116.045
X6.566 Y116.393
X7.003 Y116.729
X7.116 Y116.809
G3 X6.932 Y117.38 I-0.191 J0.253
G1 X6.861 Y117.381 Z-4.992
X6.794 Y117.383 Z-4.969
X6.734 Y117.384 Z-4.931
X6.683 Y117.385 Z-4.88
X6.646 Y117.386 Z-4.82
X6.622 Z-4.753
X6.614 Z-4.682
Z2
X8.803 Y2.041
Z-4.365
Z-4.682
X8.798 Y2.048 Z-4.753
X8.784 Y2.066 Z-4.82
X8.762 Y2.097 Z-4.88
X8.731 Y2.137 Z-4.931
X8.695 Y2.185 Z-4.969
X8.655 Y2.239 Z-4.992
X8.613 Y2.295 Z-5
G3 X8.001 Y2.788 I-1.268 J-0.947
G1 X7.441 Y3.021
X7.295 Y3.086
X7.149 Y3.168
X7.066 Y3.226
X7.003 Y3.272
X6.872 Y3.372
X6.343 Y3.737
X5.855 Y4.154
X5.445 Y4.649
X5.297 Y4.905
X5.27 Y4.95
X5.241 Y4.993
X5.211 Y5.035
G3 X4.764 Y5.078 Z-4.5 I-0.245 J-0.202
X4.741 Y4.609 I0.202 J-0.245
G1 X6.445 Y2.903
G3 X6.915 Y2.925 I0.225 J0.224
X6.872 Y3.372 Z-5 I-0.245 J0.202
G1 X6.42 Y3.719
X6.114 Y3.956
X5.982 Y4.066
X5.945 Y4.102
X5.591 Y4.54
X5.107 Y5.171
X5.038 Y5.269
X4.961 Y5.396
X4.951 Y5.415
X4.882 Y5.561
X4.67 Y6.07
X4.524 Y6.422
X4.36 Y6.875
X4.293 Y7.313
X4.197 Y8.043
X4.179 Y8.188
X4.168 Y8.334
X4.162 Y8.772
Y111.228
X4.168 Y111.666
X4.179 Y111.812
X4.197 Y111.958
X4.293 Y112.688
X4.36 Y113.126
X4.524 Y113.578
X4.76 Y114.147
X4.882 Y114.439
X4.951 Y114.585
X4.961 Y114.604
X5.038 Y114.731
X5.107 Y114.829
X5.591 Y115.461
X5.911 Y115.856
G3 X5.576 Y116.354 I-0.254 J0.191
G1 X5.508 Y116.336 Z-4.992
X5.443 Y116.319 Z-4.969
X5.385 Y116.304 Z-4.931
X5.336 Y116.291 Z-4.88
X5.3 Y116.281 Z-4.82
X5.277 Y116.275 Z-4.753
X5.269 Y116.273 Z-4.682
Z2
X128.989 Y118.056
Z-4.365
Z-4.682
X128.996 Y118.051 Z-4.753
X129.014 Y118.037 Z-4.82
X129.043 Y118.013 Z-4.88
X129.083 Y117.982 Z-4.931
X129.13 Y117.944 Z-4.969
X129.182 Y117.902 Z-4.992
X129.238 Y117.858 Z-5
G3 X129.954 Y117.537 I0.985 J1.238
G1 X130.195 Y117.504
X130.392 Y117.455
X130.538 Y117.4
X130.645 Y117.358
X131.065 Y117.184
X131.237 Y117.123
X131.393 Y117.075
X131.591 Y117.025
X131.85 Y116.972
X132.369 Y116.891
X133.007 Y116.823
X133.628 Y116.66
X134.189 Y116.347
X134.658 Y115.908
X135.021 Y115.378
X135.285 Y114.793
X135.468 Y114.177
X135.589 Y113.547
X135.667 Y112.909
X135.715 Y112.269
X135.744 Y111.627
X135.762 Y110.985
X135.773 Y110.343
X135.779 Y109.701
X135.782 Y109.059
X135.786 Y107.775
X135.787 Y104.564
X135.788 Y69.886
Y19.795
X135.787 Y6.951
X135.781 Y6.309
X135.707 Y5.672
X135.477 Y5.072
X135.1 Y4.552
X134.61 Y4.136
X134.048 Y3.826
X133.445 Y3.607
X132.82 Y3.459
X132.391 Y3.395
X132.213 Y3.354
X132.043 Y3.286
X131.886 Y3.193
X131.85 Y3.168
X131.705 Y3.086
X131.559 Y3.02
X130.646 Y2.642
X130.489 Y2.581
X130.449 Y2.566
G3 X130.486 Y1.967 I0.122 J-0.293
G1 X130.554 Y1.948 Z-4.992
X130.618 Y1.93 Z-4.969
X130.676 Y1.914 Z-4.931
X130.725 Y1.901 Z-4.88
X130.761 Y1.89 Z-4.82
X130.784 Y1.884 Z-4.753
X130.791 Y1.882 Z-4.682
Z2
X130.264 Y117.931
Z-4.365
Z-4.682
X130.268 Y117.925 Z-4.753
X130.283 Y117.906 Z-4.82
X130.305 Y117.875 Z-4.88
X130.335 Y117.835 Z-4.931
X130.371 Y117.787 Z-4.969
X130.411 Y117.733 Z-4.992
X130.454 Y117.677 Z-5
G3 X131.065 Y117.184 I1.267 J0.948
G1 X131.559 Y116.98
X131.705 Y116.914
X131.85 Y116.832
X131.896 Y116.8
X132.023 Y116.721
X132.166 Y116.644
X132.746 Y116.368
X133.316 Y116.072
X133.816 Y115.669
X134.223 Y115.173
X134.534 Y114.611
X134.759 Y114.009
X134.914 Y113.386
X135.017 Y112.752
X135.083 Y112.113
X135.124 Y111.472
X135.149 Y110.831
X135.165 Y110.189
X135.174 Y109.547
X135.18 Y108.904
X135.183 Y108.262
X135.186 Y106.978
X135.187 Y103.767
X135.188 Y67.805
Y17.714
X135.187 Y8.081
Y7.439
X135.173 Y6.797
X135.068 Y6.164
X134.808 Y5.576
X134.405 Y5.076
X133.899 Y4.681
X133.48 Y4.467
X133.34 Y4.381
X133.212 Y4.278
X133.1 Y4.157
X133.055 Y4.102
X133.017 Y4.066
X132.886 Y3.956
X132.434 Y3.606
X131.996 Y3.271
X131.886 Y3.193
G3 X132.07 Y2.622 I0.191 J-0.253
G1 X132.141 Y2.62 Z-4.992
X132.208 Y2.619 Z-4.969
X132.268 Y2.618 Z-4.931
X132.318 Y2.616 Z-4.88
X132.356 Z-4.82
X132.38 Y2.615 Z-4.753
X132.388 Z-4.682
Z2
X131.276 Y117.704
Z-4.365
Z-4.682
X131.279 Y117.697 Z-4.753
X131.289 Y117.675 Z-4.82
X131.304 Y117.641 Z-4.88
X131.325 Y117.595 Z-4.931
X131.35 Y117.54 Z-4.969
X131.377 Y117.479 Z-4.992
X131.406 Y117.414 Z-5
G3 X131.896 Y116.8 I1.443 J0.649
G1 X131.996 Y116.729
X132.58 Y116.281
X132.886 Y116.045
X133.017 Y115.935
X133.055 Y115.899
X133.409 Y115.461
X133.892 Y114.83
X133.961 Y114.731
X134.038 Y114.605
X134.049 Y114.585
X134.118 Y114.439
X134.33 Y113.932
X134.476 Y113.58
X134.64 Y113.126
X134.707 Y112.688
X134.803 Y111.958
X134.821 Y111.812
X134.832 Y111.666
X134.837 Y111.228
Y8.772
X134.832 Y8.334
X134.821 Y8.188
X134.784 Y7.897
X134.707 Y7.313
X134.64 Y6.875
X134.476 Y6.42
X134.24 Y5.853
X134.118 Y5.561
X134.049 Y5.415
X134.038 Y5.396
X133.962 Y5.269
X133.892 Y5.17
X133.409 Y4.54
X133.1 Y4.157
G3 X133.138 Y3.732 I0.254 J-0.191
G1 X133.186 Y3.707 Z-4.995
X133.233 Y3.682 Z-4.981
X133.276 Y3.658 Z-4.958
X133.317 Y3.653 Z-4.929
X133.353 Y3.649 Z-4.895
X133.387 Y3.653 Z-4.848
X133.413 Y3.656 Z-4.796
X133.429 Y3.658 Z-4.74
X133.434 Y3.659 Z-4.683
Z2
X-0.327 Y-3.695
Z-5.365
Z-5.682
X-0.325 Y-3.688 Z-5.753
X-0.32 Y-3.665 Z-5.82
X-0.31 Y-3.628 Z-5.88
X-0.298 Y-3.579 Z-5.931
X-0.283 Y-3.521 Z-5.969
X-0.266 Y-3.456 Z-5.992
X-0.249 Y-3.388 Z-6
G3 X0 Y-1.659 I-7.852 J2.011
G1 Y-1.566 F270
X-0.399 Y-1.064 F300
X-0.66 Y-0.476
X-0.814 Y0.147
X-0.899 Y0.783
X-0.944 Y1.424
X-0.966 Y2.066
X-0.977 Y2.708
X-0.982 Y3.35
X-0.985 Y3.992
X-0.987 Y5.277
X-0.988 Y35.459
Y48.303
Y98.394
Y118.944
X-0.933 Y119.26
X-0.803 Y119.554
X-0.433 Y120.079
X0.089 Y120.453
X0.685 Y120.692
X1.311 Y120.832
X1.949 Y120.909
X2.59 Y120.949
X3.232 Y120.968
X3.874 Y120.978
X4.516 Y120.983
X5.158 Y120.985
X7.085 Y120.987
X27.635 Y120.988
X77.725
X127.816
X138.091
X138.398 Y120.896
X138.678 Y120.739
X139.172 Y120.327
X139.514 Y119.784
X139.729 Y119.179
X139.853 Y118.549
X139.92 Y117.91
X139.954 Y117.269
X139.971 Y116.627
X139.98 Y115.985
X139.984 Y115.343
X139.986 Y114.701
X139.987 Y112.774
X139.988 Y81.949
Y31.859
Y1.034
X139.927 Y0.719
X139.793 Y0.427
X139.416 Y-0.093
X138.891 Y-0.463
X138.293 Y-0.698
X137.666 Y-0.836
X137.028 Y-0.911
X136.387 Y-0.949
X135.745 Y-0.969
X135.103 Y-0.978
X134.461 Y-0.983
X133.819 Y-0.985
X131.892 Y-0.987
X121.617 Y-0.988
X71.527
X21.436
X1.85
X1.534 Y-0.929
X1.236 Y-0.81
X0.693 Y-0.466
X0.286 Y0.031
X0.009 Y0.61
X-0.165 Y1.228
X-0.267 Y1.862
X-0.324 Y2.502
X-0.355 Y3.143
X-0.371 Y3.785
X-0.379 Y4.427
X-0.383 Y5.069
X-0.385 Y5.711
X-0.387 Y7.638
Y28.83
Y78.921
Y118.094
X-0.23 Y118.717
X0.127 Y119.25
X0.622 Y119.659
X1.196 Y119.947
X1.811 Y120.133
X2.443 Y120.246
X3.082 Y120.311
X3.723 Y120.347
X4.365 Y120.366
X5.007 Y120.376
X5.649 Y120.382
X6.291 Y120.385
X7.576 Y120.387
X9.502
X59.593
X109.683
X136.655
X137.297 Y120.363
X137.897 Y120.136
X138.393 Y119.727
X138.762 Y119.202
X139.015 Y118.611
X139.175 Y117.989
X139.271 Y117.354
X139.325 Y116.714
X139.354 Y116.073
X139.37 Y115.431
X139.379 Y114.789
X139.383 Y114.147
X139.385 Y113.505
X139.387 Y111.578
Y98.734
Y48.644
Y2.406
X139.376 Y1.764
X139.168 Y1.157
X138.775 Y0.65
X138.258 Y0.268
X137.672 Y0.006
X137.052 Y-0.162
X136.418 Y-0.263
X135.778 Y-0.321
X135.137 Y-0.352
X134.495 Y-0.369
X133.853 Y-0.378
X133.21 Y-0.383
X132.568 Y-0.385
X131.284 Y-0.387
X116.514
X86.973
X36.883
X2.847
X2.21 Y-0.303
X1.632 Y-0.023
X1.162 Y0.414
X0.814 Y0.954
X0.577 Y1.551
X0.425 Y2.175
X0.332 Y2.81
X0.279 Y3.45
X0.249 Y4.092
X0.232 Y4.734
X0.223 Y5.376
X0.218 Y6.018
X0.215 Y6.66
X0.213 Y7.944
Y14.366
Y64.457
Y114.547
Y117.116
X0.301 Y117.752
X0.581 Y118.33
X1.016 Y118.803
X1.552 Y119.156
X2.146 Y119.4
X2.768 Y119.558
X3.403 Y119.656
X4.043 Y119.714
X4.684 Y119.747
X5.326 Y119.765
X5.968 Y119.776
X6.61 Y119.781
X7.252 Y119.784
X8.537 Y119.787
X14.316
X46.426
X96.516
X135.69
X136.332 Y119.782
X136.955 Y119.626
X137.501 Y119.289
X137.934 Y118.814
X138.248 Y118.254
X138.461 Y117.648
X138.596 Y117.021
X138.679 Y116.384
X138.727 Y115.743
X138.754 Y115.102
X138.769 Y114.46
X138.778 Y113.818
X138.782 Y113.175
X138.785 Y112.533
X138.787 Y111.249
Y110.607
X138.788 Y60.516
Y10.426
Y3.362
X138.785 Y2.719
X138.646 Y2.093
X138.321 Y1.538
X137.856 Y1.096
X137.301 Y0.772
X136.698 Y0.553
X136.071 Y0.412
X135.435 Y0.326
X134.794 Y0.276
X134.153 Y0.247
X133.511 Y0.231
X132.869 Y0.223
X132.227 Y0.218
X131.584 Y0.215
X130.3 Y0.213
X122.594
X97.549
X47.458
X3.789
X3.148 Y0.249
X2.541 Y0.458
X2.021 Y0.834
X1.614 Y1.332
X1.321 Y1.903
X1.123 Y2.514
X0.996 Y3.143
X0.918 Y3.781
X0.872 Y4.421
X0.846 Y5.063
X0.831 Y5.705
X0.823 Y6.347
X0.818 Y6.989
X0.815 Y7.632
X0.813 Y8.916
Y15.98
Y55.153
Y105.244
Y116.161
X0.849 Y116.802
X1.052 Y117.411
X1.422 Y117.936
X1.913 Y118.35
X2.48 Y118.651
X3.089 Y118.857
X3.717 Y118.99
X4.354 Y119.072
X4.994 Y119.122
X5.636 Y119.15
X6.277 Y119.167
X6.92 Y119.176
X7.562 Y119.181
X8.204 Y119.184
X9.488 Y119.186
X14.626 Y119.187
X38.387 Y119.188
X88.477
X134.715
X135.357 Y119.186
X135.994 Y119.11
X136.582 Y118.852
X137.075 Y118.439
X137.453 Y117.92
X137.723 Y117.338
X137.904 Y116.721
X138.019 Y116.09
X138.09 Y115.451
X138.132 Y114.811
X138.156 Y114.169
X138.17 Y113.527
X138.178 Y112.885
X138.182 Y112.243
X138.185 Y111.6
X138.187 Y110.316
X138.188 Y103.252
Y67.29
Y17.199
Y4.355
X138.187 Y3.713
X138.126 Y3.074
X137.887 Y2.478
X137.49 Y1.973
X136.98 Y1.583
X136.402 Y1.302
X135.789 Y1.112
X135.158 Y0.991
X134.52 Y0.916
X133.88 Y0.871
X133.238 Y0.846
X132.596 Y0.831
X131.954 Y0.823
X131.312 Y0.818
X130.67 Y0.816
X129.385 Y0.813
X122.963
X103.056
X52.965
X4.801
X4.159 Y0.82
X3.527 Y0.933
X2.954 Y1.223
X2.48 Y1.656
X2.118 Y2.187
X1.861 Y2.775
X1.688 Y3.394
X1.577 Y4.026
X1.509 Y4.665
X1.468 Y5.306
X1.444 Y5.947
X1.43 Y6.589
X1.422 Y7.232
X1.418 Y7.874
X1.416 Y8.516
X1.413 Y9.8
Y16.222
Y50.9
Y100.991
Y115.119
X1.419 Y115.761
X1.519 Y116.395
X1.793 Y116.976
X2.213 Y117.462
X2.735 Y117.836
X3.318 Y118.106
X3.933 Y118.289
X4.564 Y118.407
X5.202 Y118.481
X5.843 Y118.526
X6.484 Y118.552
X7.126 Y118.567
X7.769 Y118.576
X8.411 Y118.581
X9.053 Y118.584
X10.337 Y118.586
X14.833 Y118.587
X35.383 Y118.588
X85.473
X134.279 Y118.587
X134.921 Y118.572
X135.547 Y118.43
X136.107 Y118.116
X136.566 Y117.666
X136.913 Y117.126
X137.159 Y116.532
X137.324 Y115.912
X137.429 Y115.278
X137.495 Y114.639
X137.534 Y113.998
X137.557 Y113.357
X137.57 Y112.715
X137.578 Y112.072
X137.582 Y111.43
X137.584 Y110.788
X137.587 Y109.504
Y103.082
Y69.046
Y18.956
Y4.827
X137.578 Y4.185
X137.464 Y3.553
X137.177 Y2.979
X136.746 Y2.503
X136.218 Y2.137
X135.631 Y1.876
X135.014 Y1.699
X134.382 Y1.585
X133.744 Y1.514
X133.103 Y1.471
X132.461 Y1.446
X131.819 Y1.432
X131.177 Y1.423
X130.535 Y1.418
X129.893 Y1.416
X128.608 Y1.414
X123.471 Y1.413
X103.563
X53.473
X5.951
X5.309
X4.667 Y1.436
X4.044 Y1.59
X3.488 Y1.913
X3.035 Y2.367
X2.691 Y2.91
X2.446 Y3.503
X2.281 Y4.124
X2.175 Y4.757
X2.108 Y5.396
X2.068 Y6.037
X2.045 Y6.679
X2.031 Y7.321
X2.023 Y7.963
X2.018 Y8.605
X2.016 Y9.247
X2.014 Y10.532
X2.013 Y15.669
Y51.631
Y101.722
Y114.566
X2.028 Y115.208
X2.157 Y115.837
X2.451 Y116.408
X2.884 Y116.881
X3.413 Y117.246
X3.999 Y117.509
X4.616 Y117.689
X5.247 Y117.806
X5.885 Y117.879
X6.526 Y117.924
X7.167 Y117.951
X7.809 Y117.966
X8.451 Y117.975
X9.094 Y117.981
X9.736 Y117.984
X11.02 Y117.986
X15.515 Y117.987
X37.35 Y117.988
X87.44
X133.678 Y117.987
X134.319 Y117.963
X134.942 Y117.806
X135.498 Y117.484
X135.953 Y117.031
X136.299 Y116.49
X136.546 Y115.897
X136.713 Y115.277
X136.822 Y114.644
X136.889 Y114.006
X136.93 Y113.365
X136.954 Y112.723
X136.968 Y112.081
X136.977 Y111.439
X136.981 Y110.797
X136.984 Y110.155
X136.986 Y108.87
X136.987 Y104.375
X136.988 Y65.844
Y15.753
X136.987 Y5.478
X136.976 Y4.836
X136.857 Y4.205
X136.575 Y3.628
X136.15 Y3.147
X135.627 Y2.775
X135.044 Y2.505
X134.429 Y2.32
X133.798 Y2.2
X133.161 Y2.124
X132.52 Y2.078
X131.878 Y2.051
X131.236 Y2.035
X130.594 Y2.025
X129.952 Y2.02
X129.31 Y2.017
X128.026 Y2.014
X124.173 Y2.013
X99.127
X49.037
X6.01
X5.369 Y2.033
X4.742 Y2.175
X4.176 Y2.478
X3.707 Y2.917
X3.347 Y3.449
X3.087 Y4.036
X2.91 Y4.653
X2.794 Y5.285
X2.722 Y5.923
X2.677 Y6.564
X2.65 Y7.205
X2.635 Y7.847
X2.625 Y8.489
X2.62 Y9.131
X2.617 Y9.774
X2.614 Y11.058
X2.613 Y14.911
X2.612 Y57.295
Y107.386
X2.613 Y113.808
X2.62 Y114.45
X2.721 Y115.084
X2.985 Y115.67
X3.39 Y116.168
X3.9 Y116.558
X4.475 Y116.845
X5.085 Y117.043
X5.714 Y117.175
X6.351 Y117.259
X6.991 Y117.311
X7.632 Y117.342
X8.168 Y117.358
