(02-topo-clearance-3.175mm-2flute-flat)
(Machine)
(  vendor: Autodesk)
(  model: Sainsmart 3018pro)
(  description: 3018)
G90 G94
G17
G21
(When using Fusion 360 for Personal Use, the feedrate of)
(rapid moves is reduced to match the feedrate of cutting)
(moves, which can increase machining time. Unrestricted rapid)
(moves are available with a Fusion 360 Subscription.)

(Adaptive2)
G54
G0 Z4
S5000 M3
G0 X-0.311 Y-3.665
G1 Z2 F450
Z-0.864
Z-1.181
X-0.31 Y-3.657 Z-1.252
X-0.304 Y-3.634 Z-1.319
X-0.294 Y-3.597 Z-1.379
X-0.282 Y-3.549 Z-1.43
X-0.267 Y-3.49 Z-1.467
X-0.25 Y-3.425 Z-1.491
X-0.233 Y-3.357 Z-1.499
G3 X0.016 Y-1.628 I-7.852 J2.011
G1 Y-1.502 F405
X-0.373 Y-0.876 F450
X-0.597 Y-0.172
X-0.714 Y0.556
X-0.772 Y1.292
X-0.799 Y2.029
X-0.811 Y2.767
X-0.817 Y3.504
X-0.819 Y4.242
X-0.821 Y5.718
X-0.822 Y48.511
Y98.683
Y110.857
X-0.809 Y111.225
X-0.674 Y111.569
X-0.459 Y111.868
X0.081 Y112.371
X0.751 Y112.68
X1.469 Y112.85
X2.202 Y112.936
X2.938 Y112.977
X3.676 Y112.996
X4.414 Y113.005
X5.152 Y113.009
X5.889 Y113.011
X8.841 Y113.013
X36.14
X86.311
X126.153
X126.338 Y113.009
X126.7 Y112.939
X127.024 Y112.763
X127.301 Y112.519
X127.76 Y111.941
X128.034 Y111.256
X128.182 Y110.534
X128.256 Y109.799
X128.291 Y109.063
X128.308 Y108.325
X128.315 Y107.587
X128.319 Y106.849
X128.321 Y105.374
X128.322 Y103.16
Y52.989
Y2.817
Y1.342
X128.317 Y1.157
X128.245 Y0.796
X128.067 Y0.472
X127.823 Y0.196
X127.244 Y-0.262
X126.559 Y-0.536
X125.836 Y-0.683
X125.102 Y-0.756
X124.365 Y-0.792
X123.627 Y-0.808
X122.89 Y-0.815
X122.152 Y-0.819
X120.676 Y-0.821
X90.426 Y-0.822
X80.096
X29.925
X2.257
X1.889 Y-0.793
X1.543 Y-0.667
X1.232 Y-0.467
X0.7 Y0.043
X0.353 Y0.695
X0.149 Y1.404
X0.039 Y2.133
X-0.018 Y2.869
X-0.046 Y3.606
X-0.059 Y4.344
X-0.066 Y5.082
X-0.069 Y5.82
X-0.071 Y7.295
X-0.072 Y20.576
Y70.747
Y109.852
X-0.009 Y110.215
X0.125 Y110.559
X0.325 Y110.869
X0.823 Y111.413
X1.463 Y111.78
X2.166 Y112.004
X2.894 Y112.129
X3.628 Y112.195
X4.365 Y112.229
X5.103 Y112.246
X5.841 Y112.255
X6.579 Y112.259
X7.316 Y112.261
X9.53 Y112.262
X10.268 Y112.263
X60.439
X110.61
X125.367
X125.719 Y112.152
X126.044 Y111.978
X126.62 Y111.517
X127.02 Y110.897
X127.27 Y110.203
X127.414 Y109.479
X127.491 Y108.745
X127.532 Y108.008
X127.552 Y107.271
X127.562 Y106.533
X127.567 Y105.795
X127.569 Y105.058
X127.571 Y102.844
X127.572 Y77.758
Y27.587
Y2.501
X127.533 Y2.134
X127.426 Y1.781
X127.253 Y1.455
X126.794 Y0.878
X126.174 Y0.478
X125.48 Y0.228
X124.756 Y0.085
X124.022 Y0.008
X123.285 Y-0.032
X122.548 Y-0.052
X121.81 Y-0.062
X121.072 Y-0.067
X120.334 Y-0.069
X118.121 Y-0.071
X103.365 Y-0.072
X53.193
X3.022
X2.666 Y0.025
X2.333 Y0.185
X1.735 Y0.616
X1.307 Y1.217
X1.032 Y1.902
X0.869 Y2.622
X0.778 Y3.354
X0.729 Y4.09
X0.704 Y4.827
X0.691 Y5.565
X0.685 Y6.303
X0.682 Y7.041
X0.679 Y8.516
X0.678 Y18.108
Y49.096
Y99.268
Y108.859
X0.74 Y109.223
X0.857 Y109.573
X1.208 Y110.222
X1.758 Y110.714
X2.416 Y111.047
X3.124 Y111.254
X3.852 Y111.374
X4.587 Y111.44
X5.324 Y111.475
X6.062 Y111.494
X6.8 Y111.503
X7.537 Y111.508
X8.275 Y111.51
X9.751 Y111.512
X40.001 Y111.513
X90.173
X124.112
X124.478 Y111.465
X124.831 Y111.359
X125.16 Y111.192
X125.754 Y110.754
X126.18 Y110.152
X126.457 Y109.468
X126.623 Y108.749
X126.716 Y108.017
X126.767 Y107.281
X126.794 Y106.544
X126.807 Y105.806
X126.815 Y105.068
X126.818 Y104.33
X126.821 Y102.855
X126.822 Y96.215
Y46.043
Y3.25
X126.748 Y2.888
X126.618 Y2.543
X126.238 Y1.91
X125.673 Y1.436
X125.007 Y1.119
X124.296 Y0.923
X123.567 Y0.81
X122.831 Y0.747
X122.094 Y0.714
X121.357 Y0.696
X120.619 Y0.687
X119.881 Y0.683
X119.143 Y0.681
X116.93 Y0.679
X70.448 Y0.678
X20.276
X4.044
X3.682 Y0.747
X3.335 Y0.874
X2.698 Y1.245
X2.217 Y1.805
X1.891 Y2.467
X1.689 Y3.176
X1.57 Y3.905
X1.504 Y4.639
X1.468 Y5.376
X1.449 Y6.114
X1.439 Y6.852
X1.434 Y7.589
X1.431 Y8.327
X1.429 Y9.803
X1.428 Y23.084
Y33.413
Y83.584
Y107.932
X1.526 Y108.664
X1.854 Y109.325
X2.378 Y109.845
X3.019 Y110.209
X3.718 Y110.444
X4.443 Y110.585
X5.176 Y110.666
X5.912 Y110.711
X6.65 Y110.736
X7.387 Y110.749
X8.125 Y110.755
X8.863 Y110.759
X10.339 Y110.762
X16.241 Y110.763
X25.833
X76.004
X123.224
X123.955 Y110.661
X124.619 Y110.34
X125.142 Y109.819
X125.51 Y109.179
X125.748 Y108.481
X125.891 Y107.757
X125.974 Y107.024
X126.02 Y106.288
X126.044 Y105.55
X126.057 Y104.813
X126.064 Y104.075
X126.068 Y103.337
X126.071 Y101.861
X126.072 Y95.959
Y59.068
Y8.897
Y4.47
X126.023 Y3.733
X125.765 Y3.042
X125.287 Y2.48
X124.671 Y2.074
X123.984 Y1.806
X123.265 Y1.641
X122.533 Y1.545
X121.797 Y1.491
X121.06 Y1.461
X120.323 Y1.446
X119.585 Y1.437
X118.847 Y1.433
X118.109 Y1.431
X115.896 Y1.429
X81.956 Y1.428
X31.785
X5.223
X4.488 Y1.481
X3.798 Y1.743
X3.237 Y2.223
X2.831 Y2.839
X2.562 Y3.526
X2.396 Y4.245
X2.298 Y4.976
X2.243 Y5.712
X2.213 Y6.449
X2.197 Y7.187
X2.188 Y7.924
X2.183 Y8.662
X2.181 Y9.4
X2.179 Y10.876
X2.178 Y23.418
Y73.59
Y106.792
X2.2 Y107.529
X2.303 Y107.883
X2.622 Y108.548
X3.143 Y109.072
X3.782 Y109.44
X4.48 Y109.679
X5.203 Y109.825
X5.936 Y109.909
X6.672 Y109.956
X7.41 Y109.982
X8.147 Y109.997
X8.885 Y110.004
X9.623 Y110.008
X10.361 Y110.01
X12.574 Y110.012
X17.739 Y110.013
X67.91
X118.082
X122.509 Y110.012
X123.239 Y109.907
X123.893 Y109.565
X124.404 Y109.033
X124.763 Y108.388
X124.996 Y107.689
X125.138 Y106.965
X125.221 Y106.231
X125.267 Y105.495
X125.292 Y104.758
X125.306 Y104.02
X125.313 Y103.282
X125.317 Y102.544
X125.32 Y101.069
X125.322 Y96.642
Y65.654
Y15.482
Y5.153
X125.264 Y4.417
X124.973 Y3.739
X124.474 Y3.195
X123.848 Y2.805
X123.157 Y2.547
X122.436 Y2.388
X121.705 Y2.294
X120.969 Y2.241
X120.231 Y2.212
X119.494 Y2.196
X118.756 Y2.188
X118.018 Y2.183
X117.28 Y2.181
X115.805 Y2.179
X103.262 Y2.178
X87.03
X36.859
X6.608
X5.87 Y2.179
X5.136 Y2.249
X4.464 Y2.553
X3.928 Y3.06
X3.545 Y3.691
X3.293 Y4.384
X3.136 Y5.105
X3.044 Y5.837
X2.992 Y6.573
X2.963 Y7.311
X2.947 Y8.048
X2.938 Y8.786
X2.934 Y9.524
X2.931 Y10.262
X2.929 Y11.737
X2.928 Y19.853
Y70.025
X2.929 Y106.178
X2.982 Y106.913
X3.245 Y107.603
X3.72 Y108.167
X4.332 Y108.58
X5.016 Y108.855
X5.734 Y109.028
X6.464 Y109.13
X7.2 Y109.189
X7.937 Y109.223
X8.675 Y109.241
X9.412 Y109.251
X10.15 Y109.256
X10.888 Y109.259
X12.364 Y109.262
X15.315 Y109.263
X65.486
X115.658
X121.56
X122.296 Y109.206
X122.976 Y108.919
X123.525 Y108.426
X123.922 Y107.804
X124.186 Y107.115
X124.35 Y106.396
X124.447 Y105.665
X124.503 Y104.929
X124.534 Y104.192
X124.551 Y103.454
X124.561 Y102.716
X124.566 Y101.979
X124.569 Y101.241
X124.571 Y99.765
X124.572 Y92.387
Y66.563
Y16.392
Y6.063
X124.541 Y5.325
X124.294 Y4.63
X123.831 Y4.056
X123.226 Y3.634
X122.545 Y3.35
X121.829 Y3.172
X121.099 Y3.066
X120.363 Y3.005
X119.626 Y2.97
X118.889 Y2.951
X118.151 Y2.941
X117.413 Y2.935
X116.675 Y2.932
X115.2 Y2.929
X109.297 Y2.928
X86.425
X36.254
X6.741 Y2.929
X6.005 Y2.975
X5.319 Y3.248
X4.76 Y3.73
X4.353 Y4.345
X4.081 Y5.031
X3.912 Y5.749
X3.81 Y6.48
X3.752 Y7.216
X3.719 Y7.953
X3.7 Y8.69
X3.69 Y9.428
X3.685 Y10.166
X3.682 Y10.904
X3.679 Y12.379
X3.678 Y18.282
Y21.971
Y72.142
Y105.344
X3.714 Y106.081
X3.956 Y106.778
X4.413 Y107.357
X5.014 Y107.786
X5.693 Y108.075
X6.408 Y108.258
X7.137 Y108.368
X7.872 Y108.431
X8.609 Y108.468
X9.347 Y108.488
X10.084 Y108.499
X10.822 Y108.505
X11.56 Y108.509
X13.036 Y108.512
X18.2 Y108.513
X18.938
X69.11
X119.281
X120.757
X121.493 Y108.464
X122.178 Y108.19
X122.737 Y107.709
X123.145 Y107.093
X123.417 Y106.408
X123.587 Y105.69
X123.688 Y104.959
X123.747 Y104.223
X123.781 Y103.486
X123.799 Y102.749
X123.809 Y102.011
X123.815 Y101.273
X123.818 Y100.535
X123.821 Y99.06
X123.822 Y93.157
Y61.431
Y11.26
Y6.833
X123.79 Y6.096
X123.545 Y5.4
X123.087 Y4.822
X122.484 Y4.397
X121.804 Y4.11
X121.088 Y3.929
X120.359 Y3.821
X119.624 Y3.758
X118.887 Y3.722
X118.149 Y3.702
X117.411 Y3.691
X116.673 Y3.685
X115.936 Y3.682
X114.46 Y3.679
X109.295 Y3.678
X79.783
X29.611
X7.477 Y3.679
X6.741 Y3.731
X6.058 Y4.011
X5.503 Y4.497
X5.1 Y5.115
X4.83 Y5.802
X4.661 Y6.52
X4.561 Y7.251
X4.502 Y7.986
X4.469 Y8.724
X4.451 Y9.461
X4.441 Y10.199
X4.435 Y10.937
X4.432 Y11.674
X4.429 Y13.15
X4.428 Y19.053
Y30.12
Y80.291
Y104.639
X4.472 Y105.376
X4.731 Y106.067
X5.2 Y106.636
X5.808 Y107.054
X6.49 Y107.335
X7.206 Y107.514
X7.936 Y107.621
X8.671 Y107.683
X9.408 Y107.718
X10.146 Y107.738
X10.883 Y107.749
X11.621 Y107.755
X12.359 Y107.759
X13.835 Y107.761
X18.999 Y107.763
X28.591
X78.762
X120.08
X120.815 Y107.697
X121.49 Y107.399
X122.032 Y106.898
X122.423 Y106.273
X122.683 Y105.582
X122.846 Y104.863
X122.944 Y104.131
X123 Y103.396
X123.032 Y102.659
X123.05 Y101.921
X123.06 Y101.183
X123.065 Y100.445
X123.068 Y99.708
X123.071 Y98.232
X123.072 Y92.33
Y50.274
Y7.481
X123.02 Y6.745
X122.742 Y6.061
X122.255 Y5.507
X121.637 Y5.104
X120.95 Y4.834
X120.232 Y4.664
X119.502 Y4.562
X118.766 Y4.503
X118.029 Y4.47
X117.292 Y4.451
X116.554 Y4.441
X115.816 Y4.435
X115.078 Y4.432
X113.603 Y4.429
X108.438 Y4.428
X67.12
X16.949
X8.833
X8.095 Y4.43
X7.362 Y4.518
X6.698 Y4.84
X6.172 Y5.357
X5.796 Y5.992
X5.547 Y6.687
X5.392 Y7.408
X5.3 Y8.14
X5.246 Y8.876
X5.216 Y9.613
X5.199 Y10.351
X5.19 Y11.088
X5.185 Y11.826
X5.182 Y12.564
X5.179 Y14.04
X5.178 Y19.942
Y44.29
Y94.461
Y103.315
X5.181 Y104.053
X5.26 Y104.787
X5.57 Y105.456
X6.08 Y105.99
X6.71 Y106.374
X7.402 Y106.629
X8.122 Y106.79
X8.854 Y106.886
X9.589 Y106.941
X10.327 Y106.973
X11.064 Y106.991
X11.802 Y107.001
X12.54 Y107.006
X13.277 Y107.009
X14.753 Y107.012
X19.918 Y107.013
X44.266
X94.437
X118.785
X119.523 Y107.007
X120.25 Y106.884
X120.895 Y106.524
X121.396 Y105.982
X121.749 Y105.335
X121.981 Y104.634
X122.125 Y103.911
X122.21 Y103.178
X122.259 Y102.442
X122.287 Y101.704
X122.302 Y100.967
X122.311 Y100.229
X122.316 Y99.491
X122.318 Y98.753
X122.321 Y97.278
X122.322 Y90.637
Y83.259
Y33.088
Y8.74
X122.316 Y8.002
X122.201 Y7.273
X121.848 Y6.625
X121.312 Y6.119
X120.667 Y5.761
X119.967 Y5.526
X119.244 Y5.379
X118.511 Y5.293
X117.775 Y5.242
X117.038 Y5.214
X116.3 Y5.198
X115.563 Y5.189
X114.825 Y5.184
X114.087 Y5.182
X112.611 Y5.179
X105.971 Y5.178
X98.593
X48.421
X9.317 Y5.179
X8.58 Y5.193
X7.861 Y5.363
X7.244 Y5.767
X6.774 Y6.336
X6.448 Y6.997
X6.236 Y7.704
X6.106 Y8.43
X6.029 Y9.164
X5.985 Y9.901
X5.96 Y10.638
X5.946 Y11.376
X5.938 Y12.113
X5.934 Y12.851
X5.931 Y13.589
X5.93 Y14.327
X5.929 Y17.278
X5.928 Y64.498
X5.929 Y102.865
X5.943 Y103.602
X6.112 Y104.321
X6.515 Y104.938
X7.083 Y105.41
X7.744 Y105.738
X8.45 Y105.951
X9.176 Y106.082
X9.91 Y106.16
X10.646 Y106.205
X11.384 Y106.231
X12.121 Y106.245
X12.859 Y106.253
X13.597 Y106.257
X14.335 Y106.26
X15.81 Y106.262
X23.188 Y106.263
X65.982
X116.153
X117.629
X118.367 Y106.262
X119.104 Y106.232
X119.804 Y105.998
X120.385 Y105.544
X120.817 Y104.946
X121.112 Y104.27
X121.301 Y103.556
X121.416 Y102.827
X121.483 Y102.093
X121.522 Y101.356
X121.544 Y100.618
X121.556 Y99.881
X121.563 Y99.143
X121.567 Y98.405
X121.57 Y96.929
X121.572 Y93.24
Y60.039
Y9.867
X121.571 Y9.129
X121.541 Y8.392
X121.305 Y7.693
X120.85 Y7.113
X120.251 Y6.681
X119.575 Y6.387
X118.861 Y6.199
X118.132 Y6.084
X117.398 Y6.017
X116.661 Y5.978
X115.923 Y5.956
X115.186 Y5.944
X114.448 Y5.937
X113.71 Y5.933
X112.234 Y5.93
X108.545 Y5.928
X73.868
X23.697
X10.416
X9.678 Y5.931
X8.944 Y6.003
X8.271 Y6.306
X7.731 Y6.808
X7.339 Y7.434
X7.077 Y8.124
X6.912 Y8.843
X6.812 Y9.574
X6.754 Y10.309
X6.721 Y11.046
X6.702 Y11.784
X6.691 Y12.522
X6.686 Y13.259
X6.682 Y13.997
X6.68 Y15.473
X6.678 Y19.9
Y40.559
Y90.73
Y101.797
X6.682 Y102.535
X6.761 Y103.269
X7.072 Y103.937
X7.58 Y104.473
X8.208 Y104.86
X8.899 Y105.119
X9.619 Y105.282
X10.35 Y105.38
X11.085 Y105.437
X11.822 Y105.47
X12.56 Y105.489
X13.298 Y105.5
X14.036 Y105.505
X14.773 Y105.509
X16.249 Y105.511
X20.676 Y105.513
X43.548
X93.72
X117.33 Y105.512
X118.067 Y105.505
X118.43 Y105.435
X119.123 Y105.181
X119.691 Y104.711
X120.108 Y104.102
X120.389 Y103.42
X120.568 Y102.704
X120.676 Y101.974
X120.739 Y101.239
X120.776 Y100.502
X120.796 Y99.765
X120.807 Y99.027
X120.814 Y98.289
X120.817 Y97.551
X120.82 Y96.076
X120.822 Y91.649
Y80.582
Y30.41
Y10.489
X120.821 Y9.751
X120.769 Y9.015
X120.489 Y8.332
X120.003 Y7.777
X119.387 Y7.372
X118.702 Y7.098
X117.985 Y6.925
X117.254 Y6.82
X116.519 Y6.759
X115.782 Y6.723
X115.044 Y6.703
X114.307 Y6.692
X113.569 Y6.686
X112.831 Y6.683
X111.355 Y6.68
X106.929 Y6.678
X92.91
X42.739
X11.013
X10.275 Y6.685
X9.546 Y6.802
X8.896 Y7.151
X8.387 Y7.685
X8.026 Y8.328
X7.787 Y9.026
X7.637 Y9.749
X7.548 Y10.481
X7.496 Y11.217
X7.466 Y11.954
X7.449 Y12.692
X7.44 Y13.43
X7.435 Y14.167
X7.432 Y14.905
X7.429 Y16.381
X7.428 Y21.545
Y23.021
Y73.192
X7.429 Y101.229
X7.437 Y101.967
X7.571 Y102.693
X7.937 Y103.334
X8.481 Y103.832
X9.129 Y104.184
X9.83 Y104.416
X10.553 Y104.56
X11.286 Y104.647
X12.022 Y104.697
X12.759 Y104.726
X13.497 Y104.742
X14.235 Y104.751
X14.973 Y104.756
X15.71 Y104.759
X17.186 Y104.762
X23.089 Y104.763
X27.515
X77.687
X116.053
X116.791 Y104.762
X117.528 Y104.729
X118.234 Y104.513
X118.829 Y104.078
X119.278 Y103.492
X119.586 Y102.821
X119.784 Y102.111
X119.905 Y101.383
X119.977 Y100.648
X120.018 Y99.912
X120.042 Y99.174
X120.055 Y98.437
X120.062 Y97.699
X120.066 Y96.961
X120.069 Y96.223
X120.07 Y95.485
X120.072 Y91.796
Y45.314
X120.071 Y10.637
X120.041 Y9.9
X119.803 Y9.201
X119.349 Y8.619
X118.752 Y8.186
X118.076 Y7.891
X117.363 Y7.702
X116.634 Y7.586
X115.899 Y7.518
X115.162 Y7.479
X114.425 Y7.457
X113.687 Y7.444
X112.949 Y7.437
X112.212 Y7.433
X110.736 Y7.43
X107.047 Y7.428
X106.309
X56.138
X11.869
X11.131 Y7.431
X10.398 Y7.517
X9.734 Y7.838
X9.203 Y8.35
X8.82 Y8.981
X8.565 Y9.673
X8.405 Y10.394
X8.309 Y11.125
X8.253 Y11.861
X8.22 Y12.598
X8.202 Y13.335
X8.191 Y14.073
X8.186 Y14.811
X8.182 Y15.549
X8.18 Y17.024
X8.178 Y21.451
Y61.293
Y100.398
X8.182 Y101.135
X8.291 Y101.865
X8.635 Y102.517
X9.163 Y103.033
X9.802 Y103.401
X10.499 Y103.645
X11.221 Y103.797
X11.953 Y103.889
X12.689 Y103.942
X13.426 Y103.973
X14.163 Y103.99
X14.901 Y104
X15.639 Y104.006
X16.377 Y104.009
X17.115 Y104.01
X19.328 Y104.012
X67.286 Y104.013
X115.982 Y104.012
X116.719 Y103.991
X117.43 Y103.792
X118.036 Y103.372
X118.497 Y102.796
X118.815 Y102.13
X119.021 Y101.421
X119.147 Y100.695
X119.222 Y99.961
X119.265 Y99.224
X119.29 Y98.487
X119.304 Y97.749
X119.312 Y97.011
X119.316 Y96.273
X119.319 Y95.536
X119.321 Y94.06
X119.322 Y87.42
Y54.218
X119.321 Y11.425
X119.294 Y10.687
X119.067 Y9.985
X118.624 Y9.395
X118.033 Y8.954
X117.36 Y8.652
X116.648 Y8.459
X115.919 Y8.341
X115.185 Y8.271
X114.448 Y8.231
X113.711 Y8.208
X112.973 Y8.195
X112.235 Y8.188
X111.497 Y8.183
X110.76 Y8.181
X108.546 Y8.179
X63.539 Y8.178
X13.368
X11.892 Y8.179
X11.159 Y8.262
X10.493 Y8.58
X9.959 Y9.089
X9.574 Y9.718
X9.318 Y10.41
X9.157 Y11.13
X9.06 Y11.861
X9.003 Y12.597
X8.971 Y13.334
X8.952 Y14.072
X8.942 Y14.809
X8.936 Y15.547
X8.933 Y16.285
X8.93 Y17.761
X8.928 Y22.187
Y55.389
Y99.658
X8.93 Y100.396
X9.044 Y101.125
X9.39 Y101.776
X9.919 Y102.291
X10.56 Y102.657
X11.257 Y102.899
X11.979 Y103.05
X12.711 Y103.14
X13.447 Y103.193
X14.184 Y103.223
X14.922 Y103.241
X15.66 Y103.25
X16.398 Y103.256
X17.135 Y103.259
X18.611 Y103.261
X23.776 Y103.263
X62.88
X113.051
X115.265
X116.002 Y103.238
X116.71 Y103.029
X117.312 Y102.602
X117.765 Y102.02
X118.077 Y101.351
X118.278 Y100.641
X118.402 Y99.914
X118.474 Y99.18
X118.517 Y98.443
X118.541 Y97.706
X118.554 Y96.968
X118.562 Y96.23
X118.566 Y95.492
X118.569 Y94.755
X118.571 Y93.279
X118.572 Y85.901
Y57.126
Y12.119
X118.534 Y11.382
X118.291 Y10.686
X117.834 Y10.106
X117.234 Y9.677
X116.557 Y9.384
X115.843 Y9.198
X115.114 Y9.084
X114.379 Y9.017
X113.643 Y8.978
X112.905 Y8.957
X112.167 Y8.944
X111.43 Y8.937
X110.692 Y8.933
X109.216 Y8.93
X105.527 Y8.928
X64.947
X14.776
X13.3
X12.562 Y8.931
X11.832 Y9.038
X11.177 Y9.376
X10.66 Y9.903
X10.291 Y10.542
X10.046 Y11.238
X9.894 Y11.96
X9.802 Y12.692
X9.748 Y13.428
X9.718 Y14.165
X9.701 Y14.902
X9.691 Y15.64
X9.685 Y16.378
X9.682 Y17.116
X9.68 Y18.591
X9.678 Y23.756
Y55.482
Y99.013
X9.686 Y99.751
X9.832 Y100.474
X10.206 Y101.11
X10.756 Y101.602
X11.408 Y101.948
X12.11 Y102.175
X12.834 Y102.316
X13.567 Y102.4
X14.303 Y102.449
X15.041 Y102.477
X15.778 Y102.492
X16.516 Y102.501
X17.254 Y102.506
X17.992 Y102.509
X19.467 Y102.512
X25.37 Y102.513
X64.474
X114.646 Y102.512
X115.382 Y102.47
X116.077 Y102.222
X116.652 Y101.76
X117.078 Y101.158
X117.368 Y100.479
X117.554 Y99.765
X117.667 Y99.036
X117.733 Y98.301
X117.772 Y97.564
X117.794 Y96.827
X117.806 Y96.089
X117.813 Y95.351
X117.817 Y94.614
X117.82 Y93.138
X117.822 Y89.449
Y54.034
Y13.454
X117.82 Y12.716
X117.756 Y11.981
X117.465 Y11.303
X116.97 Y10.756
X116.349 Y10.357
X115.662 Y10.089
X114.944 Y9.92
X114.213 Y9.818
X113.478 Y9.758
X112.741 Y9.723
X112.003 Y9.703
X111.265 Y9.692
X110.528 Y9.686
X109.79 Y9.683
X108.314 Y9.68
X103.887 Y9.678
X60.356
X13.874
X13.136 Y9.691
X12.416 Y9.851
X11.79 Y10.242
X11.31 Y10.802
X10.973 Y11.459
X10.754 Y12.163
X10.618 Y12.888
X10.537 Y13.622
X10.49 Y14.358
X10.463 Y15.095
X10.448 Y15.833
X10.439 Y16.571
X10.434 Y17.308
X10.432 Y18.046
X10.429 Y19.522
X10.428 Y25.424
Y61.577
X10.429 Y98.468
X10.455 Y99.205
X10.663 Y99.913
X11.096 Y100.511
X11.681 Y100.96
X12.351 Y101.27
X13.061 Y101.47
X13.789 Y101.593
X14.523 Y101.666
X15.26 Y101.708
X15.997 Y101.732
X16.735 Y101.745
X17.472 Y101.753
X18.21 Y101.757
X18.948 Y101.76
X20.424 Y101.762
X21.899
X72.071 Y101.763
X113.388
X114.126 Y101.758
X114.858 Y101.667
X115.522 Y101.346
X116.051 Y100.831
X116.431 Y100.198
X116.685 Y99.506
X116.844 Y98.785
X116.941 Y98.054
X116.997 Y97.318
X117.03 Y96.581
X117.048 Y95.843
X117.058 Y95.106
X117.064 Y94.368
X117.068 Y93.63
X117.07 Y92.154
X117.072 Y87.728
Y44.934
X117.071 Y13.946
X117.062 Y13.208
X116.926 Y12.483
X116.554 Y11.846
X116.007 Y11.351
X115.357 Y11.002
X114.656 Y10.772
X113.932 Y10.629
X113.199 Y10.544
X112.463 Y10.494
X111.726 Y10.465
X110.988 Y10.449
X110.251 Y10.44
X109.513 Y10.435
X108.775 Y10.432
X107.299 Y10.429
X102.135 Y10.428
X99.921
X49.75
X15.072
X14.335 Y10.43
X13.598 Y10.47
X12.906 Y10.725
X12.336 Y11.194
X11.915 Y11.8
X11.628 Y12.48
X11.444 Y13.194
X11.332 Y13.924
X11.266 Y14.658
X11.228 Y15.395
X11.206 Y16.133
X11.194 Y16.87
X11.187 Y17.608
X11.183 Y18.346
X11.18 Y19.822
X11.178 Y23.511
Y73.682
Y97.292
X11.182 Y98.03
X11.264 Y98.763
X11.575 Y99.432
X12.083 Y99.968
X12.711 Y100.355
X13.402 Y100.614
X14.121 Y100.778
X14.852 Y100.877
X15.588 Y100.936
X16.325 Y100.969
X17.062 Y100.988
X17.8 Y100.999
X18.538 Y101.005
X19.276 Y101.008
X20.751 Y101.011
X25.178 Y101.013
X35.508
X85.679
X112.24
X112.978 Y101.012
X113.716 Y100.991
X114.428 Y100.799
X115.033 Y100.377
X115.492 Y99.799
X115.81 Y99.133
X116.016 Y98.425
X116.144 Y97.698
X116.22 Y96.964
X116.264 Y96.228
X116.289 Y95.49
X116.303 Y94.752
X116.311 Y94.015
X116.316 Y93.277
X116.318 Y92.539
X116.321 Y91.063
X116.322 Y84.423
Y79.996
Y29.825
Y15.068
X116.32 Y14.331
X116.278 Y13.594
X116.02 Y12.903
X115.55 Y12.334
X114.944 Y11.914
X114.264 Y11.627
X113.549 Y11.444
X112.82 Y11.333
X112.085 Y11.267
X111.348 Y11.228
X110.611 Y11.206
X109.873 Y11.194
X109.135 Y11.187
X108.397 Y11.183
X106.922 Y11.18
X103.233 Y11.178
X83.312
X33.14
X15.433 Y11.179
X14.695 Y11.188
X13.971 Y11.328
X13.337 Y11.706
X12.846 Y12.257
X12.499 Y12.908
X12.271 Y13.61
X12.129 Y14.334
X12.044 Y15.067
X11.994 Y15.803
X11.965 Y16.54
X11.949 Y17.278
X11.94 Y18.015
X11.935 Y18.753
X11.932 Y19.491
X11.93 Y20.967
X11.928 Y26.131
Y41.625
Y91.797
Y96.224
X11.929 Y96.962
X11.952 Y97.699
X12.162 Y98.406
X12.596 Y99.003
X13.18 Y99.453
X13.849 Y99.764
X14.559 Y99.965
X15.287 Y100.089
X16.021 Y100.163
X16.757 Y100.206
X17.495 Y100.231
X18.232 Y100.245
X18.97 Y100.253
X19.708 Y100.257
X20.446 Y100.259
X21.921 Y100.262
X28.562 Y100.263
X55.123
X105.294
X111.935 Y100.262
X112.673 Y100.257
X113.403 Y100.153
X114.058 Y99.814
X114.576 Y99.289
X114.948 Y98.651
X115.194 Y97.956
X115.35 Y97.234
X115.443 Y96.503
X115.498 Y95.767
X115.53 Y95.03
X115.548 Y94.292
X115.559 Y93.554
X115.564 Y92.817
X115.568 Y92.079
X115.57 Y90.603
X115.572 Y86.176
Y58.877
X115.571 Y15.346
X115.559 Y14.608
X115.388 Y13.891
X114.986 Y13.272
X114.42 Y12.799
X113.761 Y12.467
X113.055 Y12.251
X112.33 Y12.117
X111.596 Y12.037
X110.86 Y11.99
X110.123 Y11.963
X109.385 Y11.948
X108.647 Y11.939
X107.909 Y11.935
X107.172 Y11.932
X105.696 Y11.929
X99.793 Y11.928
X60.689
X16.42
X15.682 Y11.931
X14.949 Y12.008
X14.278 Y12.315
X13.738 Y12.819
X13.347 Y13.444
X13.084 Y14.133
X12.918 Y14.852
X12.817 Y15.583
X12.758 Y16.319
X12.723 Y17.056
X12.704 Y17.793
X12.693 Y18.531
X12.686 Y19.269
X12.683 Y20.006
X12.68 Y21.482
X12.678 Y25.171
Y65.751
X12.679 Y96.001
X12.686 Y96.739
X12.828 Y97.463
X13.205 Y98.097
X13.754 Y98.59
X14.405 Y98.938
X15.106 Y99.167
X15.83 Y99.31
X16.563 Y99.396
X17.299 Y99.446
X18.036 Y99.475
X18.774 Y99.491
X19.511 Y99.501
X20.249 Y99.506
X20.987 Y99.509
X22.463 Y99.511
X27.627 Y99.513
X30.579
X80.75
X111.001
X111.738 Y99.511
X112.474 Y99.451
X113.155 Y99.167
X113.71 Y98.682
X114.117 Y98.066
X114.392 Y97.382
X114.567 Y96.665
X114.674 Y95.935
X114.737 Y95.2
X114.774 Y94.463
X114.794 Y93.725
X114.806 Y92.988
X114.813 Y92.25
X114.817 Y91.512
X114.82 Y90.036
X114.822 Y86.347
Y81.92
Y31.749
X114.821 Y16.255
X114.817 Y15.517
X114.696 Y14.789
X114.338 Y14.144
X113.801 Y13.638
X113.157 Y13.278
X112.459 Y13.04
X111.736 Y12.891
X111.004 Y12.801
X110.268 Y12.749
X109.531 Y12.718
X108.793 Y12.701
X108.055 Y12.691
X107.318 Y12.685
X106.58 Y12.682
X105.104 Y12.68
X100.677 Y12.678
X82.232
X32.06
X17.304
X16.566 Y12.679
X15.83 Y12.728
X15.142 Y12.994
X14.575 Y13.467
X14.157 Y14.075
X13.874 Y14.756
X13.692 Y15.471
X13.582 Y16.201
X13.516 Y16.935
X13.479 Y17.672
X13.457 Y18.41
X13.444 Y19.148
X13.437 Y19.885
X13.433 Y20.623
X13.43 Y22.099
X13.428 Y25.788
Y45.709
Y95.142
X13.431 Y95.88
X13.541 Y96.61
X13.886 Y97.262
X14.414 Y97.777
X15.053 Y98.146
X15.749 Y98.39
X16.471 Y98.543
X17.203 Y98.636
X17.939 Y98.69
X18.676 Y98.721
X19.414 Y98.739
X20.151 Y98.749
X20.889 Y98.755
X21.627 Y98.758
X23.103 Y98.761
X27.53 Y98.763
X62.207
X110.165
X110.903 Y98.762
X111.639 Y98.718
X112.331 Y98.462
X112.904 Y97.997
X113.328 Y97.393
X113.617 Y96.714
X113.802 Y96
X113.915 Y95.271
X113.981 Y94.536
X114.02 Y93.799
X114.043 Y93.062
X114.055 Y92.324
X114.062 Y91.586
X114.066 Y90.848
X114.07 Y89.373
X114.071 Y86.422
X114.072 Y48.793
Y17.067
X114.07 Y16.329
X113.966 Y15.599
X113.627 Y14.944
X113.103 Y14.424
X112.466 Y14.051
X111.771 Y13.805
X111.049 Y13.65
X110.317 Y13.557
X109.582 Y13.502
X108.844 Y13.47
X108.107 Y13.452
X107.369 Y13.442
X106.631 Y13.436
X105.893 Y13.433
X104.418 Y13.43
X99.991 Y13.428
X97.778
X47.606
X17.356 Y13.429
X16.619 Y13.471
X15.926 Y13.724
X15.351 Y14.186
X14.924 Y14.788
X14.634 Y15.467
X14.449 Y16.181
X14.336 Y16.91
X14.269 Y17.645
X14.23 Y18.382
X14.208 Y19.119
X14.195 Y19.857
X14.188 Y20.595
X14.184 Y21.332
X14.18 Y22.808
X14.179 Y25.759
X14.178 Y31.662
Y81.833
Y94.376
X14.18 Y95.114
X14.286 Y95.844
X14.625 Y96.499
X15.148 Y97.019
X15.785 Y97.391
X16.481 Y97.638
X17.202 Y97.792
X17.934 Y97.885
X18.67 Y97.94
X19.407 Y97.971
X20.145 Y97.989
X20.882 Y97.999
X21.62 Y98.005
X22.358 Y98.008
X23.834 Y98.011
X28.26 Y98.013
X49.657
X99.828
X110.158 Y98.012
X110.894 Y97.967
X111.586 Y97.71
X112.159 Y97.246
X112.583 Y96.642
X112.871 Y95.962
X113.055 Y95.248
X113.166 Y94.519
X113.233 Y93.784
X113.271 Y93.047
X113.293 Y92.309
X113.305 Y91.572
X113.312 Y90.834
X113.316 Y90.096
X113.32 Y88.62
X113.322 Y84.931
Y59.846
Y17.79
X113.321 Y17.052
X113.207 Y16.323
X112.862 Y15.671
X112.334 Y15.156
X111.694 Y14.789
X110.997 Y14.546
X110.275 Y14.394
X109.543 Y14.303
X108.807 Y14.25
X108.07 Y14.219
X107.332 Y14.201
X106.595 Y14.191
X105.857 Y14.186
X105.119 Y14.182
X103.643 Y14.18
X99.216 Y14.178
X57.161
X18.057 Y14.179
X17.321 Y14.229
X16.633 Y14.496
X16.067 Y14.969
X15.65 Y15.578
X15.368 Y16.26
X15.188 Y16.976
X15.079 Y17.705
X15.015 Y18.44
X14.977 Y19.177
X14.956 Y19.915
X14.944 Y20.652
X14.937 Y21.39
X14.933 Y22.128
X14.93 Y23.604
X14.928 Y27.293
Y73.775
Y93.696
X14.932 Y94.434
X15.06 Y95.161
X15.416 Y95.807
X15.953 Y96.312
X16.598 Y96.67
X17.297 Y96.907
X18.02 Y97.054
X18.753 Y97.143
X19.489 Y97.194
X20.226 Y97.224
X20.964 Y97.241
X21.701 Y97.25
X22.439 Y97.256
X23.177 Y97.259
X24.653 Y97.261
X29.817 Y97.263
X43.098
X93.269
X109.501 Y97.262
X110.237 Y97.202
X110.917 Y96.917
X111.471 Y96.43
X111.876 Y95.813
X112.149 Y95.127
X112.322 Y94.41
X112.427 Y93.68
X112.489 Y92.945
X112.525 Y92.208
X112.545 Y91.47
X112.557 Y90.733
X112.563 Y89.995
X112.567 Y89.257
X112.57 Y87.781
X112.572 Y84.092
Y64.909
Y18.427
X112.564 Y17.689
X112.416 Y16.966
X112.041 Y16.331
X111.49 Y15.84
X110.838 Y15.494
X110.136 Y15.268
X109.412 Y15.127
X108.679 Y15.042
X107.943 Y14.993
X107.205 Y14.965
X106.468 Y14.949
X105.73 Y14.94
X104.992 Y14.935
X104.254 Y14.932
X102.779 Y14.93
X97.614 Y14.928
X60.723
X19.406
X18.668 Y14.93
X17.934 Y15.01
X17.264 Y15.318
X16.727 Y15.824
X16.338 Y16.451
X16.078 Y17.141
X15.914 Y17.861
X15.814 Y18.592
X15.756 Y19.327
X15.722 Y20.064
X15.703 Y20.802
X15.692 Y21.539
X15.686 Y22.277
X15.683 Y23.015
X15.68 Y24.491
X15.678 Y28.18
Y71.711
Y93.108
X15.694 Y93.845
X15.87 Y94.562
X16.273 Y95.18
X16.84 Y95.652
X17.5 Y95.981
X18.206 Y96.195
X18.932 Y96.327
X19.666 Y96.406
X20.402 Y96.452
X21.14 Y96.479
X21.877 Y96.493
X22.615 Y96.502
X23.353 Y96.507
X24.091 Y96.509
X25.566 Y96.512
X31.469 Y96.513
X42.536
X92.707
X108.201
X108.939 Y96.508
X109.669 Y96.398
X110.323 Y96.057
X110.839 Y95.529
X111.207 Y94.89
X111.451 Y94.194
X111.604 Y93.472
X111.696 Y92.74
X111.75 Y92.004
X111.781 Y91.267
X111.799 Y90.529
X111.809 Y89.791
X111.814 Y89.054
X111.818 Y88.316
X111.82 Y86.84
X111.822 Y82.413
Y63.968
Y19.699
X111.821 Y18.961
X111.794 Y18.224
X111.58 Y17.518
X111.144 Y16.923
X110.556 Y16.476
X109.886 Y16.169
X109.175 Y15.97
X108.448 Y15.848
X107.713 Y15.775
X106.977 Y15.733
X106.239 Y15.709
X105.502 Y15.696
X104.764 Y15.688
X104.026 Y15.684
X103.288 Y15.681
X101.813 Y15.679
X95.172 Y15.678
X58.281
X19.915 Y15.679
X19.177 Y15.69
X18.455 Y15.838
X17.823 Y16.22
X17.335 Y16.773
X16.991 Y17.426
X16.766 Y18.128
X16.626 Y18.853
X16.542 Y19.586
X16.493 Y20.322
X16.465 Y21.059
X16.449 Y21.797
X16.44 Y22.535
X16.435 Y23.273
X16.432 Y24.01
X16.43 Y25.486
X16.428 Y30.651
Y75.657
Y91.889
X16.43 Y92.627
X16.475 Y93.364
X16.738 Y94.053
X17.212 Y94.618
X17.821 Y95.035
X18.502 Y95.318
X19.217 Y95.5
X19.947 Y95.61
X20.682 Y95.675
X21.419 Y95.713
X22.156 Y95.735
X22.894 Y95.747
X23.632 Y95.754
X24.369 Y95.758
X25.845 Y95.761
X29.534 Y95.763
X47.979
X98.151
X107.005
X107.742 Y95.762
X108.48 Y95.739
X109.191 Y95.542
X109.793 Y95.116
X110.249 Y94.536
X110.564 Y93.869
X110.769 Y93.16
X110.895 Y92.433
X110.97 Y91.699
X111.014 Y90.962
X111.039 Y90.225
X111.053 Y89.487
X111.061 Y88.75
X111.066 Y88.012
X111.068 Y87.274
X111.071 Y85.798
X111.072 Y79.896
Y57.024
Y20.133
X111.067 Y19.395
X110.981 Y18.662
X110.664 Y17.996
X110.152 Y17.464
X109.522 Y17.08
X108.831 Y16.823
X108.111 Y16.661
X107.38 Y16.563
X106.644 Y16.505
X105.907 Y16.472
X105.17 Y16.453
X104.432 Y16.442
X103.694 Y16.436
X102.956 Y16.433
X101.481 Y16.43
X100.005 Y16.429
X49.833 Y16.428
X21.059
X20.321 Y16.43
X19.584 Y16.475
X18.895 Y16.737
X18.328 Y17.21
X17.91 Y17.818
X17.626 Y18.499
X17.444 Y19.214
X17.332 Y19.943
X17.267 Y20.678
X17.228 Y21.415
X17.207 Y22.152
X17.194 Y22.89
X17.187 Y23.628
X17.183 Y24.365
X17.18 Y25.841
X17.178 Y29.53
Y35.433
Y85.604
X17.179 Y91.507
X17.188 Y92.244
X17.33 Y92.969
X17.707 Y93.602
X18.258 Y94.094
X18.909 Y94.441
X19.611 Y94.669
X20.335 Y94.811
X21.068 Y94.896
X21.804 Y94.946
X22.541 Y94.975
X23.279 Y94.991
X24.016 Y95.001
X24.754 Y95.006
X25.492 Y95.009
X26.968 Y95.011
X32.132 Y95.013
X59.431
X106.652
X107.389 Y95.008
X108.121 Y94.912
X108.781 Y94.583
X109.306 Y94.064
X109.683 Y93.43
X109.935 Y92.737
X110.094 Y92.016
X110.19 Y91.285
X110.246 Y90.549
X110.279 Y89.812
X110.298 Y89.074
X110.308 Y88.336
X110.314 Y87.599
X110.317 Y86.861
X110.32 Y85.385
X110.322 Y80.958
Y44.068
Y21.195
X110.321 Y20.458
X110.296 Y19.72
X110.078 Y19.015
X109.638 Y18.423
X109.05 Y17.977
X108.379 Y17.67
X107.668 Y17.472
X106.941 Y17.349
X106.206 Y17.277
X105.47 Y17.234
X104.732 Y17.21
X103.995 Y17.196
X103.257 Y17.188
X102.519 Y17.184
X101.781 Y17.182
X100.306 Y17.179
X93.665 Y17.178
X85.549
X35.378
X21.359 Y17.179
X20.622 Y17.191
X19.903 Y17.358
X19.283 Y17.758
X18.807 Y18.321
X18.473 Y18.979
X18.255 Y19.684
X18.12 Y20.41
X18.039 Y21.143
X17.991 Y21.879
X17.964 Y22.617
X17.948 Y23.354
X17.94 Y24.092
X17.935 Y24.83
X17.932 Y25.568
X17.93 Y27.043
X17.928 Y32.208
Y51.391
Y90.495
X17.931 Y91.233
X18.002 Y91.967
X18.303 Y92.641
X18.801 Y93.186
X19.423 Y93.582
X20.111 Y93.849
X20.829 Y94.018
X21.56 Y94.121
X22.295 Y94.181
X23.032 Y94.216
X23.77 Y94.236
X24.507 Y94.248
X25.245 Y94.254
X25.983 Y94.258
X26.721 Y94.26
X28.934 Y94.262
X76.892 Y94.263
X105.667
X106.405 Y94.261
X107.141 Y94.218
X107.833 Y93.961
X108.404 Y93.494
X108.827 Y92.89
X109.116 Y92.211
X109.301 Y91.497
X109.414 Y90.768
X109.481 Y90.033
X109.52 Y89.296
X109.542 Y88.558
X109.555 Y87.821
X109.562 Y87.083
X109.566 Y86.345
X109.57 Y84.87
X109.571 Y81.918
X109.572 Y75.278
Y25.107
X109.571 Y21.417
X109.563 Y20.68
X109.414 Y19.957
X109.03 Y19.327
X108.476 Y18.839
X107.824 Y18.495
X107.121 Y18.269
X106.397 Y18.128
X105.664 Y18.044
X104.928 Y17.994
X104.191 Y17.966
X103.453 Y17.95
X102.715 Y17.94
X101.978 Y17.935
X101.24 Y17.932
X99.764 Y17.93
X94.599 Y17.928
X65.087
X22.293 Y17.929
X21.556 Y17.933
X20.826 Y18.042
X20.175 Y18.39
X19.662 Y18.92
X19.294 Y19.559
X19.051 Y20.256
X18.898 Y20.978
X18.805 Y21.71
X18.751 Y22.445
X18.72 Y23.183
X18.702 Y23.92
X18.692 Y24.658
X18.686 Y25.396
X18.683 Y26.134
X18.68 Y27.609
X18.678 Y32.036
Y73.354
Y89.586
X18.679 Y90.323
X18.719 Y91.06
X18.969 Y91.754
X19.43 Y92.33
X20.031 Y92.758
X20.709 Y93.05
X21.422 Y93.238
X22.151 Y93.352
X22.886 Y93.421
X23.623 Y93.46
X24.36 Y93.483
X25.098 Y93.496
X25.836 Y93.503
X26.573 Y93.507
X27.311 Y93.51
X29.525 Y93.512
X50.184 Y93.513
X100.355
X105.52 Y93.512
X106.257 Y93.491
X106.963 Y93.276
X107.56 Y92.843
X108.011 Y92.259
X108.322 Y91.59
X108.523 Y90.88
X108.647 Y90.153
X108.721 Y89.419
X108.764 Y88.682
X108.789 Y87.945
X108.803 Y87.207
X108.811 Y86.469
X108.816 Y85.731
X108.818 Y84.994
X108.821 Y83.518
X108.822 Y77.615
Y50.316
Y22.279
X108.819 Y21.541
X108.703 Y20.813
X108.351 Y20.164
X107.819 Y19.653
X107.178 Y19.288
X106.481 Y19.046
X105.759 Y18.895
X105.027 Y18.804
X104.291 Y18.75
X103.553 Y18.719
X102.816 Y18.702
X102.078 Y18.691
X101.34 Y18.686
X100.603 Y18.683
X99.127 Y18.68
X94.7 Y18.678
X88.798
X38.626
X23.132
X22.394 Y18.68
X21.661 Y18.765
X20.997 Y19.086
X20.465 Y19.597
X20.08 Y20.227
X19.824 Y20.919
X19.662 Y21.639
X19.564 Y22.37
X19.506 Y23.105
X19.473 Y23.842
X19.453 Y24.58
X19.443 Y25.318
X19.436 Y26.056
X19.433 Y26.793
X19.43 Y28.269
X19.428 Y31.958
Y51.141
X19.429 Y89.508
X19.459 Y90.245
X19.688 Y90.946
X20.132 Y91.536
X20.722 Y91.977
X21.395 Y92.281
X22.107 Y92.476
X22.835 Y92.595
X23.569 Y92.666
X24.306 Y92.708
X25.043 Y92.731
X25.781 Y92.745
X26.519 Y92.753
X27.257 Y92.757
X27.994 Y92.759
X29.47 Y92.762
X36.11 Y92.763
X79.641
X104.727 Y92.762
X105.465 Y92.745
X106.175 Y92.545
X106.781 Y92.124
X107.241 Y91.547
X107.56 Y90.882
X107.766 Y90.173
X107.893 Y89.446
X107.969 Y88.713
X108.013 Y87.976
X108.038 Y87.239
X108.053 Y86.501
X108.061 Y85.763
X108.066 Y85.025
X108.068 Y84.288
X108.071 Y82.812
X108.072 Y76.909
Y69.531
Y23.049
X108.07 Y22.311
X107.959 Y21.582
X107.615 Y20.929
X107.088 Y20.412
X106.449 Y20.043
X105.753 Y19.799
X105.031 Y19.647
X104.299 Y19.555
X103.563 Y19.501
X102.826 Y19.47
X102.088 Y19.452
X101.351 Y19.442
X100.613 Y19.436
X99.875 Y19.433
X98.399 Y19.43
X93.973 Y19.428
X56.344
X23.88
X23.142 Y19.429
X22.41 Y19.516
X21.745 Y19.835
X21.211 Y20.345
X20.827 Y20.975
X20.571 Y21.667
X20.41 Y22.387
X20.312 Y23.118
X20.255 Y23.854
X20.222 Y24.591
X20.203 Y25.328
X20.192 Y26.066
X20.186 Y26.804
X20.183 Y27.542
X20.18 Y29.017
X20.178 Y32.707
Y34.92
Y85.091
X20.179 Y88.78
X20.213 Y89.517
X20.448 Y90.217
X20.895 Y90.803
X21.49 Y91.241
X22.164 Y91.54
X22.876 Y91.732
X23.605 Y91.849
X24.339 Y91.919
X25.076 Y91.959
X25.814 Y91.982
X26.551 Y91.995
X27.289 Y92.003
X28.027 Y92.007
X28.765 Y92.01
X30.24 Y92.012
X36.881 Y92.013
X64.918
X104.022
X104.759 Y91.988
X105.466 Y91.775
X106.065 Y91.345
X106.516 Y90.761
X106.826 Y90.091
X107.027 Y89.381
X107.15 Y88.654
X107.223 Y87.92
X107.265 Y87.183
X107.29 Y86.446
X107.304 Y85.708
X107.311 Y84.97
X107.316 Y84.232
X107.318 Y83.495
X107.32 Y82.757
X107.321 Y79.805
X107.322 Y32.585
Y23.732
X107.317 Y22.994
X107.185 Y22.268
X106.825 Y21.624
X106.285 Y21.122
X105.638 Y20.766
X104.939 Y20.531
X104.216 Y20.385
X103.483 Y20.297
X102.747 Y20.246
X102.01 Y20.217
X101.272 Y20.2
X100.534 Y20.191
X99.797 Y20.185
X99.059 Y20.182
X97.583 Y20.18
X92.418 Y20.178
X68.071
X24.539
X23.802 Y20.181
X23.073 Y20.295
X22.419 Y20.637
X21.905 Y21.167
X21.539 Y21.807
X21.296 Y22.504
X21.144 Y23.226
X21.053 Y23.958
X20.999 Y24.694
X20.969 Y25.431
X20.951 Y26.169
X20.941 Y26.906
X20.936 Y27.644
X20.932 Y28.382
X20.93 Y29.858
X20.928 Y34.285
Y74.864
X20.929 Y88.145
X20.98 Y88.881
X21.25 Y89.568
X21.726 Y90.131
X22.337 Y90.545
X23.02 Y90.825
X23.736 Y91.004
X24.465 Y91.113
X25.2 Y91.177
X25.937 Y91.214
X26.675 Y91.235
X27.412 Y91.247
X28.15 Y91.254
X28.888 Y91.258
X30.364 Y91.261
X34.053 Y91.263
X56.187
X103.407 Y91.262
X104.144 Y91.219
X104.837 Y90.965
X105.409 Y90.499
X105.832 Y89.895
X106.12 Y89.215
X106.304 Y88.501
X106.417 Y87.772
X106.483 Y87.037
X106.521 Y86.3
X106.543 Y85.562
X106.556 Y84.825
X106.563 Y84.087
X106.567 Y83.349
X106.57 Y81.874
X106.572 Y78.184
Y39.818
Y24.324
X106.555 Y23.586
X106.376 Y22.871
X105.97 Y22.254
X105.401 Y21.785
X104.74 Y21.457
X104.034 Y21.244
X103.308 Y21.112
X102.574 Y21.034
X101.838 Y20.988
X101.101 Y20.962
X100.363 Y20.948
X99.625 Y20.939
X98.887 Y20.934
X98.149 Y20.932
X96.674 Y20.929
X90.771 Y20.928
X73.802
X25.106
X24.368 Y20.943
X23.65 Y21.111
X23.028 Y21.508
X22.552 Y22.072
X22.219 Y22.73
X22.002 Y23.435
X21.867 Y24.161
X21.787 Y24.894
X21.74 Y25.63
X21.713 Y26.368
X21.698 Y27.105
X21.689 Y27.843
X21.685 Y28.581
X21.682 Y29.319
X21.679 Y30.794
X21.678 Y36.697
Y70.636
Y86.868
X21.683 Y87.606
X21.786 Y88.337
X22.12 Y88.995
X22.644 Y89.515
X23.28 Y89.887
X23.975 Y90.135
X24.697 Y90.291
X25.428 Y90.385
X26.164 Y90.44
X26.901 Y90.471
X27.639 Y90.489
X28.377 Y90.5
X29.114 Y90.505
X29.852 Y90.508
X31.328 Y90.511
X35.755 Y90.513
X53.462
X102.158
X102.896 Y90.508
X103.627 Y90.41
X104.288 Y90.082
X104.812 Y89.562
X105.188 Y88.927
X105.439 Y88.233
X105.596 Y87.513
X105.692 Y86.781
X105.747 Y86.045
X105.78 Y85.308
X105.798 Y84.571
X105.808 Y83.833
X105.814 Y83.095
X105.817 Y82.357
X105.82 Y80.882
X105.822 Y76.455
Y41.04
Y25.546
X105.82 Y24.808
X105.774 Y24.071
X105.509 Y23.383
X105.033 Y22.819
X104.423 Y22.403
X103.742 Y22.121
X103.026 Y21.94
X102.297 Y21.83
X101.562 Y21.765
X100.825 Y21.728
X100.087 Y21.706
X99.35 Y21.694
X98.612 Y21.687
X97.874 Y21.683
X96.398 Y21.68
X92.709 Y21.678
X73.526
X26.306
X25.568 Y21.68
X24.832 Y21.724
X24.142 Y21.986
X23.576 Y22.46
X23.158 Y23.068
X22.874 Y23.749
X22.693 Y24.464
X22.582 Y25.193
X22.516 Y25.928
X22.478 Y26.665
X22.456 Y27.403
X22.444 Y28.14
X22.437 Y28.878
X22.433 Y29.616
X22.43 Y31.091
X22.428 Y34.781
Y72.409
Y85.69
X22.429 Y86.428
X22.451 Y87.165
X22.647 Y87.876
X23.072 Y88.48
X23.651 Y88.936
X24.318 Y89.253
X25.026 Y89.458
X25.753 Y89.585
X26.487 Y89.661
X27.224 Y89.705
X27.961 Y89.73
X28.699 Y89.744
X29.436 Y89.752
X30.174 Y89.757
X30.912 Y89.759
X32.388 Y89.762
X38.29 Y89.763
X56.736
X101.004
X101.742 Y89.762
X102.48 Y89.739
X103.19 Y89.541
X103.793 Y89.115
X104.248 Y88.534
X104.564 Y87.867
X104.768 Y87.158
X104.895 Y86.432
X104.97 Y85.698
X105.014 Y84.961
X105.039 Y84.224
X105.053 Y83.486
X105.061 Y82.748
X105.066 Y82.01
X105.068 Y81.273
X105.071 Y79.797
X105.072 Y73.895
Y36.266
X105.071 Y25.937
X105.062 Y25.199
X104.921 Y24.475
X104.543 Y23.84
X103.993 Y23.349
X103.342 Y23.001
X102.641 Y22.773
X101.917 Y22.63
X101.184 Y22.545
X100.448 Y22.495
X99.711 Y22.466
X98.973 Y22.45
X98.235 Y22.44
X97.498 Y22.435
X96.76 Y22.432
X95.284 Y22.43
X90.119 Y22.428
X67.247
X26.667 Y22.429
X25.93 Y22.439
X25.206 Y22.585
X24.576 Y22.968
X24.088 Y23.522
X23.744 Y24.175
X23.519 Y24.877
X23.378 Y25.602
X23.293 Y26.335
X23.244 Y27.071
X23.216 Y27.808
X23.199 Y28.546
X23.19 Y29.283
X23.185 Y30.021
X23.182 Y30.759
X23.18 Y32.235
X23.178 Y37.399
Y80.193
X23.179 Y85.357
X23.184 Y86.095
X23.283 Y86.826
X23.618 Y87.484
X24.139 Y88.006
X24.775 Y88.38
X25.469 Y88.63
X26.19 Y88.787
X26.922 Y88.882
X27.657 Y88.938
X28.394 Y88.97
X29.132 Y88.989
X29.87 Y88.999
X30.608 Y89.005
X31.345 Y89.008
X32.821 Y89.011
X37.248 Y89.013
X66.023
X100.7 Y89.012
X101.438 Y89.007
X102.168 Y88.898
X102.82 Y88.553
X103.335 Y88.025
X103.703 Y87.385
X103.948 Y86.689
X104.101 Y85.968
X104.194 Y85.236
X104.249 Y84.5
X104.28 Y83.763
X104.298 Y83.025
X104.308 Y82.287
X104.314 Y81.55
X104.317 Y80.812
X104.32 Y79.336
X104.322 Y75.647
Y26.951
X104.319 Y26.213
X104.249 Y25.479
X103.95 Y24.804
X103.453 Y24.259
X102.832 Y23.862
X102.144 Y23.594
X101.426 Y23.424
X100.695 Y23.321
X99.96 Y23.26
X99.223 Y23.225
X98.486 Y23.205
X97.748 Y23.193
X97.01 Y23.187
X96.272 Y23.183
X94.797 Y23.18
X91.108 Y23.178
X54.955
X27.655
X26.918 Y23.181
X26.184 Y23.262
X25.516 Y23.575
X24.98 Y24.082
X24.591 Y24.709
X24.331 Y25.4
X24.166 Y26.119
X24.066 Y26.85
X24.007 Y27.585
X23.973 Y28.322
X23.954 Y29.06
X23.943 Y29.798
X23.936 Y30.536
X23.933 Y31.273
X23.93 Y32.749
X23.928 Y36.438
Y43.816
Y84.396
X23.93 Y85.134
X23.981 Y85.87
X24.25 Y86.557
X24.726 Y87.121
X25.336 Y87.536
X26.017 Y87.819
X26.733 Y87.999
X27.462 Y88.109
X28.197 Y88.175
X28.934 Y88.213
X29.671 Y88.234
X30.409 Y88.247
X31.147 Y88.254
X31.885 Y88.258
X33.36 Y88.261
X37.049 Y88.263
X81.318
X99.764
X100.502 Y88.261
X101.237 Y88.197
X101.916 Y87.909
X102.468 Y87.42
X102.873 Y86.803
X103.146 Y86.118
X103.319 Y85.4
X103.425 Y84.67
X103.487 Y83.935
X103.524 Y83.198
X103.544 Y82.461
X103.556 Y81.723
X103.563 Y80.985
X103.567 Y80.247
X103.57 Y78.772
X103.572 Y75.083
Y58.851
Y27.862
X103.571 Y27.125
X103.532 Y26.388
X103.284 Y25.693
X102.825 Y25.116
X102.225 Y24.686
X101.548 Y24.393
X100.834 Y24.205
X100.106 Y24.09
X99.371 Y24.021
X98.634 Y23.981
X97.897 Y23.958
X97.159 Y23.945
X96.421 Y23.938
X95.683 Y23.934
X94.946 Y23.931
X92.732 Y23.929
X86.83 Y23.928
X36.658
X28.542
X27.804 Y23.929
X27.068 Y23.981
X26.382 Y24.252
X25.818 Y24.727
X25.402 Y25.337
X25.121 Y26.019
X24.941 Y26.734
X24.831 Y27.464
X24.766 Y28.199
X24.728 Y28.936
X24.707 Y29.673
X24.694 Y30.411
X24.687 Y31.149
X24.683 Y31.887
X24.68 Y33.362
X24.678 Y37.051
Y63.613
Y83.534
X24.679 Y84.272
X24.711 Y85.009
X24.945 Y85.708
X25.393 Y86.295
X25.986 Y86.733
X26.66 Y87.034
X27.372 Y87.227
X28.1 Y87.346
X28.834 Y87.417
X29.571 Y87.458
X30.308 Y87.482
X31.046 Y87.495
X31.784 Y87.503
X32.522 Y87.507
X33.259 Y87.509
X34.735 Y87.512
X41.375 Y87.513
X52.443
X98.925
X99.663 Y87.512
X100.399 Y87.466
X101.09 Y87.206
X101.66 Y86.738
X102.083 Y86.133
X102.37 Y85.453
X102.553 Y84.739
X102.665 Y84.009
X102.732 Y83.275
X102.77 Y82.538
X102.793 Y81.8
X102.805 Y81.063
X102.812 Y80.325
X102.816 Y79.587
X102.82 Y78.111
X102.821 Y75.16
X102.822 Y36.056
X102.821 Y27.94
X102.792 Y27.203
X102.565 Y26.501
X102.123 Y25.91
X101.533 Y25.467
X100.861 Y25.163
X100.15 Y24.967
X99.422 Y24.847
X98.687 Y24.775
X97.951 Y24.734
X97.213 Y24.71
X96.476 Y24.696
X95.738 Y24.688
X95 Y24.684
X94.262 Y24.682
X92.786 Y24.679
X86.146 Y24.678
X62.536
X28.597 Y24.679
X27.86 Y24.723
X27.168 Y24.98
X26.595 Y25.444
X26.17 Y26.048
X25.882 Y26.727
X25.698 Y27.441
X25.585 Y28.17
X25.518 Y28.905
X25.48 Y29.642
X25.458 Y30.379
X25.445 Y31.117
X25.438 Y31.855
X25.434 Y32.593
X25.43 Y34.068
X25.429 Y37.02
X25.428 Y39.233
X25.429 Y83.502
X25.458 Y84.239
X25.685 Y84.941
X26.127 Y85.532
X26.717 Y85.976
X27.389 Y86.28
X28.1 Y86.475
X28.828 Y86.595
X29.563 Y86.666
X30.299 Y86.708
X31.037 Y86.731
X31.774 Y86.745
X32.512 Y86.753
X33.25 Y86.757
X33.988 Y86.759
X35.464 Y86.762
X42.104 Y86.763
X79.732
X98.916 Y86.762
X99.652 Y86.716
X100.342 Y86.456
X100.914 Y85.989
X101.336 Y85.384
X101.623 Y84.704
X101.806 Y83.989
X101.917 Y83.26
X101.983 Y82.525
X102.021 Y81.788
X102.043 Y81.051
X102.055 Y80.313
X102.062 Y79.575
X102.066 Y78.837
X102.07 Y77.362
X102.071 Y74.41
X102.072 Y57.441
X102.071 Y28.666
X102.038 Y27.929
X101.805 Y27.229
X101.358 Y26.641
X100.765 Y26.203
X100.091 Y25.903
X99.379 Y25.71
X98.65 Y25.592
X97.916 Y25.523
X97.179 Y25.482
X96.442 Y25.459
X95.704 Y25.446
X94.966 Y25.438
X94.228 Y25.434
X93.491 Y25.431
X92.015 Y25.429
X85.375 Y25.428
X82.423
X32.252
X29.301 Y25.429
X28.565 Y25.481
X27.878 Y25.75
X27.313 Y26.225
X26.898 Y26.835
X26.617 Y27.517
X26.438 Y28.233
X26.329 Y28.962
X26.265 Y29.697
X26.227 Y30.434
X26.206 Y31.172
X26.194 Y31.91
X26.187 Y32.647
X26.183 Y33.385
X26.18 Y34.861
X26.178 Y38.55
Y71.014
X26.179 Y82.819
X26.219 Y83.556
X26.465 Y84.251
X26.922 Y84.83
X27.522 Y85.259
X28.2 Y85.552
X28.913 Y85.74
X29.642 Y85.854
X30.377 Y85.922
X31.114 Y85.961
X31.851 Y85.983
X32.589 Y85.996
X33.327 Y86.003
X34.064 Y86.007
X34.802 Y86.01
X37.016 Y86.012
X62.839 Y86.013
X98.254 Y86.012
X98.989 Y85.951
X99.67 Y85.665
X100.223 Y85.177
X100.627 Y84.56
X100.899 Y83.874
X101.072 Y83.157
X101.177 Y82.426
X101.239 Y81.691
X101.275 Y80.954
X101.295 Y80.217
X101.307 Y79.479
X101.313 Y78.741
X101.317 Y78.003
X101.32 Y76.528
X101.322 Y72.839
X101.321 Y29.308
X101.271 Y28.572
X101.006 Y27.883
X100.532 Y27.318
X99.923 Y26.901
X99.241 Y26.619
X98.526 Y26.439
X97.796 Y26.329
X97.061 Y26.265
X96.324 Y26.227
X95.587 Y26.206
X94.849 Y26.194
X94.111 Y26.187
X93.373 Y26.183
X91.898 Y26.18
X88.209 Y26.178
X46.153
X30.659
X29.921 Y26.18
X29.188 Y26.259
X28.517 Y26.566
X27.979 Y27.072
X27.59 Y27.698
X27.329 Y28.389
X27.164 Y29.108
X27.065 Y29.839
X27.006 Y30.574
X26.972 Y31.311
X26.953 Y32.049
X26.942 Y32.787
X26.936 Y33.524
X26.933 Y34.262
X26.93 Y35.738
X26.928 Y39.427
Y58.61
Y81.482
X26.93 Y82.22
X26.996 Y82.955
X27.288 Y83.633
X27.783 Y84.18
X28.403 Y84.579
X29.091 Y84.847
X29.809 Y85.018
X30.539 Y85.121
X31.274 Y85.182
X32.011 Y85.217
X32.749 Y85.237
X33.487 Y85.248
X34.224 Y85.254
X34.962 Y85.258
X36.438 Y85.261
X40.127 Y85.263
X51.932
X96.939
X97.677 Y85.258
X98.407 Y85.152
X99.063 Y84.815
X99.581 Y84.29
X99.951 Y83.652
X100.197 Y82.956
X100.352 Y82.235
X100.445 Y81.503
X100.499 Y80.767
X100.531 Y80.03
X100.549 Y79.292
X100.559 Y78.554
X100.564 Y77.817
X100.568 Y77.079
X100.57 Y75.603
X100.572 Y71.176
Y32.072
Y30.596
X100.567 Y29.859
X100.471 Y29.127
X100.145 Y28.465
X99.626 Y27.941
X98.992 Y27.564
X98.298 Y27.312
X97.577 Y27.154
X96.846 Y27.059
X96.11 Y27.003
X95.373 Y26.97
X94.635 Y26.952
X93.898 Y26.942
X93.16 Y26.936
X92.422 Y26.933
X90.946 Y26.93
X86.52 Y26.928
X54.056
X31.183
X30.446 Y26.939
X29.722 Y27.082
X29.087 Y27.458
X28.595 Y28.008
X28.248 Y28.659
X28.021 Y29.361
X27.879 Y30.085
X27.794 Y30.818
X27.744 Y31.554
X27.715 Y32.291
X27.699 Y33.029
X27.69 Y33.767
X27.685 Y34.505
X27.682 Y35.242
X27.68 Y36.718
X27.678 Y41.883
Y52.212
X27.679 Y80.987
X27.688 Y81.725
X27.825 Y82.45
X28.195 Y83.088
X28.741 Y83.584
X29.391 Y83.934
X30.091 Y84.165
X30.815 Y84.309
X31.548 Y84.395
X32.284 Y84.446
X33.021 Y84.475
X33.759 Y84.491
X34.496 Y84.501
X35.234 Y84.506
X35.972 Y84.509
X37.448 Y84.511
X42.612 Y84.513
X47.039
X96.473 Y84.512
X97.21 Y84.491
X97.923 Y84.3
X98.529 Y83.879
X98.989 Y83.302
X99.308 Y82.637
X99.515 Y81.928
X99.643 Y81.202
X99.719 Y80.468
X99.763 Y79.731
X99.789 Y78.994
X99.803 Y78.256
X99.811 Y77.519
X99.816 Y76.781
X99.818 Y76.043
X99.821 Y74.567
X99.822 Y68.665
Y35.463
X99.821 Y31.036
X99.801 Y30.299
X99.613 Y29.585
X99.194 Y28.978
X98.618 Y28.516
X97.954 Y28.196
X97.246 Y27.988
X96.519 Y27.859
X95.785 Y27.782
X95.049 Y27.737
X94.312 Y27.712
X93.574 Y27.697
X92.836 Y27.689
X92.098 Y27.684
X91.361 Y27.682
X89.885 Y27.679
X83.982 Y27.678
X55.945
X32.335
X31.598 Y27.68
X30.861 Y27.719
X30.168 Y27.973
X29.596 Y28.439
X29.173 Y29.043
X28.884 Y29.722
X28.699 Y30.437
X28.586 Y31.166
X28.518 Y31.9
X28.48 Y32.637
X28.457 Y33.375
X28.445 Y34.112
X28.438 Y34.85
X28.434 Y35.588
X28.43 Y37.064
X28.428 Y40.753
Y51.82
Y79.857
X28.43 Y80.595
X28.47 Y81.331
X28.724 Y82.024
X29.191 Y82.595
X29.795 Y83.018
X30.474 Y83.307
X31.189 Y83.492
X31.918 Y83.605
X32.653 Y83.673
X33.389 Y83.711
X34.127 Y83.734
X34.865 Y83.746
X35.602 Y83.753
X36.34 Y83.757
X37.816 Y83.761
X41.505 Y83.763
X48.145
X95.365
X96.103 Y83.758
X96.836 Y83.672
X97.502 Y83.354
X98.034 Y82.843
X98.418 Y82.213
X98.675 Y81.521
X98.838 Y80.802
X98.936 Y80.071
X98.994 Y79.335
X99.028 Y78.598
X99.047 Y77.86
X99.058 Y77.123
X99.064 Y76.385
X99.067 Y75.647
X99.07 Y74.171
X99.072 Y70.482
Y32.854
Y32.116
X99.067 Y31.378
X98.976 Y30.646
X98.652 Y29.983
X98.136 Y29.455
X97.504 Y29.074
X96.812 Y28.82
X96.092 Y28.659
X95.36 Y28.562
X94.625 Y28.505
X93.888 Y28.472
X93.15 Y28.453
X92.412 Y28.442
X91.675 Y28.436
X90.937 Y28.433
X89.461 Y28.43
X85.034 Y28.428
X51.833
X32.649 Y28.429
X31.912 Y28.439
X31.19 Y28.592
X30.563 Y28.98
X30.079 Y29.537
X29.738 Y30.192
X29.515 Y30.895
X29.376 Y31.62
X29.292 Y32.353
X29.243 Y33.089
X29.215 Y33.826
X29.199 Y34.564
X29.19 Y35.301
X29.185 Y36.039
X29.182 Y36.777
X29.18 Y38.253
X29.178 Y43.417
Y57.436
X29.179 Y79.57
X29.19 Y80.308
X29.354 Y81.028
X29.75 Y81.65
X30.312 Y82.128
X30.969 Y82.463
X31.674 Y82.683
X32.399 Y82.819
X33.132 Y82.901
X33.868 Y82.949
X34.606 Y82.977
X35.343 Y82.992
X36.081 Y83.001
X36.819 Y83.006
X37.557 Y83.009
X39.032 Y83.011
X44.197 Y83.013
X55.264
X94.368
X95.106 Y83.011
X95.843 Y82.978
X96.54 Y82.737
X97.121 Y82.281
X97.554 Y81.684
X97.85 Y81.008
X98.041 Y80.295
X98.158 Y79.567
X98.228 Y78.832
X98.268 Y78.095
X98.291 Y77.358
X98.305 Y76.62
X98.312 Y75.883
X98.316 Y75.145
X98.319 Y74.407
X98.321 Y72.194
X98.322 Y33.089
X98.32 Y32.351
X98.278 Y31.615
X98.023 Y30.923
X97.558 Y30.35
X96.954 Y29.926
X96.275 Y29.636
X95.561 Y29.451
X94.832 Y29.337
X94.098 Y29.269
X93.361 Y29.23
X92.623 Y29.208
X91.886 Y29.195
X91.148 Y29.188
X90.41 Y29.184
X89.672 Y29.181
X87.459 Y29.179
X41.714 Y29.178
X33.598
X32.861 Y29.182
X32.129 Y29.277
X31.47 Y29.608
X30.945 Y30.126
X30.567 Y30.76
X30.315 Y31.454
X30.157 Y32.174
X30.061 Y32.906
X30.004 Y33.642
X29.971 Y34.379
X29.953 Y35.116
X29.942 Y35.854
X29.936 Y36.592
X29.933 Y37.33
X29.93 Y38.805
X29.928 Y43.232
Y69.056
X29.929 Y78.647
X29.932 Y79.385
X30.042 Y80.115
X30.39 Y80.765
X30.919 Y81.279
X31.559 Y81.646
X32.255 Y81.89
X32.977 Y82.043
X33.709 Y82.135
X34.445 Y82.19
X35.182 Y82.221
X35.92 Y82.239
X36.658 Y82.249
X37.395 Y82.255
X38.133 Y82.258
X39.609 Y82.261
X44.036 Y82.263
X68.384
X94.207 Y82.262
X94.945 Y82.25
X95.657 Y82.056
X96.265 Y81.638
X96.728 Y81.064
X97.05 Y80.4
X97.259 Y79.693
X97.389 Y78.966
X97.466 Y78.233
X97.511 Y77.496
X97.537 Y76.759
X97.552 Y76.021
X97.561 Y75.283
X97.565 Y74.546
X97.568 Y73.808
X97.571 Y72.332
X97.572 Y66.43
Y59.789
X97.571 Y33.228
X97.549 Y32.49
X97.334 Y31.785
X96.9 Y31.188
X96.315 Y30.738
X95.646 Y30.427
X94.936 Y30.226
X94.209 Y30.102
X93.475 Y30.029
X92.738 Y29.986
X92.001 Y29.961
X91.263 Y29.947
X90.525 Y29.939
X89.788 Y29.934
X89.05 Y29.932
X87.574 Y29.929
X81.672 Y29.928
X75.769
X34.451
X33.714 Y29.93
X32.979 Y30
X32.305 Y30.299
X31.759 Y30.795
X31.361 Y31.416
X31.093 Y32.104
X30.924 Y32.822
X30.821 Y33.553
X30.76 Y34.288
X30.725 Y35.025
X30.705 Y35.763
X30.693 Y36.5
X30.687 Y37.238
X30.683 Y37.976
X30.68 Y39.452
X30.678 Y43.141
Y77.818
X30.68 Y78.556
X30.767 Y79.288
X31.091 Y79.951
X31.604 Y80.482
X32.234 Y80.865
X32.927 Y81.12
X33.647 Y81.281
X34.378 Y81.378
X35.114 Y81.435
X35.851 Y81.469
X36.588 Y81.488
X37.326 Y81.499
X38.064 Y81.505
X38.802 Y81.508
X40.277 Y81.511
X43.966 Y81.513
X87.497
X93.4 Y81.512
X94.138 Y81.505
X94.854 Y81.329
X95.474 Y80.928
X95.95 Y80.364
X96.282 Y79.705
X96.498 Y79
X96.632 Y78.274
X96.712 Y77.541
X96.759 Y76.805
X96.786 Y76.067
X96.801 Y75.33
X96.81 Y74.592
X96.815 Y73.854
X96.818 Y73.116
X96.82 Y71.641
X96.822 Y66.476
Y39.177
X96.821 Y34.012
X96.802 Y33.275
X96.598 Y32.565
X96.175 Y31.961
X95.597 Y31.503
X94.93 Y31.186
X94.221 Y30.982
X93.495 Y30.856
X92.761 Y30.78
X92.024 Y30.737
X91.287 Y30.712
X90.549 Y30.697
X89.811 Y30.689
X89.073 Y30.684
X88.336 Y30.682
X86.86 Y30.679
X80.957 Y30.678
X53.658
X35.213
X34.475 Y30.679
X33.74 Y30.746
X33.064 Y31.04
X32.514 Y31.533
X32.114 Y32.152
X31.845 Y32.839
X31.674 Y33.557
X31.571 Y34.288
X31.51 Y35.023
X31.475 Y35.76
X31.455 Y36.498
X31.443 Y37.235
X31.437 Y37.973
X31.433 Y38.711
X31.43 Y40.186
X31.428 Y43.876
Y60.107
Y77.077
X31.429 Y77.815
X31.52 Y78.547
X31.845 Y79.21
X32.358 Y79.74
X32.99 Y80.121
X33.683 Y80.375
X34.403 Y80.534
X35.134 Y80.63
X35.87 Y80.687
X36.607 Y80.719
X37.345 Y80.738
X38.083 Y80.749
X38.82 Y80.755
X39.558 Y80.758
X41.034 Y80.761
X44.723 Y80.763
X62.43
X92.681
X93.419 Y80.749
X94.133 Y80.565
X94.749 Y80.159
X95.218 Y79.589
X95.545 Y78.928
X95.757 Y78.221
X95.888 Y77.495
X95.966 Y76.761
X96.011 Y76.025
X96.037 Y75.288
X96.052 Y74.55
X96.061 Y73.812
X96.065 Y73.074
X96.068 Y72.337
X96.071 Y70.861
X96.072 Y64.958
Y62.745
Y34.708
X96.044 Y33.971
X95.825 Y33.266
X95.389 Y32.671
X94.802 Y32.224
X94.131 Y31.917
X93.42 Y31.719
X92.693 Y31.597
X91.958 Y31.525
X91.222 Y31.484
X90.484 Y31.46
X89.747 Y31.446
X89.009 Y31.438
X88.271 Y31.434
X87.533 Y31.432
X86.057 Y31.429
X79.417 Y31.428
X75.728
X35.886
X35.148 Y31.429
X34.415 Y31.515
X33.748 Y31.83
X33.215 Y32.339
X32.83 Y32.969
X32.572 Y33.66
X32.41 Y34.38
X32.312 Y35.111
X32.255 Y35.847
X32.222 Y36.584
X32.203 Y37.322
X32.192 Y38.059
X32.186 Y38.797
X32.183 Y39.535
X32.18 Y41.011
X32.178 Y44.7
Y76.426
X32.182 Y77.164
X32.303 Y77.891
X32.652 Y78.541
X33.187 Y79.05
X33.83 Y79.412
X34.528 Y79.651
X35.25 Y79.801
X35.982 Y79.89
X36.718 Y79.943
X37.456 Y79.973
X38.193 Y79.99
X38.931 Y80
X39.669 Y80.006
X40.407 Y80.009
X41.882 Y80.011
X43.358 Y80.012
X92.054 Y80.013
X92.791 Y79.984
X93.495 Y79.763
X94.088 Y79.324
X94.532 Y78.734
X94.837 Y78.063
X95.033 Y77.351
X95.154 Y76.624
X95.226 Y75.889
X95.267 Y75.153
X95.291 Y74.415
X95.304 Y73.677
X95.312 Y72.94
X95.316 Y72.202
X95.319 Y71.464
X95.321 Y69.988
X95.322 Y63.348
Y36.049
X95.321 Y35.311
X95.272 Y34.575
X95.009 Y33.886
X94.535 Y33.32
X93.926 Y32.903
X93.245 Y32.62
X92.529 Y32.44
X91.8 Y32.33
X91.065 Y32.265
X90.328 Y32.228
X89.59 Y32.206
X88.853 Y32.194
X88.115 Y32.187
X87.377 Y32.183
X85.902 Y32.18
X82.212 Y32.178
X41.633
X36.468
X35.73 Y32.186
X35.005 Y32.32
X34.363 Y32.684
X33.864 Y33.228
X33.511 Y33.876
X33.278 Y34.576
X33.133 Y35.299
X33.046 Y36.032
X32.996 Y36.768
X32.966 Y37.505
X32.95 Y38.243
X32.94 Y38.981
X32.935 Y39.718
X32.932 Y40.456
X32.93 Y41.932
X32.928 Y47.097
Y75.134
X32.929 Y75.871
X32.946 Y76.609
X33.125 Y77.325
X33.532 Y77.94
X34.102 Y78.409
X34.764 Y78.735
X35.47 Y78.947
X36.196 Y79.079
X36.93 Y79.157
X37.666 Y79.203
X38.404 Y79.229
X39.142 Y79.244
X39.879 Y79.252
X40.617 Y79.257
X41.355 Y79.259
X42.831 Y79.262
X48.733 Y79.263
X80.459
X90.788
X91.526 Y79.26
X92.261 Y79.194
X92.939 Y78.903
X93.487 Y78.409
X93.886 Y77.788
X94.155 Y77.101
X94.326 Y76.384
X94.429 Y75.653
X94.49 Y74.918
X94.526 Y74.181
X94.546 Y73.443
X94.557 Y72.706
X94.563 Y71.968
X94.567 Y71.23
X94.57 Y69.754
X94.572 Y66.065
Y41.717
Y36.553
X94.566 Y35.815
X94.457 Y35.085
X94.117 Y34.431
X93.589 Y33.915
X92.95 Y33.546
X92.254 Y33.301
X91.532 Y33.147
X90.801 Y33.055
X90.065 Y33
X89.328 Y32.969
X88.59 Y32.951
X87.852 Y32.941
X87.114 Y32.936
X86.377 Y32.932
X84.901 Y32.93
X80.474 Y32.928
X51.699
X37.681
X36.943 Y32.929
X36.206 Y32.958
X35.501 Y33.177
X34.911 Y33.619
X34.468 Y34.21
X34.164 Y34.882
X33.967 Y35.593
X33.846 Y36.321
X33.775 Y37.055
X33.733 Y37.792
X33.709 Y38.529
X33.696 Y39.267
X33.688 Y40.005
X33.684 Y40.743
X33.681 Y41.48
X33.679 Y42.956
X33.678 Y49.596
Y66.566
Y74.682
X33.681 Y75.42
X33.736 Y76.156
X34.013 Y76.839
X34.497 Y77.396
X35.112 Y77.805
X35.796 Y78.081
X36.512 Y78.257
X37.242 Y78.365
X37.977 Y78.428
X38.714 Y78.465
X39.452 Y78.486
X40.189 Y78.497
X40.927 Y78.504
X41.665 Y78.508
X43.141 Y78.511
X46.83 Y78.513
X73.391
X90.361 Y78.512
X91.098 Y78.499
X91.82 Y78.344
X92.446 Y77.953
X92.928 Y77.395
X93.267 Y76.74
X93.489 Y76.036
X93.627 Y75.311
X93.71 Y74.578
X93.758 Y73.842
X93.786 Y73.104
X93.801 Y72.367
X93.81 Y71.629
X93.815 Y70.891
X93.818 Y70.153
X93.82 Y68.678
X93.822 Y63.513
Y47.281
Y37.69
X93.821 Y36.952
X93.793 Y36.214
X93.575 Y35.51
X93.134 Y34.918
X92.545 Y34.474
X91.874 Y34.168
X91.163 Y33.97
X90.435 Y33.848
X89.701 Y33.776
X88.964 Y33.734
X88.227 Y33.71
X87.489 Y33.696
X86.752 Y33.688
X86.014 Y33.684
X85.276 Y33.682
X83.8 Y33.679
X77.16 Y33.678
X55.763
X38.056 Y33.679
X37.318 Y33.684
X36.588 Y33.791
X35.934 Y34.133
X35.418 Y34.661
X35.049 Y35.299
X34.803 Y35.995
X34.649 Y36.717
X34.556 Y37.449
X34.501 Y38.184
X34.47 Y38.921
X34.452 Y39.659
X34.441 Y40.397
X34.436 Y41.135
X34.433 Y41.872
X34.43 Y43.348
X34.428 Y47.775
Y64.007
X34.429 Y74.336
X34.443 Y75.074
X34.609 Y75.793
X35.01 Y76.412
X35.575 Y76.887
X36.233 Y77.22
X36.938 Y77.437
X37.664 Y77.572
X38.397 Y77.653
X39.134 Y77.7
X39.871 Y77.727
X40.608 Y77.743
X41.346 Y77.751
X42.084 Y77.756
X42.822 Y77.759
X44.297 Y77.762
X49.462 Y77.763
X72.334
X89.304
X90.042 Y77.759
X90.776 Y77.688
X91.451 Y77.388
X91.995 Y76.89
X92.391 Y76.268
X92.658 Y75.58
X92.827 Y74.861
X92.93 Y74.131
X92.99 Y73.395
X93.025 Y72.659
X93.046 Y71.921
X93.057 Y71.183
X93.063 Y70.445
X93.067 Y69.708
X93.07 Y68.232
X93.072 Y64.543
Y46.835
X93.071 Y37.982
X93.064 Y37.244
X92.936 Y36.517
X92.571 Y35.876
X92.029 Y35.375
X91.383 Y35.02
X90.683 Y34.785
X89.96 Y34.638
X89.228 Y34.55
X88.492 Y34.498
X87.754 Y34.468
X87.017 Y34.451
X86.279 Y34.441
X85.541 Y34.435
X84.803 Y34.432
X83.328 Y34.43
X78.901 Y34.428
X53.815
X39.059
X38.321 Y34.43
X37.585 Y34.477
X36.896 Y34.742
X36.33 Y35.215
X35.911 Y35.822
X35.627 Y36.503
X35.445 Y37.218
X35.333 Y37.947
X35.267 Y38.682
X35.229 Y39.419
X35.207 Y40.156
X35.195 Y40.894
X35.187 Y41.632
X35.183 Y42.37
X35.18 Y43.845
X35.178 Y47.534
Y67.455
X35.179 Y73.358
X35.183 Y74.096
X35.282 Y74.827
X35.617 Y75.484
X36.139 Y76.006
X36.775 Y76.38
X37.469 Y76.63
X38.19 Y76.787
X38.922 Y76.882
X39.658 Y76.938
X40.395 Y76.97
X41.132 Y76.989
X41.87 Y76.999
X42.608 Y77.005
X43.346 Y77.008
X44.821 Y77.011
X49.248 Y77.013
X77.285
X88.352
X89.09 Y77.012
X89.827 Y76.98
X90.526 Y76.743
X91.11 Y76.292
X91.546 Y75.697
X91.845 Y75.023
X92.038 Y74.31
X92.156 Y73.582
X92.226 Y72.848
X92.267 Y72.111
X92.291 Y71.373
X92.304 Y70.636
X92.312 Y69.898
X92.316 Y69.16
X92.319 Y68.422
X92.321 Y66.947
X92.322 Y60.306
Y40.385
Y38.91
X92.319 Y38.172
X92.239 Y37.438
X91.927 Y36.77
X91.421 Y36.233
X90.794 Y35.843
X90.104 Y35.582
X89.385 Y35.417
X88.654 Y35.317
X87.919 Y35.258
X87.182 Y35.224
X86.444 Y35.204
X85.706 Y35.193
X84.968 Y35.187
X84.231 Y35.183
X82.755 Y35.18
X79.066 Y35.178
X45.864
X39.224 Y35.179
X38.486 Y35.201
X37.781 Y35.417
X37.185 Y35.852
X36.736 Y36.438
X36.426 Y37.107
X36.225 Y37.817
X36.102 Y38.545
X36.028 Y39.279
X35.985 Y40.015
X35.961 Y40.753
X35.947 Y41.49
X35.939 Y42.228
X35.934 Y42.966
X35.932 Y43.704
X35.929 Y45.179
X35.928 Y51.082
Y72.479
X35.93 Y73.216
X35.998 Y73.951
X36.294 Y74.627
X36.788 Y75.175
X37.408 Y75.575
X38.095 Y75.844
X38.813 Y76.015
X39.543 Y76.119
X40.278 Y76.18
X41.015 Y76.216
X41.753 Y76.236
X42.49 Y76.248
X43.228 Y76.254
X43.966 Y76.258
X45.442 Y76.261
X49.131 Y76.263
X88.235 Y76.262
X88.973 Y76.245
X89.682 Y76.042
X90.286 Y75.618
X90.744 Y75.039
X91.061 Y74.373
X91.266 Y73.664
X91.393 Y72.938
X91.469 Y72.204
X91.513 Y71.467
X91.538 Y70.73
X91.553 Y69.992
X91.561 Y69.254
X91.566 Y68.517
X91.568 Y67.779
X91.571 Y66.303
X91.572 Y60.401
Y39.742
X91.571 Y39.004
X91.509 Y38.269
X91.222 Y37.589
X90.735 Y37.034
X90.119 Y36.628
X89.434 Y36.355
X88.717 Y36.181
X87.987 Y36.075
X87.252 Y36.013
X86.515 Y35.976
X85.777 Y35.956
X85.04 Y35.944
X84.302 Y35.937
X83.564 Y35.933
X82.088 Y35.93
X78.399 Y35.928
X40.033 Y35.929
X39.295 Y35.945
X38.584 Y36.142
X37.977 Y36.56
X37.515 Y37.136
X37.194 Y37.8
X36.987 Y38.508
X36.859 Y39.235
X36.782 Y39.969
X36.738 Y40.705
X36.712 Y41.443
X36.697 Y42.18
X36.689 Y42.918
X36.684 Y43.656
X36.682 Y44.394
X36.679 Y45.869
X36.678 Y51.772
Y71.693
X36.679 Y72.431
X36.739 Y73.166
X37.023 Y73.847
X37.508 Y74.403
X38.123 Y74.811
X38.808 Y75.085
X39.525 Y75.26
X40.255 Y75.366
X40.99 Y75.428
X41.727 Y75.465
X42.464 Y75.485
X43.202 Y75.497
X43.94 Y75.504
X44.678 Y75.508
X46.153 Y75.511
X49.842 Y75.513
X55.007
X87.471 Y75.512
X88.209 Y75.495
X88.919 Y75.297
X89.527 Y74.879
X89.989 Y74.303
X90.309 Y73.638
X90.515 Y72.93
X90.643 Y72.203
X90.718 Y71.469
X90.763 Y70.733
X90.788 Y69.995
X90.803 Y69.258
X90.811 Y68.52
X90.816 Y67.782
X90.818 Y67.044
X90.821 Y65.569
X90.822 Y59.666
X90.821 Y39.745
X90.758 Y39.01
X90.47 Y38.331
X89.983 Y37.777
X89.366 Y37.373
X88.68 Y37.1
X87.963 Y36.928
X87.232 Y36.823
X86.497 Y36.761
X85.76 Y36.726
X85.023 Y36.705
X84.285 Y36.694
X83.547 Y36.687
X82.809 Y36.683
X81.334 Y36.68
X77.645 Y36.678
X62.151
X40.754
X40.016 Y36.7
X39.308 Y36.905
X38.704 Y37.328
X38.248 Y37.908
X37.932 Y38.576
X37.729 Y39.285
X37.603 Y40.012
X37.529 Y40.746
X37.486 Y41.482
X37.461 Y42.22
X37.447 Y42.957
X37.439 Y43.695
X37.434 Y44.433
X37.432 Y45.171
X37.429 Y46.646
X37.428 Y52.549
Y63.616
X37.429 Y71.732
X37.498 Y72.467
X37.796 Y73.141
X38.292 Y73.688
X38.914 Y74.085
X39.602 Y74.351
X40.32 Y74.52
X41.051 Y74.622
X41.786 Y74.682
X42.523 Y74.717
X43.261 Y74.737
X43.999 Y74.748
X44.736 Y74.754
X45.474 Y74.758
X46.95 Y74.761
X50.639 Y74.763
X77.938
X86.792
X87.529 Y74.735
X88.234 Y74.516
X88.83 Y74.081
X89.276 Y73.493
X89.583 Y72.823
X89.781 Y72.112
X89.903 Y71.384
X89.975 Y70.65
X90.017 Y69.913
X90.04 Y69.176
X90.054 Y68.438
X90.062 Y67.7
X90.066 Y66.963
X90.068 Y66.225
X90.071 Y64.749
X90.072 Y58.109
Y41.139
X90.07 Y40.401
X89.986 Y39.668
X89.672 Y39.001
X89.163 Y38.466
X88.534 Y38.081
X87.842 Y37.823
X87.123 Y37.661
X86.391 Y37.563
X85.656 Y37.505
X84.919 Y37.472
X84.181 Y37.453
X83.443 Y37.442
X82.706 Y37.436
X81.968 Y37.433
X80.492 Y37.43
X76.803 Y37.428
X41.388
X40.651 Y37.466
X39.953 Y37.705
X39.372 Y38.16
X38.94 Y38.757
X38.644 Y39.434
X38.455 Y40.147
X38.339 Y40.875
X38.27 Y41.61
X38.23 Y42.347
X38.208 Y43.084
X38.195 Y43.822
X38.188 Y44.56
X38.184 Y45.297
X38.181 Y46.035
X38.179 Y48.249
X38.178 Y70.383
X38.182 Y71.121
X38.289 Y71.851
X38.627 Y72.507
X39.153 Y73.024
X39.791 Y73.394
X40.487 Y73.64
X41.209 Y73.794
X41.941 Y73.886
X42.676 Y73.941
X43.414 Y73.972
X44.151 Y73.99
X44.889 Y74
X45.627 Y74.005
X46.364 Y74.009
X47.84 Y74.011
X52.267 Y74.013
X56.694
X85.469
X86.207 Y74.011
X86.943 Y73.961
X87.63 Y73.692
X88.192 Y73.214
X88.605 Y72.603
X88.885 Y71.92
X89.063 Y71.204
X89.172 Y70.474
X89.236 Y69.739
X89.273 Y69.002
X89.294 Y68.265
X89.306 Y67.527
X89.313 Y66.789
X89.317 Y66.052
X89.32 Y64.576
X89.322 Y60.887
Y54.984
Y41.704
X89.313 Y40.966
X89.175 Y40.241
X88.806 Y39.602
X88.26 Y39.106
X87.61 Y38.756
X86.91 Y38.525
X86.186 Y38.381
X85.453 Y38.295
X84.717 Y38.245
X83.98 Y38.216
X83.242 Y38.2
X82.504 Y38.19
X81.767 Y38.185
X81.029 Y38.182
X79.553 Y38.18
X74.388 Y38.178
X54.467
X42.662
X41.925 Y38.181
X41.191 Y38.26
X40.52 Y38.566
X39.982 Y39.071
X39.592 Y39.698
X39.331 Y40.388
X39.166 Y41.107
X39.065 Y41.838
X39.007 Y42.573
X38.973 Y43.31
X38.953 Y44.048
X38.942 Y44.786
X38.936 Y45.523
X38.933 Y46.261
X38.93 Y47.737
X38.928 Y51.426
X38.929 Y69.871
X38.946 Y70.609
X39.125 Y71.325
X39.533 Y71.939
X40.103 Y72.408
X40.765 Y72.734
X41.471 Y72.947
X42.197 Y73.078
X42.931 Y73.157
X43.667 Y73.202
X44.405 Y73.229
X45.142 Y73.243
X45.88 Y73.252
X46.618 Y73.257
X47.356 Y73.259
X48.831 Y73.262
X54.734 Y73.263
X84.984
X85.722 Y73.255
X86.45 Y73.137
X87.099 Y72.785
X87.607 Y72.25
X87.969 Y71.607
X88.208 Y70.909
X88.358 Y70.187
X88.449 Y69.455
X88.502 Y68.719
X88.532 Y67.982
X88.549 Y67.244
X88.559 Y66.506
X88.565 Y65.768
X88.568 Y65.031
X88.57 Y63.555
X88.572 Y59.128
Y42.896
X88.571 Y42.158
X88.538 Y41.421
X88.307 Y40.721
X87.855 Y40.137
X87.26 Y39.702
X86.585 Y39.403
X85.873 Y39.21
X85.144 Y39.092
X84.41 Y39.022
X83.673 Y38.982
X82.936 Y38.959
X82.198 Y38.945
X81.46 Y38.938
X80.723 Y38.934
X79.985 Y38.931
X77.771 Y38.929
X66.704 Y38.928
X43.094 Y38.929
X42.356 Y38.945
X41.638 Y39.115
X41.02 Y39.518
X40.547 Y40.084
X40.217 Y40.743
X40.001 Y41.449
X39.867 Y42.174
X39.787 Y42.908
X39.74 Y43.644
X39.713 Y44.382
X39.698 Y45.119
X39.689 Y45.857
X39.685 Y46.595
X39.682 Y47.333
X39.679 Y48.808
X39.678 Y54.711
Y63.565
Y68.729
X39.681 Y69.467
X39.749 Y70.202
X40.042 Y70.879
X40.536 Y71.426
X41.157 Y71.826
X41.844 Y72.095
X42.562 Y72.266
X43.292 Y72.369
X44.027 Y72.431
X44.764 Y72.466
X45.502 Y72.486
X46.24 Y72.498
X46.977 Y72.504
X47.715 Y72.508
X49.191 Y72.511
X52.88 Y72.513
X82.392
X83.868
X84.606 Y72.511
X85.343 Y72.479
X86.041 Y72.24
X86.622 Y71.785
X87.054 Y71.187
X87.351 Y70.511
X87.542 Y69.799
X87.659 Y69.07
X87.728 Y68.336
X87.768 Y67.599
X87.792 Y66.862
X87.805 Y66.124
X87.812 Y65.386
X87.816 Y64.648
X87.819 Y63.91
X87.821 Y61.697
Y43.252
X87.814 Y42.514
X87.692 Y41.786
X87.333 Y41.141
X86.796 Y40.636
X86.151 Y40.277
X85.453 Y40.039
X84.73 Y39.891
X83.998 Y39.801
X83.262 Y39.748
X82.525 Y39.718
X81.787 Y39.701
X81.049 Y39.691
X80.311 Y39.685
X79.574 Y39.682
X78.098 Y39.68
X73.671 Y39.678
X72.933
X44.158
X43.421 Y39.682
X42.687 Y39.763
X42.018 Y40.074
X41.482 Y40.58
X41.093 Y41.207
X40.832 Y41.898
X40.667 Y42.617
X40.566 Y43.348
X40.507 Y44.083
X40.473 Y44.82
X40.454 Y45.558
X40.443 Y46.295
X40.436 Y47.033
X40.433 Y47.771
X40.43 Y49.247
X40.428 Y52.936
Y58.838
Y67.692
X40.429 Y68.43
X40.449 Y69.167
X40.65 Y69.877
X41.076 Y70.48
X41.655 Y70.936
X42.322 Y71.252
X43.031 Y71.458
X43.757 Y71.584
X44.491 Y71.66
X45.228 Y71.704
X45.965 Y71.73
X46.703 Y71.744
X47.441 Y71.752
X48.179 Y71.757
X48.916 Y71.759
X50.392 Y71.762
X56.294 Y71.763
X79.167
X83.594 Y71.762
X84.331 Y71.753
X85.053 Y71.601
X85.682 Y71.214
X86.167 Y70.659
X86.509 Y70.005
X86.733 Y69.302
X86.873 Y68.578
X86.957 Y67.845
X87.006 Y67.108
X87.035 Y66.371
X87.051 Y65.633
X87.06 Y64.896
X87.065 Y64.158
X87.068 Y63.42
X87.07 Y61.944
X87.072 Y56.78
Y44.237
X87.069 Y43.499
X87.007 Y42.764
X86.719 Y42.085
X86.23 Y41.532
X85.613 Y41.128
X84.928 Y40.855
X84.21 Y40.681
X83.48 Y40.575
X82.745 Y40.513
X82.008 Y40.476
X81.271 Y40.455
X80.533 Y40.444
X79.795 Y40.437
X79.057 Y40.433
X77.582 Y40.43
X73.893 Y40.428
X73.155
X45.118
X44.38 Y40.43
X43.643 Y40.466
X42.948 Y40.713
X42.37 Y41.171
X41.939 Y41.771
X41.645 Y42.447
X41.456 Y43.161
X41.34 Y43.889
X41.271 Y44.624
X41.231 Y45.361
X41.208 Y46.098
X41.195 Y46.836
X41.188 Y47.573
X41.184 Y48.311
X41.181 Y49.049
X41.179 Y51.262
X41.178 Y60.116
X41.179 Y67.494
X41.185 Y68.232
X41.326 Y68.956
X41.702 Y69.591
X42.25 Y70.085
X42.9 Y70.435
X43.601 Y70.665
X44.325 Y70.808
X45.057 Y70.894
X45.793 Y70.945
X46.531 Y70.974
X47.268 Y70.991
X48.006 Y71
X48.744 Y71.006
X49.482 Y71.009
X50.957 Y71.011
X56.122 Y71.013
X81.946
X82.683
X83.421 Y71.009
X84.152 Y70.906
X84.806 Y70.565
X85.325 Y70.04
X85.696 Y69.403
X85.943 Y68.708
X86.098 Y67.986
X86.192 Y67.255
X86.248 Y66.519
X86.279 Y65.782
X86.298 Y65.044
X86.308 Y64.306
X86.314 Y63.569
X86.317 Y62.831
X86.32 Y61.355
X86.322 Y56.928
Y45.123
X86.321 Y44.385
X86.284 Y43.648
X86.039 Y42.952
X85.582 Y42.373
X84.984 Y41.941
X84.308 Y41.646
X83.595 Y41.457
X82.866 Y41.341
X82.131 Y41.272
X81.395 Y41.232
X80.657 Y41.209
X79.92 Y41.195
X79.182 Y41.188
X78.444 Y41.184
X77.706 Y41.181
X75.493 Y41.179
X67.377 Y41.178
X45.242 Y41.179
X44.505 Y41.199
X43.798 Y41.41
X43.198 Y41.84
X42.745 Y42.422
X42.431 Y43.09
X42.229 Y43.799
X42.104 Y44.527
X42.03 Y45.261
X41.986 Y45.997
X41.961 Y46.735
X41.947 Y47.472
X41.939 Y48.21
X41.934 Y48.948
X41.932 Y49.686
X41.929 Y51.161
X41.928 Y57.064
Y66.655
X41.931 Y67.393
X42.046 Y68.122
X42.395 Y68.772
X42.925 Y69.285
X43.566 Y69.651
X44.263 Y69.893
X44.985 Y70.045
X45.717 Y70.137
X46.453 Y70.19
X47.19 Y70.222
X47.928 Y70.239
X48.665 Y70.249
X49.403 Y70.255
X50.141 Y70.258
X51.617 Y70.261
X56.044 Y70.263
X81.867
X82.605 Y70.261
X83.338 Y70.176
X84.002 Y69.856
X84.535 Y69.346
X84.92 Y68.716
X85.177 Y68.024
X85.338 Y67.304
X85.436 Y66.573
X85.494 Y65.838
X85.527 Y65.1
X85.547 Y64.363
X85.557 Y63.625
X85.564 Y62.887
X85.567 Y62.15
X85.57 Y60.674
X85.572 Y56.985
X85.571 Y45.18
X85.54 Y44.443
X85.31 Y43.742
X84.866 Y43.153
X84.275 Y42.711
X83.602 Y42.409
X82.89 Y42.214
X82.162 Y42.095
X81.427 Y42.024
X80.691 Y41.983
X79.953 Y41.959
X79.216 Y41.946
X78.478 Y41.938
X77.74 Y41.934
X77.002 Y41.932
X75.527 Y41.929
X68.886 Y41.928
X55.606
X46.014 Y41.929
X45.276 Y41.948
X44.567 Y42.151
X43.962 Y42.573
X43.503 Y43.151
X43.186 Y43.817
X42.982 Y44.526
X42.856 Y45.253
X42.78 Y45.987
X42.737 Y46.724
X42.711 Y47.461
X42.697 Y48.199
X42.689 Y48.937
X42.684 Y49.674
X42.682 Y50.412
X42.679 Y51.888
X42.678 Y57.79
Y65.906
X42.68 Y66.644
X42.796 Y67.373
X43.143 Y68.023
X43.673 Y68.537
X44.314 Y68.903
X45.01 Y69.146
X45.733 Y69.297
X46.465 Y69.388
X47.201 Y69.441
X47.938 Y69.472
X48.675 Y69.49
X49.413 Y69.5
X50.151 Y69.505
X50.889 Y69.508
X52.364 Y69.511
X55.316 Y69.512
X81.139 Y69.513
X81.877 Y69.512
X82.609 Y69.42
X83.272 Y69.095
X83.801 Y68.581
X84.181 Y67.949
X84.435 Y67.256
X84.594 Y66.535
X84.69 Y65.804
X84.746 Y65.068
X84.779 Y64.331
X84.797 Y63.593
X84.808 Y62.856
X84.814 Y62.118
X84.817 Y61.38
X84.82 Y59.904
X84.822 Y56.215
Y47.362
X84.821 Y45.886
X84.783 Y45.149
X84.541 Y44.452
X84.087 Y43.87
X83.489 Y43.438
X82.813 Y43.143
X82.1 Y42.954
X81.371 Y42.839
X80.636 Y42.77
X79.899 Y42.731
X79.162 Y42.708
X78.424 Y42.695
X77.686 Y42.688
X76.949 Y42.684
X76.211 Y42.681
X73.997 Y42.679
X46.698 Y42.678
X45.961 Y42.708
X45.257 Y42.929
X44.664 Y43.367
X44.219 Y43.956
X43.914 Y44.628
X43.717 Y45.339
X43.596 Y46.067
X43.525 Y46.801
X43.483 Y47.538
X43.459 Y48.275
X43.446 Y49.013
X43.438 Y49.751
X43.434 Y50.489
X43.432 Y51.226
X43.429 Y52.702
X43.428 Y59.342
Y65.245
X43.435 Y65.983
X43.577 Y66.707
X43.947 Y67.345
X44.494 Y67.84
X45.144 Y68.189
X45.846 Y68.418
X46.57 Y68.561
X47.302 Y68.647
X48.039 Y68.697
X48.776 Y68.725
X49.513 Y68.741
X50.251 Y68.751
X50.989 Y68.756
X51.727 Y68.759
X53.202 Y68.761
X58.367 Y68.763
X76.075
X80.502
X81.239 Y68.758
X81.966 Y68.632
X82.613 Y68.278
X83.119 Y67.74
X83.478 Y67.095
X83.714 Y66.396
X83.862 Y65.674
X83.951 Y64.941
X84.003 Y64.205
X84.033 Y63.468
X84.05 Y62.73
X84.059 Y61.993
X84.065 Y61.255
X84.068 Y60.517
X84.07 Y59.041
X84.072 Y54.614
Y47.236
X84.07 Y46.498
X84.011 Y45.763
X83.727 Y45.082
X83.239 Y44.529
X82.622 Y44.125
X81.936 Y43.852
X81.219 Y43.678
X80.489 Y43.573
X79.754 Y43.511
X79.017 Y43.475
X78.279 Y43.455
X77.541 Y43.443
X76.804 Y43.437
X76.066 Y43.433
X74.59 Y43.43
X70.901 Y43.428
X64.261
X48.029
X47.291 Y43.429
X46.555 Y43.481
X45.868 Y43.751
X45.307 Y44.229
X44.894 Y44.841
X44.615 Y45.524
X44.436 Y46.24
X44.328 Y46.969
X44.264 Y47.704
X44.227 Y48.441
X44.206 Y49.179
X44.194 Y49.916
X44.187 Y50.654
X44.183 Y51.392
X44.18 Y52.868
X44.178 Y56.557
X44.179 Y64.673
X44.2 Y65.41
X44.396 Y66.121
X44.818 Y66.727
X45.396 Y67.186
X46.062 Y67.503
X46.77 Y67.709
X47.497 Y67.836
X48.231 Y67.911
X48.968 Y67.955
X49.705 Y67.98
X50.443 Y67.994
X51.181 Y68.002
X51.918 Y68.007
X52.656 Y68.009
X54.132 Y68.012
X60.034 Y68.013
X79.955 Y68.012
X80.693 Y67.993
X81.407 Y67.806
X82.017 Y67.391
X82.481 Y66.817
X82.803 Y66.154
X83.012 Y65.446
X83.141 Y64.72
X83.218 Y63.986
X83.263 Y63.249
X83.288 Y62.512
X83.303 Y61.774
X83.311 Y61.037
X83.316 Y60.299
X83.318 Y59.561
X83.321 Y58.085
X83.322 Y52.183
Y47.756
X83.314 Y47.018
X83.193 Y46.29
X82.838 Y45.643
X82.302 Y45.137
X81.658 Y44.777
X80.959 Y44.539
X80.237 Y44.39
X79.505 Y44.3
X78.769 Y44.248
X78.031 Y44.218
X77.294 Y44.201
X76.556 Y44.191
X75.818 Y44.185
X75.08 Y44.182
X73.605 Y44.18
X69.178 Y44.178
X68.127
X68.035 Y44.173
X67.944 Y44.158
X67.854 Y44.133
X67.373 Y44.074
X67.352 Y44.076
X66.615 Y44.121
X65.878 Y44.153
X65.141 Y44.167
X64.403 Y44.173
X63.665 Y44.176
X62.189 Y44.178
X48.171 Y44.179
X47.434 Y44.207
X46.733 Y44.438
X46.146 Y44.885
X45.706 Y45.478
X45.405 Y46.152
X45.212 Y46.864
X45.093 Y47.592
X45.023 Y48.326
X44.982 Y49.063
X44.959 Y49.8
X44.946 Y50.538
X44.938 Y51.276
X44.934 Y52.014
X44.931 Y52.751
X44.929 Y54.227
X44.928 Y60.867
Y63.819
X44.937 Y64.556
X45.102 Y65.275
X45.497 Y65.899
X46.057 Y66.38
X46.713 Y66.716
X47.418 Y66.935
X48.143 Y67.071
X48.876 Y67.152
X49.613 Y67.2
X50.35 Y67.227
X51.087 Y67.243
X51.825 Y67.251
X52.563 Y67.256
X53.301 Y67.259
X54.776 Y67.261
X59.941 Y67.263
X79.124
X79.862 Y67.255
X80.581 Y67.09
X81.206 Y66.697
X81.687 Y66.137
X82.024 Y65.481
X82.244 Y64.777
X82.38 Y64.052
X82.461 Y63.318
X82.509 Y62.582
X82.536 Y61.845
X82.552 Y61.107
X82.56 Y60.369
X82.565 Y59.632
X82.568 Y58.894
X82.57 Y57.418
X82.572 Y52.253
Y48.564
X82.569 Y47.827
X82.465 Y47.096
X82.125 Y46.441
X81.601 Y45.921
X80.964 Y45.549
X80.269 Y45.303
X79.547 Y45.149
X78.815 Y45.056
X78.079 Y45.001
X77.342 Y44.97
X76.605 Y44.952
X75.867 Y44.941
X75.129 Y44.936
X74.391 Y44.933
X72.916 Y44.93
X69.695 Y44.928
X69.445 Y44.899
X69.208 Y44.813
X68.997 Y44.675
X68.875 Y44.573
X68.86 Y44.563
X68.525 Y44.391
X68.357 Y44.318
X67.854 Y44.133
G3 X67.648 Y43.904 I0.103 J-0.3
G1 X67.575 Y43.59
X67.567 Y43.52
X67.574 Y43.45
G3 X68.194 Y43.587 I0.31 J0.068 F1500
X68.076 Y43.772 I-0.31 J-0.068
G1 X68.069 Y43.777
G3 X67.352 Y44.076 I-0.949 J-1.267 F450
G1 X67.017 Y44.113
X66.849 Y44.136
X66.347 Y44.272
X66.012 Y44.382
X65.844 Y44.446
X65.816 Y44.46
X65.679 Y44.52
X65.515 Y44.578
X65.309 Y44.638
X65.038 Y44.702
X64.664 Y44.768
X64.099 Y44.838
X63.362 Y44.888
X62.625 Y44.91
X61.887 Y44.92
X61.149 Y44.925
X60.412 Y44.927
X58.198 Y44.928
X49.344
X48.607 Y44.933
X47.875 Y45.03
X47.215 Y45.359
X46.691 Y45.878
X46.314 Y46.513
X46.063 Y47.207
X45.905 Y47.927
X45.809 Y48.659
X45.753 Y49.395
X45.721 Y50.132
X45.702 Y50.869
X45.692 Y51.607
X45.686 Y52.345
X45.683 Y53.083
X45.68 Y54.558
X45.678 Y58.985
Y62.674
X45.68 Y63.412
X45.734 Y64.148
X46.009 Y64.832
X46.491 Y65.391
X47.105 Y65.801
X47.788 Y66.078
X48.505 Y66.255
X49.235 Y66.363
X49.97 Y66.427
X50.707 Y66.464
X51.444 Y66.485
X52.182 Y66.497
X52.92 Y66.504
X53.657 Y66.508
X55.133 Y66.511
X57.346 Y66.512
X78.005 Y66.513
X78.743 Y66.511
X79.479 Y66.452
X80.16 Y66.169
X80.714 Y65.682
X81.12 Y65.066
X81.394 Y64.381
X81.569 Y63.664
X81.675 Y62.934
X81.738 Y62.199
X81.774 Y61.462
X81.795 Y60.724
X81.806 Y59.986
X81.813 Y59.249
X81.817 Y58.511
X81.82 Y57.035
X81.822 Y53.346
X81.821 Y48.919
X81.793 Y48.182
X81.563 Y47.481
X81.114 Y46.895
X80.521 Y46.457
X79.847 Y46.157
X79.135 Y45.963
X78.407 Y45.844
X77.672 Y45.774
X76.936 Y45.733
X76.198 Y45.709
X75.46 Y45.696
X74.723 Y45.688
X73.985 Y45.684
X73.247 Y45.681
X71.771 Y45.679
X70.46
X70.411 Y45.676
X70.151 Y45.63
X69.91 Y45.522
X69.702 Y45.36
X69.458 Y45.115
X69.362 Y45.018
X69.299 Y44.947
X69.195 Y44.84
X68.997 Y44.675
G3 X68.884 Y44.447 I0.204 J-0.243
G2 X68.626 Y44.151 I-0.317 J0.016
G1 X68.528 Y44.132
X66.719 Y43.787 F1500
G2 X66.393 Y43.927 I-0.06 J0.312
G1 X66.388 Y43.934
G3 X65.816 Y44.46 I-1.325 J-0.865 F450
G1 X65.677 Y44.529
X65.342 Y44.699
X65.174 Y44.793
X65.006 Y44.891
X64.916 Y44.947
X64.839 Y44.997
X64.711 Y45.074
X64.578 Y45.144
X64.432 Y45.209
X64.269 Y45.271
X64.064 Y45.337
X63.794 Y45.407
X63.453 Y45.477
X62.961 Y45.55
X62.226 Y45.618
X61.489 Y45.65
X60.751 Y45.665
X60.013 Y45.672
X59.276 Y45.675
X57.8 Y45.678
X50.422
X49.684 Y45.679
X48.947 Y45.707
X48.244 Y45.933
X47.656 Y46.379
X47.216 Y46.971
X46.913 Y47.643
X46.717 Y48.355
X46.597 Y49.083
X46.525 Y49.817
X46.484 Y50.554
X46.46 Y51.291
X46.446 Y52.029
X46.438 Y52.766
X46.434 Y53.504
X46.432 Y54.242
X46.429 Y55.718
X46.428 Y61.62
X46.429 Y62.358
X46.443 Y63.096
X46.618 Y63.812
X47.025 Y64.428
X47.593 Y64.899
X48.254 Y65.227
X48.96 Y65.442
X49.686 Y65.575
X50.419 Y65.654
X51.155 Y65.701
X51.893 Y65.728
X52.63 Y65.743
X53.368 Y65.751
X54.106 Y65.756
X54.844 Y65.759
X56.319 Y65.762
X61.484 Y65.763
X77.716 Y65.762
X78.454 Y65.745
X79.166 Y65.552
X79.772 Y65.133
X80.233 Y64.556
X80.554 Y63.892
X80.762 Y63.184
X80.89 Y62.457
X80.967 Y61.724
X81.012 Y60.987
X81.038 Y60.25
X81.053 Y59.512
X81.061 Y58.774
X81.066 Y58.036
X81.068 Y57.299
X81.071 Y55.823
X81.072 Y50.658
X81.071 Y49.921
X81.064 Y49.183
X80.917 Y48.46
X80.534 Y47.829
X79.982 Y47.34
X79.329 Y46.996
X78.627 Y46.77
X77.903 Y46.629
X77.17 Y46.544
X76.433 Y46.494
X75.696 Y46.466
X74.959 Y46.45
X74.221 Y46.44
X73.483 Y46.435
X72.745 Y46.432
X71.27 Y46.43
X71.214 Y46.427
X70.957 Y46.382
X70.718 Y46.278
X70.51 Y46.12
X70.367 Y45.983
X69.966 Y45.617
X69.792 Y45.45
X69.702 Y45.36
G3 X69.982 Y44.829 I0.232 J-0.217
G1 X70.052 Y44.84 Z-1.491
X70.118 Y44.85 Z-1.467
X70.178 Y44.859 Z-1.43
X70.227 Y44.867 Z-1.379
X70.265 Y44.872 Z-1.319
X70.288 Y44.876 Z-1.252
X70.296 Y44.877 Z-1.181
Z2
X65.475 Y44.104
Z-0.864
Z-1.181
X65.471 Y44.111 Z-1.252
X65.461 Y44.133 Z-1.319
X65.445 Y44.167 Z-1.379
X65.424 Y44.212 Z-1.43
X65.398 Y44.267 Z-1.467
X65.369 Y44.327 Z-1.491
X65.339 Y44.391 Z-1.499
G3 X64.839 Y44.997 I-1.432 J-0.674
G1 X64.665 Y45.115
X64.336 Y45.345
X64.191 Y45.45
X64.001 Y45.605
X63.881 Y45.695
X63.754 Y45.774
X63.621 Y45.845
X63.465 Y45.915
X63.277 Y45.989
X63.068 Y46.058
X62.79 Y46.133
X62.44 Y46.207
X61.948 Y46.284
X61.214 Y46.358
X60.477 Y46.394
X59.739 Y46.411
X59.002 Y46.42
X58.264 Y46.424
X57.526 Y46.426
X55.312 Y46.428
X50.886
X50.148 Y46.432
X49.415 Y46.519
X48.749 Y46.837
X48.217 Y47.348
X47.833 Y47.978
X47.576 Y48.67
X47.413 Y49.389
X47.314 Y50.121
X47.256 Y50.856
X47.223 Y51.593
X47.203 Y52.331
X47.192 Y53.068
X47.186 Y53.806
X47.183 Y54.544
X47.18 Y56.02
X47.178 Y59.709
Y61.184
X47.181 Y61.922
X47.237 Y62.658
X47.517 Y63.34
X48.002 Y63.896
X48.617 Y64.304
X49.301 Y64.58
X50.018 Y64.756
X50.748 Y64.863
X51.483 Y64.927
X52.22 Y64.964
X52.957 Y64.985
X53.695 Y64.997
X54.433 Y65.004
X55.17 Y65.008
X56.646 Y65.011
X60.335 Y65.013
X64.762
X76.567
X77.305 Y65.01
X78.039 Y64.935
X78.711 Y64.632
X79.253 Y64.13
X79.646 Y63.506
X79.91 Y62.817
X80.078 Y62.099
X80.18 Y61.368
X80.241 Y60.633
X80.276 Y59.896
X80.296 Y59.158
X80.307 Y58.42
X80.313 Y57.683
X80.317 Y56.945
X80.32 Y55.469
X80.322 Y51.78
Y51.042
X80.32 Y50.304
X80.272 Y49.568
X80.003 Y48.881
X79.526 Y48.318
X78.916 Y47.904
X78.234 Y47.622
X77.518 Y47.442
X76.789 Y47.332
X76.054 Y47.266
X75.317 Y47.229
X74.579 Y47.207
X73.842 Y47.194
X73.104 Y47.187
X72.366 Y47.183
X71.965 Y47.177
X71.893 Y47.172
X71.638 Y47.123
X71.401 Y47.015
X71.197 Y46.853
X70.969 Y46.623
X70.87 Y46.522
X70.51 Y46.12
Z2
X64.552 Y44.658
Z-0.864
Z-1.181
X64.549 Y44.665 Z-1.252
X64.541 Y44.687 Z-1.319
X64.528 Y44.723 Z-1.379
X64.511 Y44.77 Z-1.43
X64.49 Y44.827 Z-1.467
X64.468 Y44.89 Z-1.491
X64.444 Y44.956 Z-1.499
G3 X64.001 Y45.605 I-1.488 J-0.539
G1 X63.782 Y45.785
X63.666 Y45.883
X63.581 Y45.969
X63.545 Y46.019
X63.453 Y46.138
X63.348 Y46.245
X63.232 Y46.34
X63.108 Y46.424
X62.978 Y46.499
X62.844 Y46.568
X62.676 Y46.642
X62.457 Y46.725
X62.214 Y46.803
X61.911 Y46.881
X61.513 Y46.962
X60.963 Y47.042
X60.228 Y47.11
X59.491 Y47.143
X58.753 Y47.161
X58.015 Y47.169
X57.278 Y47.174
X56.54 Y47.176
X54.326 Y47.178
X51.375 Y47.179
X50.637 Y47.194
X49.918 Y47.357
X49.295 Y47.752
X48.816 Y48.313
X48.479 Y48.97
X48.259 Y49.674
X48.122 Y50.399
X48.04 Y51.132
X47.992 Y51.869
X47.964 Y52.606
X47.949 Y53.343
X47.94 Y54.081
X47.935 Y54.819
X47.932 Y55.557
X47.93 Y57.032
X47.929 Y60.722
X47.938 Y61.459
X48.072 Y62.185
X48.44 Y62.824
X48.984 Y63.322
X49.632 Y63.676
X50.332 Y63.909
X51.055 Y64.055
X51.788 Y64.142
X52.524 Y64.194
X53.261 Y64.224
X53.999 Y64.241
X54.737 Y64.25
X55.474 Y64.256
X56.212 Y64.259
X57.688 Y64.261
X62.115 Y64.263
X68.017
X76.133 Y64.262
X76.871 Y64.247
X77.59 Y64.082
X78.211 Y63.684
X78.688 Y63.121
X79.023 Y62.464
X79.242 Y61.759
X79.378 Y61.034
X79.46 Y60.301
X79.508 Y59.565
X79.536 Y58.827
X79.551 Y58.09
X79.56 Y57.352
X79.565 Y56.614
X79.568 Y55.876
X79.57 Y54.401
X79.571 Y51.449
X79.562 Y50.712
X79.423 Y49.987
X79.048 Y49.351
X78.5 Y48.857
X77.85 Y48.508
X77.149 Y48.278
X76.426 Y48.134
X75.693 Y48.047
X74.957 Y47.996
X74.22 Y47.967
X73.482 Y47.95
X72.744 Y47.939
X72.698 Y47.936
X72.476 Y47.898
X72.267 Y47.814
X72.08 Y47.69
X72.043 Y47.659
X71.636 Y47.294
X71.54 Y47.2
X71.197 Y46.853
G3 X71.479 Y46.324 I0.233 J-0.215
G1 X71.549 Y46.335 Z-1.491
X71.615 Y46.345 Z-1.467
X71.675 Y46.355 Z-1.43
X71.725 Y46.363 Z-1.379
X71.762 Y46.369 Z-1.319
X71.785 Y46.372 Z-1.252
X71.793 Y46.374 Z-1.181
Z2
X63.822 Y44.959
Z-0.864
Z-1.181
Y44.967 Z-1.252
X63.82 Y44.99 Z-1.319
X63.817 Y45.028 Z-1.379
X63.813 Y45.078 Z-1.43
X63.809 Y45.138 Z-1.467
X63.803 Y45.205 Z-1.491
X63.798 Y45.276 Z-1.499
G3 X63.545 Y46.019 I-1.578 J-0.121
G1 X63.225 Y46.475
X63.214 Y46.495
X63.197 Y46.535
X63.132 Y46.67
X63.036 Y46.786
X62.929 Y46.89
X62.813 Y46.985
X62.69 Y47.071
X62.555 Y47.153
X62.412 Y47.23
X62.229 Y47.316
X62.016 Y47.402
X61.769 Y47.487
X61.436 Y47.582
X61.071 Y47.664
X60.559 Y47.751
X59.826 Y47.834
X59.089 Y47.878
X58.352 Y47.902
X57.614 Y47.914
X56.876 Y47.921
X56.138 Y47.925
X54.663 Y47.927
X52.449 Y47.928
X51.711 Y47.932
X50.977 Y48.005
X50.303 Y48.304
X49.759 Y48.802
X49.362 Y49.424
X49.095 Y50.112
X48.925 Y50.83
X48.822 Y51.561
X48.76 Y52.296
X48.725 Y53.033
X48.705 Y53.77
X48.693 Y54.508
X48.687 Y55.246
X48.683 Y55.984
X48.68 Y57.459
X48.679 Y59.673
X48.681 Y60.411
X48.737 Y61.146
X49.015 Y61.83
X49.498 Y62.388
X50.111 Y62.798
X50.795 Y63.076
X51.511 Y63.253
X52.241 Y63.362
X52.976 Y63.426
X53.713 Y63.463
X54.45 Y63.485
X55.188 Y63.497
X55.926 Y63.504
X56.664 Y63.508
X58.139 Y63.511
X61.828 Y63.513
X71.42
X75.109
X75.847 Y63.509
X76.579 Y63.422
X77.245 Y63.104
X77.778 Y62.593
X78.163 Y61.964
X78.422 Y61.273
X78.585 Y60.554
X78.684 Y59.823
X78.743 Y59.087
X78.777 Y58.35
X78.796 Y57.612
X78.807 Y56.875
X78.814 Y56.137
X78.817 Y55.399
X78.82 Y53.923
X78.821 Y52.448
X78.819 Y51.71
X78.746 Y50.976
X78.446 Y50.302
X77.948 Y49.758
X77.325 Y49.361
X76.637 Y49.094
X75.919 Y48.925
X75.189 Y48.822
X74.454 Y48.761
X73.672 Y48.722
X73.449 Y48.686
X73.238 Y48.604
X73.049 Y48.48
X72.21 Y47.797
X72.08 Y47.69
G3 X72.308 Y47.135 I0.21 J-0.238
G1 X72.379 Y47.139 Z-1.491
X72.446 Y47.143 Z-1.467
X72.506 Y47.146 Z-1.43
X72.556 Y47.149 Z-1.379
X72.594 Y47.151 Z-1.319
X72.617 Y47.153 Z-1.252
X72.625 Z-1.181
Z2
X63.241 Y45.44
Z-0.864
Z-1.181
X63.242 Y45.448 Z-1.252
X63.246 Y45.471 Z-1.319
X63.251 Y45.508 Z-1.379
X63.258 Y45.558 Z-1.43
X63.266 Y45.618 Z-1.467
X63.275 Y45.684 Z-1.491
X63.285 Y45.754 Z-1.499
G3 X63.197 Y46.535 I-1.567 J0.218
G1 X63.018 Y46.959
X62.996 Y47.018
X62.942 Y47.158
X62.862 Y47.284
X62.766 Y47.4
X62.66 Y47.506
X62.546 Y47.604
X62.426 Y47.694
X62.298 Y47.778
X62.142 Y47.87
X61.972 Y47.957
X61.75 Y48.056
X61.518 Y48.145
X61.208 Y48.245
X60.851 Y48.339
X60.39 Y48.434
X59.806 Y48.522
X59.071 Y48.592
X58.334 Y48.631
X57.597 Y48.652
X56.859 Y48.664
X56.121 Y48.671
X55.384 Y48.674
X53.908 Y48.677
X53.17 Y48.678
X52.432 Y48.68
X51.699 Y48.757
X51.029 Y49.066
X50.488 Y49.569
X50.097 Y50.194
X49.834 Y50.883
X49.667 Y51.602
X49.567 Y52.333
X49.508 Y53.069
X49.474 Y53.806
X49.454 Y54.543
X49.443 Y55.281
X49.437 Y56.019
X49.433 Y56.756
X49.43 Y58.232
X49.429 Y58.97
X49.43 Y59.708
X49.495 Y60.443
X49.788 Y61.12
X50.279 Y61.67
X50.898 Y62.072
X51.585 Y62.342
X52.302 Y62.514
X53.032 Y62.619
X53.768 Y62.68
X54.505 Y62.716
X55.242 Y62.736
X55.98 Y62.748
X56.718 Y62.754
X57.455 Y62.758
X58.931 Y62.761
X62.62 Y62.763
X74.425
X75.163 Y62.759
X75.893 Y62.653
X76.55 Y62.317
X77.071 Y61.794
X77.444 Y61.158
X77.692 Y60.463
X77.848 Y59.742
X77.943 Y59.01
X77.998 Y58.274
X78.03 Y57.537
X78.048 Y56.8
X78.058 Y56.062
X78.064 Y55.324
X78.067 Y54.586
X78.07 Y53.111
X78.068 Y52.373
X77.973 Y51.641
X77.648 Y50.979
X77.132 Y50.451
X76.5 Y50.072
X75.807 Y49.818
X75.087 Y49.658
X74.833 Y49.624
X74.643 Y49.581
X74.463 Y49.505
X74.301 Y49.399
X74.221 Y49.335
X73.886 Y49.102
X73.55 Y48.875
X73.446 Y48.803
X73.049 Y48.48
Z2
X62.95 Y45.923
Z-0.864
Z-1.181
X62.952 Y45.931 Z-1.252
X62.957 Y45.954 Z-1.319
X62.966 Y45.991 Z-1.379
X62.977 Y46.04 Z-1.43
X62.99 Y46.099 Z-1.467
X63.004 Y46.164 Z-1.491
X63.02 Y46.233 Z-1.499
G3 X62.996 Y47.018 I-1.544 J0.346
G1 X62.84 Y47.497
X62.837 Y47.514
X62.812 Y47.662
X62.743 Y47.795
X62.659 Y47.919
X62.562 Y48.034
X62.456 Y48.14
X62.344 Y48.239
X62.223 Y48.332
X62.089 Y48.425
X61.926 Y48.524
X61.746 Y48.621
X61.523 Y48.726
X61.278 Y48.826
X60.967 Y48.933
X60.621 Y49.032
X60.169 Y49.134
X59.595 Y49.232
X58.862 Y49.317
X58.126 Y49.365
X57.389 Y49.393
X56.651 Y49.408
X55.913 Y49.417
X55.175 Y49.422
X54.438 Y49.425
X53.7 Y49.427
X52.962 Y49.437
X52.238 Y49.579
X51.601 Y49.95
X51.106 Y50.498
X50.756 Y51.147
X50.526 Y51.848
X50.382 Y52.572
X50.296 Y53.305
X50.245 Y54.041
X50.216 Y54.778
X50.2 Y55.516
X50.19 Y56.253
X50.185 Y56.991
X50.182 Y57.729
X50.181 Y58.467
X50.188 Y59.205
X50.322 Y59.93
X50.687 Y60.572
X51.23 Y61.071
X51.877 Y61.425
X52.577 Y61.659
X53.3 Y61.805
X54.032 Y61.893
X54.768 Y61.944
X55.506 Y61.974
X56.243 Y61.991
X56.981 Y62
X57.719 Y62.006
X58.457 Y62.009
X59.932 Y62.011
X65.097 Y62.013
X73.951 Y62.012
X74.688 Y61.992
X75.402 Y61.805
X76.012 Y61.39
X76.476 Y60.816
X76.799 Y60.153
X77.009 Y59.445
X77.139 Y58.719
X77.216 Y57.985
X77.262 Y57.249
X77.288 Y56.512
X77.302 Y55.774
X77.311 Y55.036
X77.316 Y54.298
X77.318 Y53.561
X77.301 Y52.823
X77.118 Y52.108
X76.706 Y51.496
X76.134 Y51.03
X75.844 Y50.888
X75.697 Y50.8
X75.565 Y50.691
X75.452 Y50.562
X75.39 Y50.479
X75.226 Y50.284
X74.964 Y49.976
X74.891 Y49.898
X74.388 Y49.468
X74.301 Y49.399
G3 X74.518 Y48.839 I0.206 J-0.242
G1 X74.589 Y48.842 Z-1.491
X74.656 Y48.845 Z-1.467
X74.716 Y48.847 Z-1.43
X74.766 Y48.849 Z-1.379
X74.804 Y48.85 Z-1.319
X74.827 Y48.851 Z-1.252
X74.835 Z-1.181
Z2
X62.551 Y46.456
Z-0.864
Z-1.181
X62.554 Y46.464 Z-1.252
X62.564 Y46.485 Z-1.319
X62.58 Y46.519 Z-1.379
X62.602 Y46.564 Z-1.43
X62.628 Y46.619 Z-1.467
X62.657 Y46.679 Z-1.491
X62.687 Y46.743 Z-1.499
G3 X62.837 Y47.514 I-1.43 J0.678
G1 X62.798 Y47.931
X62.776 Y48.079
X62.729 Y48.222
X62.663 Y48.356
X62.582 Y48.482
X62.489 Y48.601
X62.389 Y48.712
X62.28 Y48.815
X62.166 Y48.912
X62.029 Y49.016
X61.878 Y49.119
X61.699 Y49.226
X61.494 Y49.334
X61.255 Y49.444
X60.97 Y49.558
X60.644 Y49.667
X60.226 Y49.782
X59.761 Y49.884
X59.134 Y49.986
X58.4 Y50.065
X57.664 Y50.112
X56.927 Y50.14
X56.189 Y50.156
X55.451 Y50.166
X53.976 Y50.177
X53.241 Y50.247
X52.565 Y50.542
X52.017 Y51.036
X51.617 Y51.657
X51.348 Y52.343
X51.177 Y53.061
X51.073 Y53.792
X51.011 Y54.527
X50.975 Y55.264
X50.955 Y56.001
X50.943 Y56.739
X50.937 Y57.477
X50.936 Y58.215
X51.003 Y58.949
X51.297 Y59.626
X51.791 Y60.174
X52.411 Y60.574
X53.098 Y60.843
X53.816 Y61.015
X54.546 Y61.119
X55.281 Y61.18
X56.018 Y61.216
X56.756 Y61.236
X57.493 Y61.248
X58.231 Y61.254
X58.969 Y61.258
X60.445 Y61.261
X64.134 Y61.263
X72.988
X73.725 Y61.256
X74.453 Y61.137
X75.099 Y60.78
X75.606 Y60.244
X75.968 Y59.601
X76.207 Y58.903
X76.357 Y58.181
X76.447 Y57.449
X76.501 Y56.713
X76.531 Y55.975
X76.549 Y55.238
X76.559 Y54.5
X76.558 Y53.762
X76.437 Y53.035
X76.078 Y52.39
X75.991 Y52.204
X75.931 Y52.008
X75.897 Y51.806
X75.861 Y51.422
X75.859 Y51.412
X75.695 Y50.93
X75.675 Y50.898
X75.515 Y50.647
X75.452 Y50.562
Z2
X62.512 Y46.873
Z-0.864
Z-1.181
X62.515 Y46.88 Z-1.252
X62.525 Y46.901 Z-1.319
X62.541 Y46.935 Z-1.379
X62.563 Y46.981 Z-1.43
X62.589 Y47.035 Z-1.467
X62.617 Y47.096 Z-1.491
X62.648 Y47.16 Z-1.499
G3 X62.798 Y47.931 I-1.43 J0.678
G1 X62.795 Y47.965
X62.782 Y48.132
X62.761 Y48.468
X62.75 Y48.617
X62.706 Y48.761
X62.644 Y48.897
X62.569 Y49.027
X62.482 Y49.149
X62.386 Y49.265
X62.283 Y49.373
X62.174 Y49.476
X62.042 Y49.587
X61.897 Y49.695
X61.727 Y49.809
X61.529 Y49.926
X61.304 Y50.044
X61.029 Y50.169
X60.741 Y50.281
X60.36 Y50.407
X59.949 Y50.518
X59.42 Y50.631
X58.739 Y50.737
X58.005 Y50.812
X57.269 Y50.858
X56.532 Y50.886
X55.794 Y50.904
X55.056 Y50.914
X54.319 Y50.938
X53.605 Y51.125
X52.995 Y51.54
X52.53 Y52.113
X52.206 Y52.776
X51.995 Y53.483
X51.864 Y54.209
X51.785 Y54.943
X51.739 Y55.679
X51.713 Y56.416
X51.699 Y57.154
X51.709 Y57.892
X51.899 Y58.605
X52.318 Y59.212
X52.894 Y59.673
X53.559 Y59.994
X54.267 Y60.202
X54.993 Y60.331
X55.727 Y60.408
X56.463 Y60.453
X57.201 Y60.479
X57.938 Y60.493
X58.676 Y60.502
X59.414 Y60.507
X60.152 Y60.509
X61.627 Y60.512
X67.53 Y60.513
X71.37
X71.448 Y60.515
X71.526 Y60.524
X71.602 Y60.538
X71.875 Y60.586
X72.388 Y60.632
X72.88 Y60.575
X73.215 Y60.53
X73.404 Y60.488
X73.425 Y60.48
X73.9 Y60.278
X73.915 Y60.268
X74.232 Y60.035
X74.388 Y59.911
X74.439 Y59.868
X74.812 Y59.532
X74.891 Y59.46
X74.977 Y59.365
X75.235 Y59.03
X75.342 Y58.862
X75.443 Y58.694
X75.531 Y58.527
X75.786 Y58.024
X75.859 Y57.856
X75.974 Y57.521
X76.023 Y57.353
X76.135 Y56.892
X76.146 Y56.515
X76.15 Y56.347
X76.148 Y55.844
X76.14 Y55.341
X76.129 Y55.174
X76.083 Y54.671
X76.033 Y54.168
X76.008 Y53.665
X76.004 Y53.497
X76.005 Y53.162
X76.002 Y52.994
X75.979 Y52.659
X75.961 Y52.491
X75.897 Y51.806
G3 X76.451 Y51.576 I0.317 J-0.019
G1 X76.498 Y51.629 Z-1.491
X76.543 Y51.679 Z-1.467
X76.583 Y51.724 Z-1.43
X76.616 Y51.761 Z-1.379
X76.642 Y51.79 Z-1.319
X76.657 Y51.807 Z-1.252
X76.662 Y51.813 Z-1.181
Z2
X62.405 Y47.431
Z-0.864
Z-1.181
X62.409 Y47.438 Z-1.252
X62.42 Y47.459 Z-1.319
X62.439 Y47.492 Z-1.379
X62.463 Y47.536 Z-1.43
X62.493 Y47.588 Z-1.467
X62.525 Y47.647 Z-1.491
X62.56 Y47.708 Z-1.499
G3 X62.761 Y48.468 I-1.381 J0.773
G1 X62.757 Y48.635
X62.763 Y48.937
X62.758 Y49.086
X62.73 Y49.234
X62.682 Y49.376
X62.618 Y49.512
X62.542 Y49.641
X62.456 Y49.763
X62.361 Y49.88
X62.259 Y49.99
X62.14 Y50.105
X62.012 Y50.216
X61.856 Y50.337
X61.685 Y50.456
X61.481 Y50.581
X61.244 Y50.71
X60.987 Y50.832
X60.66 Y50.966
X60.313 Y51.086
X59.87 Y51.214
X59.335 Y51.337
X58.706 Y51.446
X57.973 Y51.533
X57.238 Y51.588
X56.501 Y51.623
X55.763 Y51.645
X55.026 Y51.679
X54.318 Y51.886
X53.714 Y52.31
X53.257 Y52.889
X52.939 Y53.555
X52.733 Y54.264
X52.607 Y54.99
X52.531 Y55.724
X52.487 Y56.461
X52.49 Y57.199
X52.695 Y57.907
X53.125 Y58.507
X53.709 Y58.958
X54.379 Y59.268
X55.089 Y59.468
X55.816 Y59.592
X56.55 Y59.665
X57.287 Y59.707
X58.024 Y59.731
X58.762 Y59.745
X59.5 Y59.753
X60.238 Y59.757
X60.975 Y59.759
X62.451 Y59.762
X69.091 Y59.763
X69.913
X70.173 Y59.794
X70.417 Y59.887
X70.633 Y60.035
X70.88 Y60.233
X70.891 Y60.24
X71.383 Y60.482
X71.394 Y60.486
X71.54 Y60.524
X71.602 Y60.538
G3 X71.649 Y61.136 I-0.08 J0.307
G1 X71.584 Y61.165 Z-1.491
X71.523 Y61.192 Z-1.467
X71.468 Y61.216 Z-1.43
X71.422 Y61.236 Z-1.379
X71.387 Y61.251 Z-1.319
X71.366 Y61.26 Z-1.252
X71.358 Y61.264 Z-1.181
Z2
X62.359 Y47.918
Z-0.864
Z-1.181
X62.363 Y47.925 Z-1.252
X62.376 Y47.944 Z-1.319
X62.396 Y47.977 Z-1.379
X62.422 Y48.019 Z-1.43
X62.454 Y48.07 Z-1.467
X62.489 Y48.127 Z-1.491
X62.527 Y48.187 Z-1.499
G3 X62.763 Y48.937 I-1.344 J0.835
G1 Y48.97
X62.774 Y49.138
X62.808 Y49.357
X62.824 Y49.506
X62.814 Y49.655
X62.782 Y49.802
X62.732 Y49.943
X62.669 Y50.079
X62.594 Y50.21
X62.51 Y50.334
X62.419 Y50.453
X62.315 Y50.57
X62.204 Y50.685
X62.069 Y50.809
X61.917 Y50.934
X61.741 Y51.063
X61.533 Y51.2
X61.313 Y51.328
X61.041 Y51.466
X60.731 Y51.604
X60.381 Y51.737
X59.943 Y51.877
X59.465 Y52.002
X58.871 Y52.123
X58.141 Y52.231
X57.406 Y52.302
X56.67 Y52.348
X55.933 Y52.385
X55.213 Y52.546
X54.584 Y52.932
X54.096 Y53.485
X53.75 Y54.137
X53.523 Y54.839
X53.381 Y55.563
X53.308 Y56.297
X53.376 Y56.66
X53.504 Y57.006
X53.87 Y57.646
X54.422 Y58.136
X55.077 Y58.476
X55.782 Y58.694
X56.507 Y58.828
X57.241 Y58.907
X57.977 Y58.953
X58.715 Y58.979
X59.452 Y58.994
X60.19 Y59.002
X60.928 Y59.007
X61.666 Y59.009
X63.141 Y59.012
X69.044 Y59.013
X69.175 Y59.018
X69.392 Y59.048
X69.597 Y59.12
X69.785 Y59.233
X69.946 Y59.38
X70.032 Y59.477
X70.086 Y59.532
X70.367 Y59.8
X70.633 Y60.035
G3 X70.386 Y60.582 I-0.218 J0.231
G1 X70.315 Y60.575 Z-1.491
X70.249 Y60.569 Z-1.467
X70.189 Y60.564 Z-1.43
X70.139 Y60.559 Z-1.379
X70.101 Y60.556 Z-1.319
X70.078 Y60.554 Z-1.252
X70.07 Y60.553 Z-1.181
Z2
X62.271 Y48.402
Z-0.864
Z-1.181
X62.276 Y48.408 Z-1.252
X62.291 Y48.426 Z-1.319
X62.315 Y48.455 Z-1.379
X62.347 Y48.494 Z-1.43
X62.385 Y48.54 Z-1.467
X62.428 Y48.592 Z-1.491
X62.473 Y48.646 Z-1.499
G3 X62.808 Y49.357 I-1.219 J1.009
G1 X62.853 Y49.641
X62.895 Y49.901
X62.912 Y50.05
X62.901 Y50.2
X62.869 Y50.346
X62.822 Y50.489
X62.762 Y50.626
X62.691 Y50.758
X62.61 Y50.885
X62.522 Y51.006
X62.424 Y51.126
X62.313 Y51.248
X62.177 Y51.381
X62.032 Y51.51
X61.856 Y51.648
X61.654 Y51.791
X61.435 Y51.928
X61.164 Y52.078
X60.867 Y52.222
X60.53 Y52.364
X60.114 Y52.513
X59.658 Y52.648
X59.106 Y52.78
X58.418 Y52.906
X57.686 Y52.999
X56.951 Y53.063
X56.221 Y53.17
X55.552 Y53.483
X55.012 Y53.985
X54.617 Y54.608
X54.353 Y55.297
X54.344 Y55.666
X54.406 Y56.03
X54.537 Y56.375
X54.923 Y57.003
X55.493 Y57.472
X56.16 Y57.788
X56.87 Y57.986
X57.598 Y58.105
X58.333 Y58.174
X59.07 Y58.213
X59.807 Y58.235
X60.545 Y58.247
X61.283 Y58.254
X62.021 Y58.258
X63.496 Y58.261
X67.185 Y58.263
X67.923
X68.393 Y58.265
X68.63 Y58.28
X68.732 Y58.292
X68.965 Y58.345
X69.18 Y58.447
X69.367 Y58.593
X69.518 Y58.777
X69.697 Y59.048
X69.799 Y59.197
X69.865 Y59.289
X69.946 Y59.38
Z2
X62.351 Y48.95
Z-0.864
Z-1.181
X62.356 Y48.956 Z-1.252
X62.371 Y48.974 Z-1.319
X62.395 Y49.003 Z-1.379
X62.428 Y49.041 Z-1.43
X62.466 Y49.088 Z-1.467
X62.51 Y49.139 Z-1.491
X62.555 Y49.193 Z-1.499
G3 X62.895 Y49.901 I-1.212 J1.018
G1 X62.935 Y50.144
X62.989 Y50.34
X63.024 Y50.486
X63.028 Y50.636
X63.01 Y50.785
X62.975 Y50.931
X62.926 Y51.073
X62.865 Y51.21
X62.794 Y51.342
X62.715 Y51.469
X62.628 Y51.592
X62.525 Y51.722
X62.412 Y51.85
X62.273 Y51.99
X62.117 Y52.131
X61.941 Y52.274
X61.731 Y52.427
X61.502 Y52.575
X61.234 Y52.728
X60.916 Y52.888
X60.575 Y53.037
X60.175 Y53.187
X59.676 Y53.342
X59.132 Y53.48
X58.455 Y53.614
X57.725 Y53.717
X56.998 Y53.843
X56.664 Y54.001
X56.356 Y54.204
X56.099 Y54.469
X55.938 Y54.8
X55.892 Y55.166
X55.953 Y55.53
X56.099 Y55.869
X56.523 Y56.473
X57.128 Y56.895
X57.816 Y57.162
X58.536 Y57.32
X59.269 Y57.408
X60.005 Y57.457
X60.743 Y57.483
X61.48 Y57.496
X62.218 Y57.504
X62.956 Y57.508
X64.431 Y57.511
X67.383 Y57.513
X67.833 Y57.52
X68.126 Y57.54
X68.25 Y57.556
X68.474 Y57.608
X68.682 Y57.707
X68.865 Y57.847
X69.014 Y58.023
X69.243 Y58.359
X69.362 Y58.538
X69.518 Y58.777
G3 X69.135 Y59.239 I-0.272 J0.164
G1 X69.069 Y59.214 Z-1.491
X69.006 Y59.19 Z-1.467
X68.95 Y59.169 Z-1.43
X68.903 Y59.151 Z-1.379
X68.867 Y59.138 Z-1.319
X68.845 Y59.13 Z-1.252
X68.838 Y59.127 Z-1.181
Z2
X62.336 Y49.46
Z-0.864
Z-1.181
X62.342 Y49.466 Z-1.252
X62.359 Y49.482 Z-1.319
X62.387 Y49.508 Z-1.379
X62.424 Y49.542 Z-1.43
X62.467 Y49.583 Z-1.467
X62.516 Y49.629 Z-1.491
X62.568 Y49.677 Z-1.499
G3 X62.989 Y50.34 I-1.083 J1.154
G1 X63.078 Y50.647
X63.125 Y50.781
X63.168 Y50.925
X63.184 Y51.074
X63.177 Y51.223
X63.153 Y51.371
X63.113 Y51.516
X63.062 Y51.657
X63 Y51.794
X62.929 Y51.926
X62.85 Y52.054
X62.757 Y52.187
X62.651 Y52.323
X62.529 Y52.462
X62.382 Y52.612
X62.223 Y52.759
X62.034 Y52.915
X61.812 Y53.078
X61.576 Y53.234
X61.299 Y53.395
X60.963 Y53.567
X60.606 Y53.725
X60.191 Y53.883
X59.682 Y54.047
X59.39 Y54.123
X59.21 Y54.165
X58.849 Y54.242
X58.759 Y54.26
G3 X58.47 Y53.734 I-0.053 J-0.313
G1 X58.517 Y53.692 F1500
X62.477 Y50.762
X62.64 Y50.641 F450
G3 X63.125 Y50.781 I0.189 J0.255
G1 X63.164 Y50.886
X63.296 Y51.242
X63.341 Y51.385
X63.364 Y51.533
Y51.683
X63.347 Y51.833
X63.315 Y51.979
X63.271 Y52.122
X63.216 Y52.262
X63.151 Y52.397
X63.079 Y52.529
X62.996 Y52.662
X62.893 Y52.807
X62.781 Y52.949
X62.648 Y53.101
X62.489 Y53.262
X62.319 Y53.417
X62.114 Y53.584
X61.875 Y53.759
X61.622 Y53.924
X61.324 Y54.095
X60.966 Y54.277
X60.875 Y54.317
X60.498 Y54.477
X60.325 Y54.54
X60.15 Y54.598
G3 X59.803 Y54.109 I-0.089 J-0.305
G1 X59.837 Y54.068 F1500
X62.664 Y51.252
X62.778 Y51.138 F450
G3 X63.296 Y51.242 I0.224 J0.225
G1 X63.499 Y51.789
X63.544 Y51.932
X63.569 Y52.08
X63.574 Y52.23
X63.561 Y52.38
X63.533 Y52.527
X63.494 Y52.672
X63.444 Y52.813
X63.384 Y52.951
X63.317 Y53.085
X63.242 Y53.215
X63.161 Y53.341
X63.073 Y53.463
X62.981 Y53.581
X62.884 Y53.695
X62.782 Y53.806
X62.677 Y53.913
X62.568 Y54.016
X62.456 Y54.115
X62.34 Y54.211
X62.222 Y54.303
X62.102 Y54.393
X61.978 Y54.478
X61.853 Y54.561
X61.715 Y54.683
X61.599 Y54.826
X61.509 Y54.987
X61.447 Y55.161
X61.416 Y55.343
X61.415 Y55.527
X61.446 Y55.709
X61.508 Y55.883
X61.598 Y56.044
X61.713 Y56.188
X61.852 Y56.31
X62.009 Y56.406
X62.351 Y56.544
X63.085 Y56.621
X63.822 Y56.659
X64.559 Y56.678
X65.297 Y56.687
X66.035 Y56.691
X66.516 Y56.693
X66.816 Y56.696
X66.966 Y56.699
X67.116 Y56.704
X67.266 Y56.71
X67.415 Y56.72
X67.565 Y56.732
X67.668 Y56.744
X67.882 Y56.79
X68.082 Y56.878
X68.26 Y57.003
X68.41 Y57.162
X68.525 Y57.312
X68.786 Y57.688
X69.014 Y58.023
G3 X68.64 Y58.491 I-0.268 J0.169
G1 X68.573 Y58.468 Z-1.491
X68.51 Y58.445 Z-1.467
X68.453 Y58.425 Z-1.43
X68.406 Y58.409 Z-1.379
X68.37 Y58.396 Z-1.319
X68.348 Y58.388 Z-1.252
X68.34 Y58.386 Z-1.181
Z2
X62.781 Y50.962
Z-0.864
Z-1.181
X62.787 Y50.967 Z-1.252
X62.805 Y50.981 Z-1.319
X62.835 Y51.005 Z-1.379
X62.874 Y51.037 Z-1.43
X62.921 Y51.074 Z-1.467
X62.973 Y51.116 Z-1.491
X63.028 Y51.161 Z-1.499
G3 X63.499 Y51.789 I-0.992 J1.233
G1 X63.698 Y52.323
X63.711 Y52.351
X63.765 Y52.491
X63.785 Y52.64
X63.786 Y52.79
X63.771 Y52.939
X63.743 Y53.087
X63.703 Y53.231
X63.653 Y53.372
X63.58 Y53.542
X63.527 Y53.719
X63.504 Y53.902
X63.512 Y54.086
X63.552 Y54.266
X63.691 Y54.608
X63.929 Y54.89
X64.498 Y55.359
X65.179 Y55.642
X65.901 Y55.797
X66.749 Y55.897
X66.885 Y55.922
X67.017 Y55.963
X67.142 Y56.021
Z2
X62.944 Y51.569
Z-0.864
Z-1.181
X62.95 Y51.573 Z-1.252
X62.969 Y51.587 Z-1.319
X63 Y51.609 Z-1.379
X63.041 Y51.638 Z-1.43
X63.09 Y51.673 Z-1.467
X63.145 Y51.712 Z-1.491
X63.203 Y51.752 Z-1.499
G3 X63.711 Y52.351 I-0.915 J1.291
G1 X63.773 Y52.491
X63.915 Y52.792
X63.972 Y52.931
X64.229 Y53.623
X64.484 Y53.934
X64.508 Y53.965
X64.532 Y53.997
X64.554 Y54.03
G3 X64.169 Y54.49 I-0.272 J0.163
G1 X64.117 Y54.465 F1500
X64.07 Y54.43
X64.031 Y54.388
X64 Y54.339
X63.35 Y53.084
X63.325 Y53.018
X63.315 Y52.948
X63.321 Y52.877
G3 X63.915 Y52.792 I0.312 J0.061 F450
G1 X64.247 Y53.497
X64.331 Y53.665
X64.504 Y53.952
X64.552 Y54.028
X64.861 Y54.503
X65.006 Y54.682
X65.159 Y54.838
X65.342 Y55.002
X66.101 Y55.509
X66.179 Y55.557
X66.347 Y55.644
X66.411 Y55.677
X66.849 Y55.873
X67.017 Y55.953
X67.184 Y56.044
X67.352 Y56.144
X67.519 Y56.266
X67.62 Y56.347
X68.022 Y56.709
X68.169 Y56.85
X68.19 Y56.875
X68.41 Y57.162
G3 X68.361 Y57.586 I-0.258 J0.185
G1 X68.312 Y57.611 Z-1.494
X68.265 Y57.634 Z-1.48
X68.221 Y57.657 Z-1.457
X68.184 Y57.661 Z-1.432
X68.152 Y57.664 Z-1.403
X68.114 Y57.659 Z-1.355
X68.086 Y57.655 Z-1.301
X68.069 Y57.653 Z-1.242
X68.063 Y57.652 Z-1.182
Z2
X75.947 Y48.084
Z-0.615
Z-0.933
X75.943 Y48.091 Z-1.003
X75.93 Y48.11 Z-1.07
X75.909 Y48.142 Z-1.13
X75.882 Y48.184 Z-1.181
X75.849 Y48.235 Z-1.219
X75.812 Y48.291 Z-1.242
