(03-topo-finish-1mm-ball)
(Machine)
(  vendor: Autodesk)
(  model: Sainsmart 3018pro)
(  description: 3018)
G90 G94
G17
G21
(When using Fusion 360 for Personal Use, the feedrate of)
(rapid moves is reduced to match the feedrate of cutting)
(moves, which can increase machining time. Unrestricted rapid)
(moves are available with a Fusion 360 Subscription.)

(1mm Ball Finish)
G54
M8
G0 Z2.5
G0 X123.401 Y-0.009
S5000 M3
G1 Z-15.763 F400
Z-17.291
G18 G3 X122.923 Z-17.79 I-0.5 K0
G1 X119.697 Z-17.935
X117.296 Z-18.038
X111.116 Z-17.878
X109.043 Z-17.968
X106.787 Z-18.226
X105.878 Z-18.31
X104.529 Z-18.484
X100.754 Z-19.243
X98.044 Z-19.868
X96.271 Z-20.013
X95.47 Z-19.962
X93.775 Z-19.908
X91.915 Z-19.926
X89.197 Z-19.807
X87.556 Z-19.758
X86.408 Z-19.801
X85.306 Z-19.848
X81.63 Z-19.773
X79.719 Z-19.759
X77.958 Z-19.654
X76.646 Z-19.656
X74.118 Z-19.82
X69.737 Z-19.772
X66.893 Z-19.77
X64.148 Z-19.854
X62.602 Z-19.765
X59.888 Z-19.979
X56.716 Z-20.081
X53.936 Z-20.241
X52.002 Z-20.393
X50.833 Z-20.308
X49.379 Z-20.251
X47.717 Z-20.409
X46.453 Z-20.431
X43.754 Z-20.306
X42.148 Z-20.415
X39.798 Z-20.757
X36.818 Z-21.171
X33.139 Z-21.137
X31.99 Z-21.138
X29.054 Z-21.41
X27.556 Z-21.561
X22.704 Z-22.303
X18.22 Z-22.586
X4.568 Z-22.618
X4.546 Z-22.613
X4.524 Z-22.608
X3.309
X3.277 Y-0.002
X3.251 Y0.019
X3.236 Y0.049
Y0.082
X3.251 Y0.113
X3.277 Y0.133
X3.309 Y0.141
X3.331 Z-22.613
X3.333 Z-22.614
X3.355 Z-22.619
X17.64 Z-22.587
X18.595 Z-22.578
X22.408 Z-22.342
X22.908 Z-22.286
X24.772 Z-22.001
X27.649 Z-21.561
X29.386 Z-21.387
X30.881 Z-21.248
X31.837 Z-21.155
X32.173 Z-21.127
X32.528 Z-21.126
X35.186 Z-21.151
X37.039 Z-21.157
X39.481 Z-20.818
X40.21 Z-20.699
X42.163 Z-20.41
X43.697 Z-20.306
X44.229 Z-20.31
X45.979 Z-20.388
X46.43 Z-20.424
X47.606 Z-20.406
X48.305 Z-20.344
X49.148 Z-20.253
X49.52 Z-20.229
X50.652 Z-20.272
X51.647 Z-20.351
X52.081 Z-20.388
X52.253 Z-20.366
X53.165 Z-20.29
X54.234 Z-20.194
X56.176 Z-20.08
X57.064 Z-20.048
X58.213 Z-20.04
X59.689 Z-19.997
X60.104 Z-19.949
X61.252 Z-19.854
X62.645 Z-19.752
X64.231 Z-19.843
X65.058 Z-19.825
X66.973 Z-19.748
X69.871 Z-19.753
X70.965 Z-19.776
X73.098 Z-19.807
X74.22 Z-19.804
X74.493 Z-19.789
X76.322 Z-19.663
X77.033 Z-19.625
X77.845 Z-19.626
X78.329 Z-19.67
X79.187 Z-19.726
X80.116 Z-19.744
X81.66 Z-19.755
X82.038 Z-19.771
X83.405 Z-19.799
X85.308 Z-19.841
X85.68 Z-19.815
X87.156 Z-19.749
X88.031 Z-19.748
X89.289 Z-19.784
X89.719 Z-19.821
X91.763 Z-19.915
X93.814 Z-19.896
X94.853 Z-19.926
X95.728 Z-19.962
X96.381 Z-20.015
X97.912 Z-19.891
X98.123 Z-19.859
X100.827 Z-19.232
X101.13 Z-19.164
X103.011 Z-18.787
X104.531 Z-18.476
X106.033 Z-18.282
X106.68 Z-18.223
X108.895 Z-17.966
X109.316 Z-17.927
X110.683 Z-17.867
X111.175
X114.566 Z-17.95
X117.41 Z-18.033
X120.754 Z-17.894
X121.958 Z-17.825
X124.139 Z-17.724
X124.159 Z-17.719
X124.181 Z-17.714
X124.653
X124.67 Y0.143
X124.687 Y0.148 Z-17.713
X124.701 Y0.157 Z-17.711
X124.713 Y0.169 Z-17.708
X124.722 Y0.183 Z-17.705
X124.728 Y0.199 Z-17.702
X124.73 Y0.216 Z-17.698
X124.728 Y0.232 Z-17.695
X124.722 Y0.248 Z-17.691
X124.713 Y0.263 Z-17.688
X124.701 Y0.274 Z-17.686
X124.687 Y0.283 Z-17.684
X124.67 Y0.289 Z-17.683
X124.653 Y0.291 Z-17.682
X124.631 Z-17.687
X124.611 Z-17.693
X122.324 Z-17.796
X120.245 Z-17.921
X117.62 Z-18.024
X117.248 Z-18.018
X114.186 Z-17.925
X111.232 Z-17.856
X110.357 Z-17.852
X109.537 Z-17.891
X108.9 Z-17.949
X106.578 Z-18.219
X106.147 Z-18.26
X104.532 Z-18.468
X103.441 Z-18.7
X101.455 Z-19.099
X100.837 Z-19.235
X99.911 Z-19.459
X98.134 Z-19.865
X97.817 Z-19.914
X96.623 Z-20.011
X96.404 Z-20.009
X95.516 Z-19.935
X93.889 Z-19.885
X91.582 Z-19.904
X89.856 Z-19.822
X89.061 Z-19.75
X88.404 Z-19.737
X86.982 Z-19.736
X86.053 Z-19.778
X85.246 Z-19.836
X85.098 Z-19.821
X82.308 Z-19.762
X81.821 Z-19.735
X80.725 Z-19.734
X78.756 Z-19.699
X77.597 Z-19.594
X77.215 Z-19.605
X76.239 Z-19.656
X75.112 Z-19.735
X74.402 Z-19.787
X72.521 Z-19.797
X69.895 Z-19.734
X67.106 Z-19.725
X66.341 Z-19.751
X64.7 Z-19.825
X64.262 Z-19.829
X62.906 Z-19.749
X62.606 Z-19.742
X60.478 Z-19.9
X59.323 Z-20.014
X57.245 Z-20.025
X55.987 Z-20.063
X55.114 Z-20.109
X54.524 Z-20.147
X53.139 Z-20.277
X52.557 Z-20.328
X52.144 Z-20.381
X51.605 Z-20.333
X50.409 Z-20.234
X49.664 Z-20.207
X49.063 Z-20.243
X48.28 Z-20.335
X47.469 Z-20.404
X46.437 Z-20.419
X45.606 Z-20.352
X44.704 Z-20.313
X43.665 Z-20.305
X42.146 Z-20.41
X40.405 Z-20.666
X40.193 Z-20.697
X38.512 Z-20.978
X37.319 Z-21.144
X34.459 Z-21.14
X32.408 Z-21.113
X31.841 Z-21.152
X31.106 Z-21.24
X29.504 Z-21.388
X27.779 Z-21.56
X25.96 Z-21.839
X24.618 Z-22.062
X24.087 Z-22.132
X23.355 Z-22.239
X21.972 Z-22.407
X19.914 Z-22.532
X18.546 Z-22.582
X17.227 Z-22.587
X2.887 Z-22.618
X2.864 Z-22.613
X2.863 Z-22.612
X2.841 Z-22.607
X2.501
X2.468 Y0.298
X2.442 Y0.319
X2.428 Y0.349
Y0.382
X2.442 Y0.413
X2.468 Y0.433
X2.501 Y0.441
X2.523 Z-22.612
X2.545 Z-22.618
X17.345 Z-22.589
X18.826 Z-22.578
X21.483 Z-22.476
X23.29 Z-22.26
X24.769 Z-22.075
X27.167 Z-21.674
X27.973 Z-21.551
X29.46 Z-21.405
X30.739 Z-21.285
X31.734 Z-21.164
X32.608 Z-21.102
X34.618 Z-21.128
X37.408 Z-21.131
X37.678 Z-21.113
X38.725 Z-20.944
X40.183 Z-20.694
X40.502 Z-20.65
X42.191 Z-20.403
X43.635 Z-20.305
X45.287 Z-20.319
X46.389 Z-20.411
X47.228 Z-20.403
X48.1 Z-20.341
X48.995 Z-20.231
X49.869 Z-20.183
X50.251 Z-20.201
X52.185 Z-20.366
X52.865 Z-20.29
X54.884 Z-20.094
X55.695 Z-20.051
X57.336 Z-20.005
X59.357 Z-19.989
X60.181 Z-19.908
X62.648 Z-19.728
X63.277 Z-19.751
X64.268 Z-19.813
X64.596
X64.913 Z-19.798
X66.335 Z-19.73
X67.265 Z-19.701
X68.95 Z-19.707
X69.825 Z-19.715
X72.505 Z-19.783
X74.491 Z-19.772
X74.818 Z-19.756
X76.264 Z-19.641
X77.46 Z-19.578
X77.624 Z-19.579
X78.788 Z-19.682
X80.483 Z-19.714
X81.91 Z-19.717
X82.671 Z-19.759
X85.021 Z-19.809
X85.173 Z-19.832
X86.273 Z-19.753
X86.805 Z-19.724
X89.008 Z-19.726
X89.915 Z-19.817
X91.051 Z-19.872
X91.384 Z-19.893
X91.568 Z-19.897
X93.92 Z-19.873
X95.448 Z-19.92
X96.501 Z-20.009
X96.829 Z-20.008
X97.482 Z-19.958
X97.91 Z-19.908
X98.225 Z-19.853
X99.689 Z-19.522
X100.928 Z-19.218
X101.766 Z-19.036
X103.016 Z-18.784
X104.58 Z-18.452
X106.164 Z-18.25
X106.475 Z-18.216
X107.753 Z-18.063
X108.903 Z-17.931
X109.659 Z-17.864
X110.046 Z-17.837
X111.634 Z-17.846
X113.111 Z-17.882
X117.643 Z-18.018
X119.776 Z-17.944
X122.777 Z-17.759
X124.959 Z-17.664
X124.979 Z-17.659
X125.001 Z-17.654
X125.286
X125.303 Y0.443
X125.319 Y0.448 Z-17.653
X125.334 Y0.457 Z-17.651
X125.346 Y0.469 Z-17.649
X125.355 Y0.483 Z-17.647
X125.36 Y0.499 Z-17.644
X125.362 Y0.516 Z-17.641
X125.36 Y0.532 Z-17.639
X125.355 Y0.548 Z-17.636
X125.346 Y0.563 Z-17.634
X125.334 Y0.574 Z-17.632
X125.319 Y0.583 Z-17.63
X125.303 Y0.589 Z-17.629
X125.286 Y0.591
X125.264 Z-17.634
X125.245 Z-17.639
X122.625 Z-17.753
X119.788 Z-17.929
X117.71 Z-17.999
X114.226 Z-17.895
X112.093 Z-17.832
X111.546 Z-17.833
X111.318
X111.036 Z-17.82
X110.024
X109.537 Z-17.858
X108.841 Z-17.921
X107.749 Z-18.043
X104.633 Z-18.437
X103.606 Z-18.656
X102.452 Z-18.896
X101.529 Z-19.093
X100.83 Z-19.254
X99.925 Z-19.475
X98.672 Z-19.765
X98.043 Z-19.896
X97.406 Z-19.98
X97.025 Z-20.006
X96.595 Z-20.009
X95.526 Z-19.915
X95.033 Z-19.893
X93.94 Z-19.862
X92.433 Z-19.874
X91.251 Z-19.89
X90.981 Z-19.863
X90.051 Z-19.819
X89.429 Z-19.756
X89.004 Z-19.701
X86.653 Z-19.708
X85.04 Z-19.815
X84.875 Z-19.794
X82.979 Z-19.752
X82.054 Z-19.697
X80.237 Z-19.695
X78.869 Z-19.669
X77.758 Z-19.57
X77.485 Z-19.56
X76.391 Z-19.619
X74.715 Z-19.754
X72.545 Z-19.768
X69.756 Z-19.696
X68.935 Z-19.688
X68.785 Z-19.681
X67.363 Z-19.679
X66.27 Z-19.711
X65.012 Z-19.77
X64.585 Z-19.8
X64.358 Z-19.803
X63.565 Z-19.749
X62.677 Z-19.714
X60.232 Z-19.887
X59.279 Z-19.97
X57.476 Z-19.983
X55.617 Z-20.037
X55.015 Z-20.064
X52.799 Z-20.281
X52.182 Z-20.344
X51.646 Z-20.296
X51.445 Z-20.273
X49.982 Z-20.162
X48.882 Z-20.224
X47.961 Z-20.34
X47.096 Z-20.401
X46.341 Z-20.403
X45.264 Z-20.313
X43.633 Z-20.302
X42.136 Z-20.406
X40.915 Z-20.592
X40.171 Z-20.692
X38.819 Z-20.925
X38.091 Z-21.05
X37.879 Z-21.083
X37.336 Z-21.117
X34.736 Z-21.116
X32.877 Z-21.091
X32.558 Z-21.107
X31.683 Z-21.169
X30.31 Z-21.336
X28.651 Z-21.499
X28.022 Z-21.569
X24.883 Z-22.092
X23.948 Z-22.212
X23.743 Z-22.232
X21.721 Z-22.474
X19.042 Z-22.575
X17.148 Z-22.591
X15.637 Z-22.59
X2.265 Z-22.617
X2.243 Z-22.612
X2.242 Z-22.611
X2.22 Z-22.606
X1.969
X1.937 Y0.598
X1.911 Y0.619
X1.896 Y0.649
Y0.682
X1.911 Y0.713
X1.937 Y0.733
X1.969 Y0.741
X1.991 Z-22.611
X2.013 Z-22.616
X2.08
X15.552 Z-22.59
X17.006 Z-22.594
X19.318 Z-22.572
X21.995 Z-22.47
X23.793 Z-22.253
X24.012 Z-22.239
X25.074 Z-22.1
X27.715 Z-21.651
X28.271 Z-21.566
X29.918 Z-21.389
X31.837 Z-21.162
X32.776 Z-21.094
X33.268 Z-21.084
X34.69 Z-21.101
X36.763 Z-21.107
X37.365 Z-21.098
X38.021 Z-21.056
X38.287 Z-21.021
X38.909 Z-20.907
X40.088 Z-20.701
X41.111 Z-20.563
X42.149 Z-20.402
X43.629 Z-20.3
X45.208 Z-20.308
X46.262 Z-20.391
X46.973 Z-20.396
X47.951 Z-20.328
X48.818 Z-20.211
X49.861 Z-20.156
X50.298 Z-20.155
X51.337 Z-20.233
X51.656 Z-20.271
X52.164 Z-20.32
X52.807 Z-20.26
X55.031 Z-20.047
X55.633 Z-20.02
X57.765 Z-19.958
X59.242 Z-19.947
X60.166 Z-19.875
X62.706 Z-19.701
X63.635 Z-19.737
X64.128 Z-19.768
X64.471 Z-19.789
X65.007 Z-19.751
X66.2 Z-19.692
X67.513 Z-19.656
X68.771 Z-19.658
X68.921 Z-19.671
X69.741 Z-19.677
X72.312 Z-19.745
X73.109 Z-19.752
X74.804 Z-19.732
X76.373 Z-19.605
X77.484 Z-19.543
X77.895 Z-19.562
X78.951 Z-19.656
X79.99 Z-19.676
X82.128 Z-19.679
X83.276 Z-19.745
X84.748 Z-19.78
X84.902 Z-19.796
X85.146 Z-19.783
X86.329 Z-19.701
X86.985 Z-19.684
X88.9 Z-19.677
X89.061 Z-19.682
X89.592 Z-19.752
X90.115 Z-19.814
X90.703 Z-19.845
X91.121 Z-19.879
X92.707 Z-19.854
X94.014 Z-19.851
X95.162 Z-19.885
X95.655 Z-19.916
X96.666 Z-20.008
X97.374 Z-19.997
X98.117 Z-19.892
X99.06 Z-19.689
X101.114 Z-19.201
X102.336 Z-18.922
X104.816 Z-18.403
X106.661 Z-18.165
X107.797 Z-18.017
X108.853 Z-17.902
X109.274 Z-17.865
X110.194 Z-17.803
X110.795 Z-17.799
X111.181 Z-17.82
X112.059 Z-17.812
X113.809 Z-17.859
X115.614 Z-17.922
X117.738 Z-17.979
X119.706 Z-17.917
X122.434 Z-17.748
X125.487 Z-17.616
X125.507 Z-17.611
X125.529 Z-17.606
X125.742
X125.759 Y0.743
X125.775 Y0.748 Z-17.605
X125.789 Y0.757 Z-17.603
X125.801 Y0.769 Z-17.601
X125.81 Y0.783 Z-17.599
X125.816 Y0.799 Z-17.597
X125.818 Y0.816 Z-17.594
X125.816 Y0.832 Z-17.592
X125.81 Y0.848 Z-17.589
X125.801 Y0.862 Z-17.587
X125.789 Y0.874 Z-17.585
X125.775 Y0.883 Z-17.584
X125.759 Y0.889 Z-17.583
X125.742 Y0.891
X125.72 Z-17.588
X125.7 Z-17.593
X122.315 Z-17.74
X119.642 Z-17.905
X117.837 Z-17.96
X115.416 Z-17.899
X113.885 Z-17.844
X112.955 Z-17.812
X112.189 Z-17.796
X111.096 Z-17.812
X110.527 Z-17.778
X109.852 Z-17.816
X108.775 Z-17.893
X107.767 Z-18.001
X105.557 Z-18.296
X105.026 Z-18.365
X103.788 Z-18.629
X102.644 Z-18.865
X101.401 Z-19.149
X99.21 Z-19.666
X98.068 Z-19.906
X97.537 Z-19.98
X96.753 Z-20.001
X95.629 Z-19.904
X95.082 Z-19.869
X94.043 Z-19.839
X92.926 Z-19.838
X92.598 Z-19.84
X91.668 Z-19.86
X91.176 Z-19.867
X90.588 Z-19.836
X90.228 Z-19.811
X89.07 Z-19.658
X87.282
X86.557 Z-19.676
X86.119 Z-19.686
X85.264 Z-19.747
X84.886 Z-19.773
X84.741 Z-19.775
X84.539 Z-19.764
X83.664 Z-19.744
X82.192 Z-19.658
X80.223 Z-19.66
X79.033 Z-19.642
X78.083 Z-19.557
X77.483 Z-19.526
X76.454 Z-19.584
X74.83 Z-19.712
X73.955 Z-19.73
X72.516 Z-19.734
X69.781 Z-19.657
X68.934
X68.839 Z-19.644
X68.733 Z-19.635
X67.639 Z-19.633
X66.107 Z-19.674
X65.123 Z-19.722
X64.444 Z-19.776
X63.917 Z-19.729
X63.438 Z-19.716
X62.727 Z-19.691
X61.866 Z-19.741
X60.182 Z-19.857
X59.367 Z-19.92
X58.109 Z-19.93
X55.594 Z-20.006
X55.047 Z-20.03
X53.239 Z-20.198
X52.818 Z-20.238
X52.173 Z-20.298
X51.752 Z-20.256
X51.327 Z-20.201
X50.616 Z-20.148
X49.85 Z-20.145
X48.741 Z-20.205
X47.981 Z-20.313
X46.942 Z-20.388
X46.231 Z-20.385
X45.156 Z-20.302
X43.92 Z-20.299
X43.596
X42.115 Z-20.404
X41.208 Z-20.547
X40.05 Z-20.706
X39.026 Z-20.884
X38.405 Z-21.004
X38.027 Z-21.038
X37.316 Z-21.081
X36.714 Z-21.095
X34.644 Z-21.086
X33.714 Z-21.077
X32.949 Z-21.084
X32.088 Z-21.147
X30.359 Z-21.357
X29.732 Z-21.434
X28.512 Z-21.566
X27.732 Z-21.68
X25.501 Z-22.064
X25.124 Z-22.129
X24.168 Z-22.258
X23.734 Z-22.287
X22.255 Z-22.465
X19.578 Z-22.568
X16.81 Z-22.596
X15.194 Z-22.591
X2.12 Z-22.616
X1.802
X1.78 Z-22.611
X1.778 Z-22.61
X1.756 Z-22.605
X1.567
X1.534 Y0.898
X1.508 Y0.919
X1.494 Y0.949
Y0.982
X1.508 Y1.012
X1.534 Y1.033
X1.567 Y1.041
X1.589 Z-22.61
X1.611 Z-22.615
X2.105
X14.837 Z-22.591
X16.613 Z-22.598
X19.863 Z-22.565
X22.485 Z-22.464
X23.751 Z-22.312
X24.186 Z-22.292
X25.354 Z-22.132
X25.975 Z-22.014
X27.643 Z-21.727
X28.741 Z-21.566
X29.855 Z-21.445
X30.635 Z-21.339
X32.375 Z-21.129
X33.012 Z-21.082
X33.996 Z-21.071
X36.66 Z-21.083
X37.535 Z-21.055
X38.603 Z-20.962
X39.297 Z-20.833
X40.016 Z-20.711
X41.078 Z-20.564
X42.091 Z-20.405
X43.528 Z-20.301
X43.817 Z-20.297
X45.113
X46.168 Z-20.375
X46.903 Z-20.377
X47.942 Z-20.303
X48.622 Z-20.209
X48.828 Z-20.187
X49.807 Z-20.136
X50.86 Z-20.139
X51.229 Z-20.162
X51.76 Z-20.23
X52.17 Z-20.276
X52.835 Z-20.215
X53.367 Z-20.169
X55.069 Z-20.012
X55.561 Z-19.991
X58.459 Z-19.903
X59.552 Z-19.893
X60.096 Z-19.847
X61.561 Z-19.746
X62.781 Z-19.679
X63.574 Z-19.709
X64.006 Z-19.712
X64.476 Z-19.755
X65.241 Z-19.693
X66.007 Z-19.657
X67.702 Z-19.61
X68.672 Z-19.611
X68.889 Z-19.635
X69.162 Z-19.641
X69.712 Z-19.635
X70.259 Z-19.649
X72.556 Z-19.718
X73.87 Z-19.715
X74.909 Z-19.69
X76.534 Z-19.563
X77.468 Z-19.51
X78.165 Z-19.545
X79.114 Z-19.629
X79.552 Z-19.639
X81.174 Z-19.636
X82.338 Z-19.643
X83.973 Z-19.738
X84.569 Z-19.755
X84.897 Z-19.748
X85.383 Z-19.711
X85.965 Z-19.668
X86.622 Z-19.659
X87.442 Z-19.637
X88.864 Z-19.631
X89.08 Z-19.641
X90.399 Z-19.815
X91.122 Z-19.85
X91.723 Z-19.847
X92.544 Z-19.824
X93.036 Z-19.826
X94.088 Z-19.828
X95.018 Z-19.854
X95.729 Z-19.903
X96.323 Z-19.955
X96.851 Z-19.991
X97.617 Z-19.97
X98.148 Z-19.901
X98.777 Z-19.766
X99.291 Z-19.66
X101.69 Z-19.095
X102.808 Z-18.84
X103.858 Z-18.624
X105.199 Z-18.332
X105.518 Z-18.29
X107.775 Z-17.986
X108.772 Z-17.88
X109.592 Z-17.825
X110.466 Z-17.771
X110.953 Z-17.799
X112.374 Z-17.78
X113.085 Z-17.794
X114.015 Z-17.832
X115.82 Z-17.894
X117.843 Z-17.939
X118.138 Z-17.935
X119.615 Z-17.892
X122.179 Z-17.732
X125.89 Z-17.572
X125.91 Z-17.567
X125.932 Z-17.562
X126.103
X126.12 Y1.043 Z-17.561
X126.136 Y1.048
X126.15 Y1.057 Z-17.56
X126.162 Y1.069 Z-17.559
X126.171 Y1.083 Z-17.557
X126.177 Y1.099 Z-17.555
X126.178 Y1.116 Z-17.553
X126.177 Y1.132 Z-17.552
X126.171 Y1.148 Z-17.55
X126.162 Y1.162 Z-17.548
X126.15 Y1.174 Z-17.547
X126.136 Y1.183 Z-17.546
X126.12 Y1.189 Z-17.545
X126.103 Y1.191
X126.081 Z-17.55
X126.061 Z-17.555
X122.128 Z-17.719
X119.57 Z-17.879
X117.984 Z-17.922
X116.114 Z-17.874
X114.856 Z-17.848
X113.325 Z-17.781
X112.614 Z-17.762
X110.809 Z-17.786
X110.416 Z-17.765
X109.597 Z-17.817
X108.831 Z-17.858
X107.776 Z-17.973
X105.413 Z-18.293
X103.817 Z-18.643
X102.882 Z-18.836
X101.963 Z-19.046
X99.354 Z-19.658
X98.63 Z-19.806
X98.106 Z-19.914
X97.787 Z-19.955
X96.912 Z-19.979
X96.208 Z-19.933
X95.776 Z-19.897
X94.901 Z-19.837
X94.136 Z-19.817
X93.146 Z-19.813
X92.49 Z-19.807
X91.56 Z-19.837
X91.148 Z-19.836
X90.437 Z-19.804
X89.225 Z-19.644
X88.957 Z-19.618
X88.301 Z-19.608
X87.644 Z-19.614
X86.715 Z-19.642
X85.73 Z-19.656
X84.992 Z-19.72
X84.384 Z-19.738
X82.525 Z-19.629
X81.978 Z-19.616
X79.992 Z-19.619
X79.25 Z-19.618
X78.246 Z-19.534
X77.467 Z-19.494
X76.615 Z-19.542
X74.934 Z-19.67
X73.677 Z-19.701
X72.487
X70.682 Z-19.644
X69.698 Z-19.61
X69.116 Z-19.624
X68.898 Z-19.621
X68.622 Z-19.588
X67.766
X65.907 Z-19.64
X65.251 Z-19.673
X64.496 Z-19.731
X64.189 Z-19.701
X64.082 Z-19.695
X63.49 Z-19.693
X62.807 Z-19.669
X61.146 Z-19.758
X60.009 Z-19.837
X59.683 Z-19.865
X58.809 Z-19.875
X56.403 Z-19.945
X55.066 Z-19.997
X53.503 Z-20.138
X52.752 Z-20.203
X52.166 Z-20.253
X51.188 Z-20.132
X49.808 Z-20.125
X48.829 Z-20.178
X48.624 Z-20.196
X47.942 Z-20.29
X46.802 Z-20.369
X46.113 Z-20.364
X45.249 Z-20.301
X45.031 Z-20.292
X43.55 Z-20.297
X42.098 Z-20.401
X40.849 Z-20.596
X39.999 Z-20.714
X39.281 Z-20.834
X38.892 Z-20.911
X38.584 Z-20.933
X37.475 Z-21.039
X36.497 Z-21.071
X34.512 Z-21.063
X33.145 Z-21.074
X32.618 Z-21.115
X30.879 Z-21.326
X29.78 Z-21.479
X28.986 Z-21.565
X27.475 Z-21.788
X26.393 Z-21.976
X25.515 Z-22.146
X24.24 Z-22.32
X23.721 Z-22.342
X22.747 Z-22.459
X20.124 Z-22.561
X16.417 Z-22.6
X14.424 Z-22.592
X2.146 Z-22.615
X1.44 Z-22.614
X1.418 Z-22.609
X1.416 Z-22.608
X1.394 Z-22.603
X1.242
X1.209 Y1.198
X1.183 Y1.219
X1.169 Y1.249
Y1.282
X1.183 Y1.312
X1.209 Y1.333
X1.242 Y1.341
X1.264 Z-22.608
X1.286 Z-22.614
X2.186
X14.011 Z-22.592
X16.22 Z-22.602
X20.368 Z-22.558
X22.884 Z-22.464
X23.673 Z-22.375
X24.326 Z-22.344
X25.6 Z-22.169
X26.852 Z-21.929
X27.464 Z-21.822
X29.198 Z-21.568
X29.779 Z-21.504
X31.148 Z-21.309
X32.887 Z-21.098
X33.197 Z-21.073
X33.74 Z-21.065
X34.779 Z-21.044
X36.406 Z-21.058
X37.445 Z-21.016
X37.643 Z-20.995
X38.645 Z-20.897
X39.17 Z-20.86
X39.417 Z-20.81
X39.876 Z-20.734
X40.937 Z-20.579
X42.081 Z-20.401
X43.553 Z-20.294
X45.031 Z-20.286
X45.632 Z-20.329
X46.168 Z-20.357
X46.771
X47.919 Z-20.279
X48.493 Z-20.2
X48.806 Z-20.169
X49.731 Z-20.118
X51.17 Z-20.122
X51.634 Z-20.168
X52.166 Z-20.23
X53.729 Z-20.101
X55.013 Z-19.986
X55.45 Z-19.963
X57.146 Z-19.908
X59.114 Z-19.849
X59.716 Z-19.839
X60.632 Z-19.776
X62.86 Z-19.657
X63.407 Z-19.677
X64.184 Z-19.678
X64.544 Z-19.71
X65.274 Z-19.652
X65.81 Z-19.622
X67.833 Z-19.567
X68.544 Z-19.564
X68.651 Z-19.571
X68.907 Z-19.606
X69.683 Z-19.587
X70.832 Z-19.627
X72.308 Z-19.679
X73.519 Z-19.687
X74.996 Z-19.648
X76.623 Z-19.526
X77.461 Z-19.477
X78.418 Z-19.528
X79.248 Z-19.601
X79.85 Z-19.599
X82.008 Z-19.594
X82.719 Z-19.616
X83.976 Z-19.688
X84.408 Z-19.718
X84.483 Z-19.715
X84.866 Z-19.699
X85.244 Z-19.672
X85.662 Z-19.64
X86.756 Z-19.625
X88.123 Z-19.585
X88.889 Z-19.601
X89.05 Z-19.611
X89.476 Z-19.659
X90.476 Z-19.793
X91.342 Z-19.828
X92.436 Z-19.791
X93.201 Z-19.799
X94.179 Z-19.805
X94.836 Z-19.822
X95.875 Z-19.895
X97.065 Z-19.972
X97.893 Z-19.941
X98.16 Z-19.913
X98.474 Z-19.847
X99.409 Z-19.658
X102.122 Z-19.023
X103.031 Z-18.814
X103.661 Z-18.684
X105.582 Z-18.262
X107.732 Z-17.965
X108.787 Z-17.849
X109.279 Z-17.824
X110.378 Z-17.759
X110.666 Z-17.773
X112.849 Z-17.745
X114.768 Z-17.828
X115.971 Z-17.84
X118.032 Z-17.902
X119.563 Z-17.866
X121.957 Z-17.713
X125.451 Z-17.559
X126.217 Z-17.539
X126.238 Z-17.534
X126.26 Z-17.529
X126.401
X126.418 Y1.343
X126.434 Y1.348 Z-17.528
X126.448 Y1.357 Z-17.527
X126.46 Y1.369 Z-17.526
X126.469 Y1.383 Z-17.524
X126.475 Y1.399 Z-17.523
X126.477 Y1.416 Z-17.521
X126.475 Y1.432 Z-17.519
X126.469 Y1.448 Z-17.517
X126.46 Y1.462 Z-17.516
X126.448 Y1.474 Z-17.514
X126.434 Y1.483 Z-17.513
X126.418 Y1.489
X126.401 Y1.491
X126.379 Z-17.518
X126.358 Z-17.523
X125.483 Z-17.539
X121.983 Z-17.688
X119.334 Z-17.85
X118.184 Z-17.884
X115.832 Z-17.806
X114.465 Z-17.795
X113.002 Z-17.724
X110.531 Z-17.761
X110.311 Z-17.754
X109.454 Z-17.802
X108.803 Z-17.832
X107.698 Z-17.957
X105.809 Z-18.22
X103.631 Z-18.7
X103.106 Z-18.81
X102.396 Z-18.974
X99.474 Z-19.655
X98.329 Z-19.887
X98.119 Z-19.924
X97.169 Z-19.962
X95.488 Z-19.857
X94.722 Z-19.806
X94.175 Z-19.794
X92.381 Z-19.775
X91.288 Z-19.814
X90.515 Z-19.782
X89.621 Z-19.662
X88.942 Z-19.587
X88.082 Z-19.567
X86.852 Z-19.607
X85.758 Z-19.624
X85.059 Z-19.663
X84.743 Z-19.681
X84.45 Z-19.703
X84.056 Z-19.668
X82.853 Z-19.6
X81.978 Z-19.573
X79.816 Z-19.577
X79.21 Z-19.578
X78.464 Z-19.513
X77.454 Z-19.461
X76.676 Z-19.507
X75.048 Z-19.627
X73.333 Z-19.673
X72.185 Z-19.659
X69.888 Z-19.571
X69.505 Z-19.567
X68.881 Z-19.587
X68.519 Z-19.541
X67.96 Z-19.544
X65.882 Z-19.597
X65.291 Z-19.631
X64.579 Z-19.687
X64.364 Z-19.667
X64.203 Z-19.662
X63.324 Z-19.66
X62.886 Z-19.646
X60.218 Z-19.788
X59.802 Z-19.812
X57.177 Z-19.892
X55.536 Z-19.943
X55.044 Z-19.968
X53.707 Z-20.086
X52.149 Z-20.21
X51.167 Z-20.112
X49.728 Z-20.107
X48.803 Z-20.16
X48.491 Z-20.189
X48.076 Z-20.247
X47.751 Z-20.278
X46.557 Z-20.352
X46.059 Z-20.344
X45.523 Z-20.318
X45.003 Z-20.28
X43.527 Z-20.291
X42.088 Z-20.398
X40.995 Z-20.563
X40.042 Z-20.709
X39.639 Z-20.772
X39.439 Z-20.809
X38.802 Z-20.852
X37.847 Z-20.944
X37.433 Z-20.992
X36.456 Z-21.038
X34.975 Z-21.025
X34.428 Z-21.035
X33.283 Z-21.069
X31.396 Z-21.295
X29.662 Z-21.541
X29.449 Z-21.566
X27.348 Z-21.875
X25.803 Z-22.176
X24.424 Z-22.366
X23.661 Z-22.403
X23.14 Z-22.461
X20.624 Z-22.555
X16.023 Z-22.604
X13.599 Z-22.593
X2.172 Z-22.614
X1.143 Z-22.613
X1.121 Z-22.607
X1.119 Z-22.606
X1.097 Z-22.601
X0.974
X0.942 Y1.498
X0.915 Y1.519
X0.901 Y1.549
Y1.582
X0.915 Y1.612
X0.942 Y1.633
X0.974 Y1.641
X0.996 Z-22.606
X1.018 Z-22.612
X2.212 Z-22.613
X13.186 Z-22.593
X15.827 Z-22.606
X20.796 Z-22.553
X23.367 Z-22.459
X23.623 Z-22.434
X23.842 Z-22.423
X24.714 Z-22.36
X25.882 Z-22.201
X27.239 Z-21.939
X29.279 Z-21.626
X31.636 Z-21.282
X33.232 Z-21.085
X33.672 Z-21.039
X34.766 Z-21.007
X35.039 Z-21.008
X36.295 Z-21.025
X36.623 Z-21.007
X37.436 Z-20.967
X38.118 Z-20.886
X38.968 Z-20.807
X39.72 Z-20.758
X40.899 Z-20.572
X42.088 Z-20.395
X43.499 Z-20.287
X44.976 Z-20.275
X45.359 Z-20.302
X46.004 Z-20.333
X46.526 Z-20.344
X47.885 Z-20.255
X48.295 Z-20.201
X48.727 Z-20.156
X49.677 Z-20.099
X51.153 Z-20.102
X51.26 Z-20.109
X51.944 Z-20.181
X52.176 Z-20.188
X52.352 Z-20.177
X53.65 Z-20.075
X55.094 Z-19.947
X55.857 Z-19.916
X57.389 Z-19.871
X59.795 Z-19.794
X62.912 Z-19.636
X63.24 Z-19.644
X64.344 Z-19.645
X64.613 Z-19.665
X65.602 Z-19.588
X67.298 Z-19.535
X68.446 Z-19.517
X68.552 Z-19.527
X68.846 Z-19.566
X69.512 Z-19.542
X70.004 Z-19.552
X72.356 Z-19.645
X73.285 Z-19.656
X75.031 Z-19.608
X76.823 Z-19.481
X77.443 Z-19.445
X78.48 Z-19.495
X79.09 Z-19.548
X79.728 Z-19.557
X81.976 Z-19.552
X83.015 Z-19.586
X83.835 Z-19.63
X84.215 Z-19.66
X84.507 Z-19.69
X84.858 Z-19.66
X85.119 Z-19.642
X85.884 Z-19.607
X86.869 Z-19.591
X88.127 Z-19.554
X88.838 Z-19.569
X88.999 Z-19.578
X89.744 Z-19.663
X90.532 Z-19.768
X91.234 Z-19.799
X92.273 Z-19.761
X94.17 Z-19.783
X94.662 Z-19.791
X95.154 Z-19.823
X97.273 Z-19.952
X98.028 Z-19.921
X98.297 Z-19.902
X99.558 Z-19.649
X103.097 Z-18.824
X103.505 Z-18.736
X105.797 Z-18.228
X106.186 Z-18.154
X107.651 Z-17.95
X108.812 Z-17.816
X109.249 Z-17.796
X110.224 Z-17.75
X110.389 Z-17.749
X112.577 Z-17.717
X113.01 Z-17.701
X113.229 Z-17.703
X114.432 Z-17.761
X115.608 Z-17.772
X118.197 Z-17.854
X119.4 Z-17.825
X119.71 Z-17.8
X121.783 Z-17.669
X122.22 Z-17.66
X125.447 Z-17.522
X126.486 Z-17.503
X126.507 Z-17.498
X126.529 Z-17.493
X126.646
X126.662 Y1.643
X126.678 Y1.648 Z-17.492
X126.693 Y1.657 Z-17.491
X126.705 Y1.669 Z-17.49
X126.714 Y1.683 Z-17.488
X126.719 Y1.699 Z-17.486
X126.721 Y1.716 Z-17.484
X126.719 Y1.732 Z-17.481
X126.714 Y1.748 Z-17.479
X126.705 Y1.762 Z-17.478
X126.693 Y1.774 Z-17.476
X126.678 Y1.783 Z-17.475
X126.662 Y1.789 Z-17.474
X126.646 Y1.791
X126.624 Z-17.479
X126.602 Z-17.484
X125.454 Z-17.503
X122.391 Z-17.633
X121.68 Z-17.645
X119.826 Z-17.761
X119.355 Z-17.802
X118.316 Z-17.826
X115.314 Z-17.737
X114.439 Z-17.729
X113.4 Z-17.681
X113.017 Z-17.679
X112.529 Z-17.701
X110.101 Z-17.747
X108.788 Z-17.805
X107.627 Z-17.939
X106.54 Z-18.093
X105.975 Z-18.195
X103.172 Z-18.82
X99.738 Z-19.622
X98.372 Z-19.898
X97.377 Z-19.942
X94.766 Z-19.785
X94.329 Z-19.771
X92.219 Z-19.744
X91.105 Z-19.781
X90.594 Z-19.76
X89.954 Z-19.675
X88.897 Z-19.555
X88.2 Z-19.54
X87.38 Z-19.563
X85.849 Z-19.596
X85.083 Z-19.63
X84.547 Z-19.675
X84.334 Z-19.649
X83.738 Z-19.599
X82.973 Z-19.564
X81.933 Z-19.53
X79.408 Z-19.531
X78.971 Z-19.518
X78.55 Z-19.481
X77.433 Z-19.429
X76.868 Z-19.463
X75.008 Z-19.589
X73.198 Z-19.636
X72.433 Z-19.627
X70.139 Z-19.534
X69.483 Z-19.518
X69.046 Z-19.535
X68.827 Z-19.542
X68.382 Z-19.494
X66.839 Z-19.527
X65.585 Z-19.568
X64.647 Z-19.642
X64.54 Z-19.632
X64.378 Z-19.628
X63.157
X62.938 Z-19.625
X60.04 Z-19.771
X57.36 Z-19.855
X55.993 Z-19.895
X55.118 Z-19.929
X53.616 Z-20.062
X52.48 Z-20.149
X52.264 Z-20.168
X51.828 Z-20.159
X51.163 Z-20.092
X49.667 Z-20.088
X48.688 Z-20.149
X48.223 Z-20.197
X47.868 Z-20.244
X46.4 Z-20.335
X45.293 Z-20.294
X44.921 Z-20.269
X43.499 Z-20.282
X42.061 Z-20.397
X40.888 Z-20.567
X40.042 Z-20.699
X39.031 Z-20.771
X38.288 Z-20.839
X37.448 Z-20.942
X36.799 Z-20.975
X36.252 Z-21.008
X35.158 Z-20.992
X34.83 Z-20.986
X34.01 Z-21.011
X33.491 Z-21.061
X31.949 Z-21.255
X31.411 Z-21.346
X29.62 Z-21.618
X27.183 Z-21.995
X26.036 Z-22.215
X24.974 Z-22.357
X23.664 Z-22.454
X20.93 Z-22.551
X15.63 Z-22.608
X12.774 Z-22.594
X2.197 Z-22.612
X0.899 Z-22.611
X0.877 Z-22.606
X0.875 Z-22.605
X0.853 Z-22.6
X0.746
X0.713 Y1.798
X0.687 Y1.819
X0.673 Y1.849
Y1.882
X0.687 Y1.912
X0.713 Y1.933
X0.746 Y1.941
X0.768 Z-22.605
X0.79 Z-22.61
X2.183 Z-22.612
X12.361 Z-22.594
X15.434 Z-22.61
X19.07 Z-22.573
X21.312 Z-22.541
X23.992 Z-22.445
X25.192 Z-22.359
X26.149 Z-22.235
X26.98 Z-22.076
X27.615 Z-21.977
X29.521 Z-21.676
X31.618 Z-21.352
X31.969 Z-21.278
X32.291 Z-21.221
X33.674 Z-21.047
X34.296 Z-20.988
X34.84 Z-20.966
X35.278 Z-20.977
X36.262 Z-20.992
X36.9 Z-20.948
X37.439 Z-20.918
X38.381 Z-20.801
X39.064 Z-20.737
X40.472 Z-20.628
X40.791 Z-20.576
X41.31 Z-20.499
X41.924 Z-20.398
X43.417 Z-20.281
X44.866 Z-20.264
X45.183 Z-20.283
X46.333 Z-20.326
X47.856 Z-20.232
X48.16 Z-20.193
X48.625 Z-20.146
X49.659 Z-20.078
X51.081 Z-20.082
X51.243 Z-20.088
X51.658 Z-20.132
X52.293 Z-20.147
X52.51 Z-20.13
X53.536 Z-20.053
X55.091 Z-19.916
X56.511 Z-19.86
X57.386 Z-19.839
X59.41 Z-19.776
X60.121 Z-19.755
X63.074 Z-19.612
X64.465 Z-19.611
X64.678 Z-19.619
X65.649 Z-19.542
X66.852 Z-19.505
X68.383 Z-19.474
X68.691 Z-19.513
X68.85 Z-19.52
X69.396 Z-19.496
X70.49 Z-19.522
X72.455 Z-19.608
X73.112 Z-19.615
X75.059 Z-19.568
X76.802 Z-19.453
X77.421 Z-19.412
X78.593 Z-19.465
X78.906 Z-19.493
X79.508 Z-19.507
X81.92 Z-19.509
X83.616 Z-19.567
X84.374 Z-19.632
X84.586 Z-19.66
X85.219 Z-19.609
X85.875 Z-19.583
X87.352 Z-19.549
X88.227 Z-19.527
X88.664 Z-19.533
X88.935 Z-19.544
X89.893 Z-19.655
X89.998 Z-19.676
X90.134 Z-19.683
X90.601 Z-19.745
X91.016 Z-19.764
X92.165 Z-19.728
X94.468 Z-19.759
X97.481 Z-19.933
X98.328 Z-19.899
X98.488 Z-19.882
X99.749 Z-19.63
X103.392 Z-18.783
X106.196 Z-18.155
X106.901 Z-18.03
X107.528 Z-17.939
X108.812 Z-17.787
X110.268 Z-17.729
X112.482 Z-17.685
X113.079 Z-17.654
X113.626 Z-17.66
X114.392 Z-17.695
X114.939 Z-17.702
X116.907 Z-17.754
X118.275 Z-17.794
X119.302 Z-17.781
X119.825 Z-17.734
X121.57 Z-17.622
X122.609 Z-17.605
X125.398 Z-17.486
X126.274 Z-17.47
X126.711 Z-17.471
X126.733 Z-17.466
X126.755 Z-17.461
X126.856
X126.873 Y1.943
X126.889 Y1.948
X126.903 Y1.957 Z-17.46
X126.915 Y1.969
X126.924 Y1.983 Z-17.459
X126.93 Y1.999
X126.931 Y2.016 Z-17.458
X126.93 Y2.032 Z-17.457
X126.924 Y2.048 Z-17.456
X126.915 Y2.062
X126.903 Y2.074 Z-17.455
X126.889 Y2.083
X126.873 Y2.089
X126.856 Y2.091
X126.834 Z-17.46
X126.81 Z-17.465
X126.436 Z-17.451
X125.397 Z-17.467
X122.826 Z-17.576
X121.459 Z-17.599
X119.933 Z-17.695
X119.3 Z-17.752
X118.336 Z-17.765
X117.079 Z-17.731
X114.727 Z-17.667
X114.289 Z-17.657
X113.742 Z-17.637
X113.141 Z-17.629
X112.379 Z-17.669
X110.342 Z-17.713
X110.066 Z-17.724
X108.796 Z-17.774
X107.564 Z-17.921
X107.184 Z-17.981
X106.234 Z-18.152
X103.897 Z-18.678
X99.916 Z-19.606
X98.655 Z-19.859
X98.389 Z-19.892
X97.569 Z-19.922
X94.855 Z-19.764
X94.363 Z-19.745
X92.066 Z-19.713
X90.918 Z-19.747
X90.609 Z-19.73
X90.301 Z-19.69
X90.08 Z-19.685
X89.871 Z-19.641
X88.913 Z-19.528
X88.697 Z-19.518
X88.314 Z-19.513
X87.33 Z-19.535
X85.525 Z-19.58
X85 Z-19.614
X84.625 Z-19.645
X84.413 Z-19.615
X83.656 Z-19.55
X81.906 Z-19.488
X79.662 Z-19.484
X78.841 Z-19.468
X78.528 Z-19.443
X77.409 Z-19.396
X76.899 Z-19.43
X75.102 Z-19.547
X73.025 Z-19.595
X72.478 Z-19.589
X71.442 Z-19.538
X70.13 Z-19.49
X69.419 Z-19.474
X68.872 Z-19.497
X68.605 Z-19.486
X68.403 Z-19.459
X68.297 Z-19.454
X66.766 Z-19.486
X65.617 Z-19.523
X64.703 Z-19.596
X63.023 Z-19.603
X60.343 Z-19.733
X59.413 Z-19.759
X57.499 Z-19.82
X56.624 Z-19.837
X55.204 Z-19.895
X54.897 Z-19.918
X53.493 Z-20.04
X52.393 Z-20.124
X51.543 Z-20.11
X51.152 Z-20.073
X49.703
X49.539 Z-20.076
X48.669 Z-20.131
X48.144 Z-20.182
X47.781 Z-20.224
X46.277 Z-20.317
X44.976 Z-20.264
X44.648 Z-20.259
X43.39 Z-20.277
X41.705 Z-20.408
X40.882 Z-20.555
X39.044 Z-20.709
X38.564 Z-20.753
X37.464 Z-20.893
X36.706 Z-20.941
X36.159 Z-20.974
X35.342 Z-20.959
X34.843 Z-20.947
X34.491 Z-20.974
X33.74 Z-21.047
X32.634 Z-21.187
X32.19 Z-21.263
X31.679 Z-21.376
X30.727 Z-21.531
X29.678 Z-21.692
X27.244 Z-22.082
X26.82 Z-22.15
X26.198 Z-22.263
X25.347 Z-22.366
X24.363 Z-22.434
X21.683 Z-22.532
X20.207 Z-22.561
X15.237 Z-22.612
X11.949 Z-22.595
X2.277 Z-22.611
X0.689 Z-22.609
X0.667 Z-22.604
X0.666 Z-22.603
X0.644 Z-22.598
X0.555
X0.523 Y2.098
X0.496 Y2.119
X0.482 Y2.149
Y2.182
X0.496 Y2.212
X0.523 Y2.233
X0.555 Y2.241
X0.577 Z-22.603
X0.599 Z-22.608
X2.318 Z-22.611
X11.536 Z-22.595
X15.043 Z-22.614
X20.325 Z-22.56
X22.075 Z-22.522
X24.7 Z-22.424
X25.521 Z-22.37
X26.375 Z-22.274
X26.68 Z-22.22
X29.749 Z-21.723
X30.586 Z-21.594
X31.643 Z-21.418
X32.403 Z-21.249
X32.977 Z-21.152
X33.914 Z-21.034
X34.664 Z-20.962
X35 Z-20.936
X35.407 Z-20.942
X36.172 Z-20.958
X37.415 Z-20.873
X38.447 Z-20.753
X38.797 Z-20.697
X40.89 Z-20.512
X41.503 Z-20.415
X43.341 Z-20.275
X44.763 Z-20.253
X46.248 Z-20.303
X47.771 Z-20.212
X48.082 Z-20.178
X48.607 Z-20.127
X49.367 Z-20.077
X50.024 Z-20.065
X51.063 Z-20.062
X51.224 Z-20.067
X51.375 Z-20.083
X52.427 Z-20.104
X53.444 Z-20.028
X55 Z-19.892
X55.656 Z-19.865
X56.638 Z-19.82
X57.677 Z-19.8
X59.482 Z-19.739
X60.029 Z-19.727
X61.506 Z-19.67
X62.976 Z-19.585
X64.725 Z-19.576
X65.583 Z-19.504
X66.732 Z-19.465
X68.318 Z-19.434
X68.574 Z-19.465
X68.895 Z-19.475
X69.441 Z-19.453
X70.152 Z-19.469
X71.465 Z-19.516
X72.5 Z-19.57
X72.938 Z-19.575
X75.146 Z-19.525
X77.42 Z-19.379
X78.633 Z-19.43
X78.785 Z-19.444
X79.824 Z-19.463
X81.835 Z-19.466
X82.983 Z-19.503
X83.749 Z-19.538
X84.346 Z-19.587
X84.665 Z-19.63
X85.266 Z-19.58
X86.688 Z-19.535
X88.383 Z-19.5
X88.821 Z-19.506
X89.034 Z-19.528
X89.831 Z-19.624
X90.144 Z-19.689
X90.4 Z-19.694
X90.781 Z-19.729
X91.984 Z-19.698
X94.445 Z-19.732
X95.265 Z-19.77
X97.672 Z-19.913
X98.564 Z-19.876
X98.881 Z-19.827
X99.932 Z-19.614
X103.158 Z-18.864
X103.577 Z-18.776
X104.388 Z-18.575
X106.354 Z-18.132
X106.987 Z-18.018
X107.728 Z-17.889
X108.801 Z-17.759
X109.676 Z-17.722
X110.022 Z-17.718
X110.308 Z-17.704
X112.277 Z-17.654
X113.203 Z-17.605
X114.201 Z-17.621
X116.976 Z-17.699
X118.344 Z-17.734
X119.007 Z-17.729
X119.444 Z-17.71
X120.025 Z-17.659
X121.332 Z-17.576
X123.028 Z-17.548
X125.325 Z-17.452
X126.09 Z-17.437
X126.473 Z-17.439
X126.902 Z-17.455
X126.926 Z-17.45
X126.948 Z-17.445
X127.03
X127.047 Y2.243
X127.063 Y2.248 Z-17.444
X127.077 Y2.257
X127.089 Y2.269 Z-17.443
X127.098 Y2.283 Z-17.442
X127.103 Y2.299 Z-17.441
X127.105 Y2.316 Z-17.44
X127.103 Y2.332 Z-17.439
X127.098 Y2.348 Z-17.438
X127.089 Y2.362 Z-17.437
X127.077 Y2.374 Z-17.436
X127.063 Y2.383 Z-17.435
X127.047 Y2.389
X127.03 Y2.391
X127.008 Z-17.44
X126.985 Z-17.445
X126.497 Z-17.431
X126.169 Z-17.418
X125.293 Z-17.434
X123.215 Z-17.521
X121.192 Z-17.555
X120.103 Z-17.624
X119.577 Z-17.669
X118.921 Z-17.702
X118.405 Z-17.705
X116.874 Z-17.667
X113.866 Z-17.589
X113.264 Z-17.58
X112.236 Z-17.638
X110.377 Z-17.689
X109.944 Z-17.712
X109.658 Z-17.71
X108.783 Z-17.747
X108.166 Z-17.822
X107.741 Z-17.886
X106.471 Z-18.113
X104.934 Z-18.46
X103.754 Z-18.754
X102.833 Z-18.953
X100.014 Z-19.608
X99.069 Z-19.8
X98.645 Z-19.866
X98.102 Z-19.893
X97.664 Z-19.899
X97.222 Z-19.868
X94.87 Z-19.733
X94.378 Z-19.718
X91.862 Z-19.683
X90.713 Z-19.711
X90.48 Z-19.7
X90.213 Z-19.695
X89.824 Z-19.611
X88.894 Z-19.499
X88.733 Z-19.488
X88.295 Z-19.489
X86.764 Z-19.521
X85.315 Z-19.565
X84.704 Z-19.615
X84.333 Z-19.565
X83.735 Z-19.519
X82.969 Z-19.483
X81.82 Z-19.445
X79.814 Z-19.442
X78.671 Z-19.414
X77.392 Z-19.364
X75.29 Z-19.499
X72.945 Z-19.555
X72.417 Z-19.545
X71.323 Z-19.488
X70.12 Z-19.447
X69.409 Z-19.434
X69.027 Z-19.452
X68.488 Z-19.437
X68.265 Z-19.414
X66.7 Z-19.444
X65.606 Z-19.48
X64.639 Z-19.556
X62.944 Z-19.567
X61.255 Z-19.671
X60.052 Z-19.712
X59.45 Z-19.723
X57.864 Z-19.778
X56.661 Z-19.802
X55.624 Z-19.853
X54.968 Z-19.879
X53.412 Z-20.015
X52.441 Z-20.084
X51.259 Z-20.061
X51.053 Z-20.052
X49.249 Z-20.074
X48.652 Z-20.113
X47.709 Z-20.203
X46.349 Z-20.281
X44.981 Z-20.246
X44.707
X43.286 Z-20.273
X41.547 Z-20.396
X41.258 Z-20.418
X40.718 Z-20.491
X39.803 Z-20.571
X38.941 Z-20.653
X38.541 Z-20.73
X37.585 Z-20.844
X37.478 Z-20.86
X36.845 Z-20.892
X36.079 Z-20.941
X35.341 Z-20.927
X34.849 Z-20.953
X34.212 Z-21.01
X33.902 Z-21.043
X33.322 Z-21.118
X32.615 Z-21.236
X31.731 Z-21.438
X30.358 Z-21.67
X29.215 Z-21.852
X26.57 Z-22.281
X25.77 Z-22.368
X25.059 Z-22.414
X22.434 Z-22.513
X20.41 Z-22.559
X15.073 Z-22.614
X11.069 Z-22.596
X2.358 Z-22.61
X0.517 Z-22.607
X0.495 Z-22.602
X0.493 Z-22.601
X0.471 Z-22.596
X0.395
X0.363 Y2.398
X0.337 Y2.419
X0.322 Y2.449
Y2.482
X0.337 Y2.512
X0.363 Y2.533
X0.395 Y2.541
X0.417 Z-22.601
X0.439 Z-22.606
X2.399 Z-22.609
X10.656 Z-22.597
X15.048 Z-22.614
X20.411 Z-22.56
X22.818 Z-22.503
X25.388 Z-22.405
X25.99 Z-22.369
X26.94 Z-22.265
X30.081 Z-21.753
X31.666 Z-21.484
X32.711 Z-21.249
X32.911 Z-21.207
X33.334 Z-21.138
X33.842 Z-21.059
X34.354 Z-21.001
X34.997 Z-20.951
X35.645 Z-20.921
X36.003 Z-20.924
X36.323 Z-20.908
X37.411 Z-20.86
X37.718 Z-20.817
X38.464 Z-20.729
X39.073 Z-20.611
X40.029 Z-20.514
X40.658 Z-20.457
X41.037 Z-20.408
X41.6 Z-20.364
X42.092 Z-20.349
X43.284 Z-20.267
X43.886 Z-20.257
X44.761 Z-20.229
X46.469 Z-20.259
X47.676 Z-20.191
X48.578 Z-20.11
X49.12 Z-20.073
X51.041 Z-20.044
X52.547 Z-20.06
X53.391 Z-20.001
X54.946 Z-19.865
X55.493 Z-19.844
X56.694 Z-19.783
X57.952 Z-19.758
X59.429 Z-19.707
X60.085 Z-19.697
X61.07 Z-19.665
X62.913 Z-19.549
X64.061 Z-19.542
X64.718 Z-19.529
X65.576 Z-19.46
X66.669 Z-19.424
X68.255 Z-19.394
X68.457 Z-19.417
X68.94 Z-19.43
X69.432 Z-19.414
X69.814 Z-19.418
X71.236 Z-19.461
X72.44 Z-19.526
X72.873 Z-19.535
X75.45 Z-19.473
X77.424 Z-19.345
X78.436 Z-19.384
X79.803 Z-19.42
X81.805 Z-19.424
X83.336 Z-19.477
X84.211 Z-19.534
X84.425 Z-19.555
X84.733 Z-19.599
X85.267 Z-19.557
X85.65 Z-19.541
X87.947 Z-19.482
X88.767 Z-19.474
X88.874 Z-19.483
X89.82 Z-19.599
X89.925 Z-19.618
X90.244 Z-19.685
X90.646 Z-19.693
X91.74 Z-19.668
X94.42 Z-19.704
X95.021 Z-19.725
X97.209 Z-19.85
X97.704 Z-19.889
X97.868 Z-19.892
X98.684 Z-19.863
X99.214 Z-19.78
X100.159 Z-19.588
X102.758 Z-18.984
X103.283 Z-18.875
X104.015 Z-18.712
X105.449 Z-18.352
X106.578 Z-18.096
X107.106 Z-18
X107.508 Z-17.936
X107.959 Z-17.849
X108.795 Z-17.73
X109.584 Z-17.7
X109.86 Z-17.705
X110.46 Z-17.673
X112.21 Z-17.626
X113.271 Z-17.558
X113.654 Z-17.56
X116.334 Z-17.624
X118.248 Z-17.671
X118.828 Z-17.676
X119.648 Z-17.632
X120.177 Z-17.589
X121.156 Z-17.527
X123.453 Z-17.492
X125.258 Z-17.417
X126.078 Z-17.401
X126.515 Z-17.423
X127.058 Z-17.436
X127.081 Z-17.431
X127.103 Z-17.425
X127.173
X127.19 Y2.543
X127.206 Y2.548
X127.22 Y2.557 Z-17.424
X127.232 Y2.569
X127.241 Y2.583 Z-17.423
X127.246 Y2.599 Z-17.422
X127.248 Y2.616 Z-17.421
X127.246 Y2.632 Z-17.42
X127.241 Y2.648 Z-17.419
X127.232 Y2.662 Z-17.418
X127.22 Y2.674 Z-17.417
X127.206 Y2.683 Z-17.416
X127.19 Y2.689
X127.173 Y2.691
X127.151 Z-17.421
X127.128 Z-17.426
X126.476 Z-17.412
X125.988 Z-17.385
X125.222 Z-17.4
X123.636 Z-17.464
X121.011 Z-17.505
X120.25 Z-17.554
X119.722 Z-17.594
X118.693 Z-17.65
X116.177 Z-17.591
X113.552 Z-17.536
X113.333 Z-17.54
X112.152 Z-17.615
X110.511 Z-17.659
X109.795 Z-17.699
X109.456 Z-17.691
X108.813 Z-17.718
X108.133 Z-17.821
X107.722 Z-17.902
X107.3 Z-17.972
X106.993 Z-18.021
X106.782 Z-18.059
X106.024 Z-18.229
X104.231 Z-18.681
X103.29 Z-18.892
X102.555 Z-19.045
X100.269 Z-19.576
X99.43 Z-19.749
X98.688 Z-19.861
X97.795 Z-19.883
X96.867 Z-19.813
X95.008 Z-19.71
X94.406 Z-19.69
X92.219 Z-19.659
X91.508 Z-19.656
X90.687 Z-19.674
X90.292 Z-19.67
X90.217 Z-19.662
X89.911 Z-19.6
X88.766 Z-19.459
X87.084 Z-19.49
X85.266 Z-19.545
X84.783 Z-19.585
X84.385 Z-19.53
X83.377 Z-19.46
X81.736 Z-19.402
X79.793 Z-19.399
X78.371 Z-19.36
X77.551 Z-19.329
X77.328 Z-19.331
X75.536 Z-19.449
X72.786 Z-19.515
X72.407 Z-19.504
X71.095 Z-19.432
X69.509 Z-19.392
X68.962 Z-19.408
X68.371 Z-19.389
X68.208 Z-19.375
X66.637 Z-19.403
X65.543 Z-19.441
X64.739 Z-19.505
X63.919 Z-19.525
X62.88 Z-19.532
X61.255 Z-19.637
X60.599 Z-19.669
X59.888 Z-19.684
X59.286 Z-19.696
X58.029 Z-19.738
X56.717 Z-19.765
X55.352 Z-19.835
X54.859 Z-19.857
X53.413 Z-19.983
X52.528 Z-20.042
X51.302 Z-20.025
X50.755 Z-20.034
X50.208 Z-20.052
X49.005 Z-20.07
X48.531 Z-20.104
X47.67 Z-20.181
X46.552 Z-20.243
X45.021 Z-20.217
X44.802 Z-20.212
X43.49 Z-20.259
X43.163 Z-20.271
X42.626 Z-20.302
X41.642 Z-20.334
X40.861 Z-20.392
X39.856 Z-20.501
X39.271 Z-20.559
X38.509 Z-20.71
X37.765 Z-20.803
X37.459 Z-20.853
X35.275 Z-20.94
X34.299 Z-21.012
X33.917 Z-21.064
X33.029 Z-21.212
X31.733 Z-21.508
X29.525 Z-21.887
X27.304 Z-22.25
X26.258 Z-22.366
X25.328 Z-22.412
X23.086 Z-22.496
X20.406 Z-22.56
X15.078 Z-22.614
X11.523 Z-22.6
X8.822 Z-22.601
X2.165 Z-22.608
X0.373 Z-22.605
X0.351 Z-22.6
X0.35 Z-22.599
X0.328 Z-22.594
X0.265
X0.233 Y2.698
X0.206 Y2.719
X0.192 Y2.749
Y2.782
X0.206 Y2.812
X0.233 Y2.833
X0.265 Y2.841
X0.287 Z-22.599
X0.309 Z-22.604
X2.479 Z-22.608
X9.722 Z-22.598
X11.28 Z-22.602
X15.108 Z-22.614
X20.451 Z-22.559
X23.732 Z-22.479
X26.466 Z-22.368
X27.608 Z-22.242
X29.829 Z-21.882
X30.768 Z-21.713
X31.697 Z-21.55
X33.243 Z-21.198
X33.771 Z-21.109
X34.364 Z-21.017
X35.227 Z-20.953
X36.195 Z-20.905
X37.394 Z-20.854
X37.912 Z-20.774
X38.444 Z-20.709
X39.379 Z-20.523
X39.529 Z-20.5
X40.638 Z-20.381
X41.82 Z-20.295
X43.312 Z-20.252
X44.843 Z-20.196
X45.171 Z-20.208
X46.626 Z-20.229
X47.501 Z-20.183
X48.472 Z-20.1
X48.891 Z-20.068
X49.821 Z-20.053
X50.641 Z-20.016
X51.571 Z-20.008
X52.568 Z-20.02
X53.443 Z-19.965
X54.78 Z-19.848
X55.265 Z-19.825
X56.849 Z-19.741
X58.052 Z-19.719
X59.255 Z-19.68
X60.513 Z-19.659
X61.115 Z-19.627
X61.98 Z-19.567
X62.847 Z-19.514
X63.776 Z-19.507
X64.761 Z-19.48
X65.565 Z-19.417
X66.604 Z-19.382
X68.19 Z-19.355
X68.34 Z-19.369
X68.941 Z-19.384
X69.531 Z-19.372
X70.953 Z-19.405
X71.828 Z-19.449
X72.7 Z-19.495
X75.733 Z-19.423
X77.304 Z-19.313
X77.704 Z-19.312
X78.47 Z-19.342
X79.783 Z-19.378
X81.729 Z-19.381
X83.315 Z-19.438
X84.081 Z-19.488
X84.504 Z-19.527
X84.822 Z-19.57
X85.291 Z-19.534
X86.932 Z-19.484
X88.463 Z-19.45
X88.791 Z-19.451
X89.844 Z-19.58
X90.055 Z-19.611
X90.253 Z-19.653
X90.362 Z-19.654
X90.729 Z-19.655
X91.385 Z-19.641
X92.807 Z-19.657
X94.393 Z-19.676
X95.159 Z-19.702
X96.909 Z-19.799
X97.836 Z-19.873
X98.279 Z-19.866
X98.822 Z-19.847
X99.564 Z-19.731
X100.298 Z-19.581
X102.376 Z-19.1
X103.321 Z-18.905
X104.471 Z-18.644
X106.481 Z-18.136
X106.914 Z-18.037
X107.551 Z-17.943
X108.276 Z-17.797
X108.851 Z-17.704
X109.328 Z-17.683
X109.724 Z-17.692
X110.553 Z-17.646
X112.084 Z-17.604
X112.395 Z-17.586
X113.371 Z-17.524
X113.754 Z-17.518
X115.067 Z-17.54
X118.729 Z-17.62
X120.314 Z-17.521
X120.91 Z-17.481
X123.864 Z-17.436
X125.176 Z-17.383
X125.832 Z-17.369
X126.43 Z-17.4
X127.191 Z-17.416
X127.215 Z-17.411
X127.237 Z-17.406
X127.291
X127.308 Y2.843
X127.324 Y2.848
X127.338 Y2.857 Z-17.405
X127.35 Y2.869 Z-17.404
X127.359 Y2.883 Z-17.403
X127.364 Y2.899 Z-17.402
X127.366 Y2.916 Z-17.401
X127.364 Y2.932 Z-17.4
X127.359 Y2.948 Z-17.399
X127.35 Y2.962 Z-17.398
X127.338 Y2.974 Z-17.397
X127.324 Y2.983
X127.308 Y2.989 Z-17.396
X127.291 Y2.991
X127.269 Z-17.401
X127.246 Z-17.407
X126.48 Z-17.394
X125.719 Z-17.352
X125.117 Z-17.367
X124.024 Z-17.409
X120.797 Z-17.458
X118.779 Z-17.59
X118.546 Z-17.597
X116.631 Z-17.554
X114.143 Z-17.499
X113.404 Z-17.509
X112.538 Z-17.559
X112.184 Z-17.59
X110.653 Z-17.629
X109.673 Z-17.687
X109.2 Z-17.675
X108.89 Z-17.69
X108.324 Z-17.791
X107.495 Z-17.958
X106.965 Z-18.036
X104.595 Z-18.634
X103.341 Z-18.92
X102.186 Z-19.158
X100.422 Z-19.566
X99.687 Z-19.714
X98.84 Z-19.846
X97.856 Z-19.861
X96.787 Z-19.775
X95.311 Z-19.694
X94.435 Z-19.662
X93.014 Z-19.648
X91.263 Z-19.626
X90.726 Z-19.634
X90.282 Z-19.642
X90.019 Z-19.591
X88.873 Z-19.45
X88.533 Z-19.437
X87.002 Z-19.471
X85.361 Z-19.522
X84.99 Z-19.544
X84.862 Z-19.555
X84.543 Z-19.516
X84.065 Z-19.469
X83.245 Z-19.416
X81.713 Z-19.36
X79.772 Z-19.357
X78.514 Z-19.321
X77.804 Z-19.295
X77.28
X76.258 Z-19.372
X75.765 Z-19.399
X73.687 Z-19.448
X72.603 Z-19.474
X71.086 Z-19.387
X69.555 Z-19.352
X69.008 Z-19.363
X68.246 Z-19.34
X67.658 Z-19.343
X66.728 Z-19.357
X65.579 Z-19.394
X64.83 Z-19.454
X63.627 Z-19.489
X62.807 Z-19.497
X62.375 Z-19.521
X61.292 Z-19.594
X60.526 Z-19.645
X59.214 Z-19.665
X58.12 Z-19.699
X56.862 Z-19.724
X55.114 Z-19.817
X54.786 Z-19.832
X53.448 Z-19.948
X52.64 Z-20
X51.728 Z-19.992
X50.47 Z-20
X49.267 Z-20.056
X48.72 Z-20.069
X47.386 Z-20.182
X46.729 Z-20.214
X45.923 Z-20.211
X45.212 Z-20.194
X44.857 Z-20.18
X43.533 Z-20.229
X43.324 Z-20.218
X41.834 Z-20.266
X40.624 Z-20.354
X39.995 Z-20.423
X39.578 Z-20.469
X38.444 Z-20.697
X38.019 Z-20.751
X37.395 Z-20.85
X36.418 Z-20.895
X35.279 Z-20.958
X34.691 Z-21.004
X34.382 Z-21.038
X33.44 Z-21.189
X31.727 Z-21.579
X29.956 Z-21.906
X28.052 Z-22.219
X26.796 Z-22.359
X24.007 Z-22.472
X20.452 Z-22.56
X15.138 Z-22.614
X10.872 Z-22.602
X8.708 Z-22.6
X2.3 Z-22.607
X0.255 Z-22.604
X0.233 Z-22.599
X0.232 Z-22.598
X0.21 Z-22.593
X0.16
X0.127 Y2.998
X0.101 Y3.019
X0.087 Y3.049
Y3.082
X0.101 Y3.112
X0.127 Y3.133
X0.16 Y3.141
X0.182 Z-22.598
X0.204 Z-22.603
X2.504 Z-22.606
X9.006 Z-22.599
X10.355 Z-22.602
X15.168 Z-22.614
X20.491 Z-22.559
X24.319 Z-22.465
X27.16 Z-22.348
X28.321 Z-22.215
X30.013 Z-21.942
X31.593 Z-21.647
X33.452 Z-21.223
X33.652 Z-21.183
X34.488 Z-21.049
X35.022 Z-20.991
X35.433 Z-20.956
X36.737 Z-20.878
X37.386 Z-20.847
X38.021 Z-20.746
X38.423 Z-20.688
X39.673 Z-20.438
X39.875 Z-20.403
X40.72 Z-20.319
X41.254 Z-20.277
X42.011 Z-20.229
X43.392 Z-20.184
X43.722 Z-20.205
X44.871 Z-20.165
X45.363 Z-20.185
X46.019 Z-20.2
X46.833 Z-20.199
X47.27 Z-20.181
X48.66 Z-20.063
X50.301 Z-19.985
X51.395 Z-19.977
X52.653 Z-19.978
X53.462 Z-19.929
X54.599 Z-19.833
X54.968 Z-19.808
X56.88 Z-19.706
X58.193 Z-19.679
X59.177 Z-19.649
X60.326 Z-19.636
X60.709 Z-19.618
X61.956 Z-19.527
X62.716 Z-19.481
X63.427 Z-19.472
X64.849 Z-19.429
X65.544 Z-19.375
X66.802 Z-19.332
X68.06 Z-19.318
X68.538 Z-19.329
X68.962 Z-19.354
X69.022 Z-19.347
X69.569 Z-19.331
X71.319 Z-19.37
X72.571 Z-19.443
X73.063 Z-19.435
X74.321 Z-19.413
X75.853 Z-19.375
X76.454 Z-19.341
X77.256 Z-19.278
X77.957
X78.559 Z-19.301
X79.762 Z-19.336
X81.701 Z-19.338
X83.232 Z-19.396
X83.943 Z-19.442
X84.252 Z-19.476
X84.795 Z-19.525
X84.888 Z-19.538
X85.421 Z-19.51
X86.952 Z-19.461
X88.429 Z-19.428
X88.757 Z-19.439
X89.028 Z-19.456
X89.868 Z-19.561
X90.185 Z-19.604
X90.295 Z-19.627
X91.086 Z-19.612
X92.946 Z-19.635
X94.422 Z-19.648
X95.352 Z-19.682
X96.501 Z-19.74
X97.919 Z-19.853
X98.922 Z-19.837
X99.874 Z-19.684
X100.505 Z-19.559
X101.956 Z-19.225
X103.416 Z-18.924
X104.878 Z-18.588
X107.096 Z-18.025
X107.462 Z-17.97
X107.987 Z-17.867
X108.385 Z-17.793
X108.572 Z-17.744
X108.915 Z-17.679
X109.072 Z-17.666
X109.565 Z-17.679
X110.711 Z-17.614
X112.239 Z-17.575
X112.441 Z-17.553
X113.469 Z-17.491
X114.426 Z-17.48
X116.422 Z-17.526
X117.571 Z-17.558
X118.654 Z-17.574
X118.889 Z-17.554
X120.475 Z-17.45
X120.847 Z-17.431
X124.183 Z-17.381
X125.058 Z-17.351
X125.605 Z-17.336
X126.421 Z-17.381
X127.296 Z-17.397
X127.319 Z-17.391
X127.341 Z-17.386
X127.383
X127.399 Y3.143
X127.415 Y3.148
X127.43 Y3.157 Z-17.385
X127.441 Y3.169 Z-17.384
X127.45 Y3.183 Z-17.383
X127.456 Y3.199 Z-17.382
X127.458 Y3.216 Z-17.381
X127.456 Y3.232 Z-17.38
X127.45 Y3.248 Z-17.379
X127.441 Y3.262 Z-17.378
X127.43 Y3.274 Z-17.377
X127.415 Y3.283
X127.399 Y3.289 Z-17.376
X127.383 Y3.291
X127.361 Z-17.381
X127.338 Z-17.386
X126.353 Z-17.368
X125.482 Z-17.32
X124.881 Z-17.34
X121.982 Z-17.393
X120.56 Z-17.413
X118.927 Z-17.525
X118.725 Z-17.547
X118.073 Z-17.549
X116.597 Z-17.513
X115.229 Z-17.47
X114.573 Z-17.463
X113.479 Z-17.477
X112.503 Z-17.532
X112.14 Z-17.566
X110.773 Z-17.6
X109.505 Z-17.673
X108.998 Z-17.66
X108.774 Z-17.71
X108.37 Z-17.818
X107.877 Z-17.896
X107.444 Z-17.979
X107.285 Z-18.002
X105.071 Z-18.562
X103.4 Z-18.946
X101.778 Z-19.28
X100.593 Z-19.552
X99.856 Z-19.69
X99.009 Z-19.823
X97.915 Z-19.839
X96.488 Z-19.723
X95.449 Z-19.672
X94.41 Z-19.633
X92.878 Z-19.621
X90.855 Z-19.599
X90.307 Z-19.613
X90.14 Z-19.584
X89.088 Z-19.453
X88.38 Z-19.417
X86.958 Z-19.45
X85.481 Z-19.498
X84.934 Z-19.524
X84.179 Z-19.454
X83.871 Z-19.418
X83.16 Z-19.374
X81.684 Z-19.317
X79.752 Z-19.314
X78.603 Z-19.281
X78.056 Z-19.261
X77.232 Z-19.26
X76.43 Z-19.326
X75.993 Z-19.35
X74.735 Z-19.378
X72.93 Z-19.41
X72.602 Z-19.413
X71.58 Z-19.354
X70.869 Z-19.341
X69.611 Z-19.311
X69.01 Z-19.327
X68.797 Z-19.357
X68.327 Z-19.306
X67.999 Z-19.297
X66.796 Z-19.309
X65.538 Z-19.353
X64.898 Z-19.403
X63.44 Z-19.453
X62.729 Z-19.462
X62.243 Z-19.488
X61.214 Z-19.559
X60.339 Z-19.619
X59.081 Z-19.636
X58.096 Z-19.663
X57.002 Z-19.683
X54.817 Z-19.8
X54.288 Z-19.845
X52.756 Z-19.958
X50.131 Z-19.969
X48.6 Z-20.049
X47.333 Z-20.169
X46.952 Z-20.184
X46.005 Z-20.188
X45.458 Z-20.173
X44.884 Z-20.149
X43.943 Z-20.183
X43.467 Z-20.149
X42.107 Z-20.197
X41.349 Z-20.242
X40.815 Z-20.283
X40.018 Z-20.362
X39.875 Z-20.384
X38.625 Z-20.636
X37.568 Z-20.814
X37.302 Z-20.847
X35.524 Z-20.96
X34.682 Z-21.048
X34.162 Z-21.128
X33.845 Z-21.18
X33.493 Z-21.251
X31.588 Z-21.691
X30.008 Z-21.988
X28.739 Z-22.194
X27.535 Z-22.327
X24.858 Z-22.451
X20.483 Z-22.56
X15.233 Z-22.614
X9.838 Z-22.602
X6.953 Z-22.603
X0.74
X0.157 Z-22.602
X0.135 Z-22.597
X0.133 Z-22.596
X0.111 Z-22.591
X0.076
X0.044 Y3.298
X0.018 Y3.319
X0.003 Y3.349
Y3.382
X0.018 Y3.412
X0.044 Y3.433
X0.076 Y3.441
X0.098 Z-22.596
X0.12 Z-22.601
X2.366 Z-22.605
X8.127 Z-22.6
X9.267 Z-22.602
X15.221 Z-22.614
X20.471 Z-22.56
X24.792 Z-22.453
X26.105 Z-22.398
X27.961 Z-22.303
X29.07 Z-22.184
X30.022 Z-22.03
X31.285 Z-21.793
X31.809 Z-21.682
X33.668 Z-21.249
X34.078 Z-21.17
X34.703 Z-21.07
X35.841 Z-20.947
X37.392 Z-20.842
X38.239 Z-20.704
X38.497 Z-20.651
X39.783 Z-20.392
X40.328 Z-20.309
X40.803 Z-20.258
X41.28 Z-20.217
X42.257 Z-20.162
X43.528 Z-20.115
X44.132 Z-20.159
X44.898 Z-20.134
X45.117 Z-20.14
X45.992 Z-20.175
X47.173 Z-20.167
X48.648 Z-20.021
X49.961 Z-19.954
X52.695 Z-19.94
X53.551 Z-19.883
X54.628 Z-19.798
X57.032 Z-19.665
X59.001 Z-19.622
X59.712 Z-19.611
X60.423 Z-19.592
X61.352 Z-19.529
X62.217 Z-19.469
X62.756 Z-19.442
X63.467 Z-19.436
X64.919 Z-19.379
X65.505 Z-19.334
X66.818 Z-19.286
X68.13 Z-19.274
X68.758 Z-19.343
X68.796 Z-19.339
X69.052 Z-19.301
X69.626 Z-19.29
X70.911 Z-19.324
X71.814 Z-19.337
X72.637 Z-19.383
X72.91
X74.77 Z-19.354
X76.027 Z-19.326
X76.41 Z-19.31
X77.208 Z-19.242
X78.155 Z-19.244
X78.647 Z-19.26
X79.741 Z-19.293
X81.661 Z-19.296
X83.247 Z-19.358
X83.9 Z-19.404
X84.208 Z-19.446
X84.95 Z-19.509
X85.497 Z-19.488
X86.919 Z-19.44
X88.286 Z-19.408
X88.997 Z-19.441
X89.202 Z-19.456
X90.306 Z-19.595
X90.787 Z-19.587
X92.811 Z-19.608
X94.451 Z-19.619
X96.366 Z-19.699
X98.001 Z-19.833
X99.131 Z-19.806
X99.448 Z-19.76
X100.61 Z-19.559
X101.586 Z-19.338
X103.418 Z-18.961
X105.298 Z-18.528
X107.365 Z-18.003
X107.713 Z-17.937
X108.297 Z-17.853
X108.898 Z-17.698
X109.148 Z-17.672
X109.456 Z-17.667
X110.84 Z-17.585
X112.153 Z-17.553
X112.568 Z-17.511
X113.544 Z-17.46
X115.075 Z-17.443
X116.607 Z-17.494
X117.919 Z-17.527
X118.662 Z-17.526
X119.078 Z-17.485
X120.438 Z-17.393
X121.641 Z-17.374
X124.157 Z-17.333
X125.36 Z-17.303
X126.289 Z-17.355
X127.379 Z-17.376
X127.402 Z-17.371
X127.424 Z-17.366
X127.456
X127.473 Y3.443
X127.488 Y3.448 Z-17.365
X127.503 Y3.457
X127.515 Y3.469 Z-17.364
X127.524 Y3.483 Z-17.363
X127.529 Y3.499 Z-17.362
X127.531 Y3.516 Z-17.361
X127.529 Y3.532 Z-17.359
X127.524 Y3.548 Z-17.358
X127.515 Y3.562 Z-17.357
X127.503 Y3.574 Z-17.356
X127.488 Y3.583
X127.473 Y3.589 Z-17.355
X127.456 Y3.591
X127.434 Z-17.36
X127.411 Z-17.365
X126.317 Z-17.347
X125.228 Z-17.287
X122.002 Z-17.346
X120.416 Z-17.37
X119.876 Z-17.402
X119.11 Z-17.457
X118.64 Z-17.502
X117.765 Z-17.504
X116.562 Z-17.472
X115.222 Z-17.427
X113.554 Z-17.445
X112.625 Z-17.491
X112.103 Z-17.542
X110.954 Z-17.57
X109.588 Z-17.663
X109.109 Z-17.714
X108.839 Z-17.738
X108.597 Z-17.797
X108.287 Z-17.877
X107.505 Z-17.991
X105.486 Z-18.503
X103.397 Z-18.984
X101.402 Z-19.394
X100.786 Z-19.532
X99.412 Z-19.768
X99.306 Z-19.784
X97.997 Z-19.819
X96.241 Z-19.676
X94.436 Z-19.605
X92.686 Z-19.593
X90.827 Z-19.575
X90.314 Z-19.584
X89.188 Z-19.446
X88.215 Z-19.398
X86.793 Z-19.433
X84.917 Z-19.493
X84.166 Z-19.428
X83.752 Z-19.373
X83.095 Z-19.332
X81.619 Z-19.274
X79.731 Z-19.272
X78.747 Z-19.242
X78.254 Z-19.227
X77.184 Z-19.224
X76.332 Z-19.298
X74.964 Z-19.326
X72.886 Z-19.355
X72.668 Z-19.353
X72.048 Z-19.32
X70.954 Z-19.308
X69.675 Z-19.269
X69.04 Z-19.28
X68.849 Z-19.316
X68.743 Z-19.323
X68.134 Z-19.254
X66.876 Z-19.261
X65.509 Z-19.312
X64.704 Z-19.371
X63.495 Z-19.419
X62.729 Z-19.424
X62.298 Z-19.443
X61.378 Z-19.507
X60.449 Z-19.567
X59.409 Z-19.599
X58.863 Z-19.611
X57.058 Z-19.646
X54.654 Z-19.78
X52.72 Z-19.921
X49.766 Z-19.939
X48.673 Z-19.996
X47.101 Z-20.15
X45.978 Z-20.163
X44.939 Z-20.117
X44.376 Z-20.139
X43.596 Z-20.081
X42.407 Z-20.127
X41.157 Z-20.197
X40.707 Z-20.246
X39.775 Z-20.385
X39.575 Z-20.424
X38.802 Z-20.58
X38.35 Z-20.688
X37.398 Z-20.844
X36.041 Z-20.938
X35.472 Z-21.009
X34.808 Z-21.081
X34.229 Z-21.176
X33.713 Z-21.274
X32.367 Z-21.59
X31.438 Z-21.806
X30.069 Z-22.068
X29.435 Z-22.169
X28.432 Z-22.277
X26.467 Z-22.382
X24.826 Z-22.452
X20.505 Z-22.56
X15.203 Z-22.614
X8.695 Z-22.601
X1.75 Z-22.603
X0.086 Z-22.6
X0.064 Z-22.595
X0.062 Z-22.594
X0.04 Z-22.589
X0.014
X-0.019 Y3.598
X-0.045 Y3.619
X-0.059 Y3.649
Y3.682
X-0.045 Y3.712
X-0.019 Y3.733
X0.014 Y3.741
X0.036 Z-22.594
X0.058 Z-22.6
X1.954 Z-22.603
X8.123 Z-22.601
X15.254 Z-22.613
X20.504 Z-22.56
X24.824 Z-22.452
X26.574 Z-22.378
X28.868 Z-22.252
X29.603 Z-22.176
X30.028 Z-22.12
X31.396 Z-21.857
X32.022 Z-21.712
X32.742 Z-21.544
X33.717 Z-21.311
X34.395 Z-21.178
X34.702 Z-21.125
X35.009 Z-21.079
X35.436 Z-21.034
X36.217 Z-20.933
X37.355 Z-20.855
X38.412 Z-20.678
X39.13 Z-20.503
X39.635 Z-20.401
X39.953 Z-20.352
X41.193 Z-20.168
X42.447 Z-20.098
X43.657 Z-20.047
X44.542 Z-20.113
X44.953 Z-20.101
X46.025 Z-20.15
X47.009 Z-20.133
X48.688 Z-19.972
X49.563 Z-19.926
X52.79 Z-19.901
X54.366 Z-19.786
X57.086 Z-19.628
X59.109 Z-19.586
X60.203 Z-19.552
X61.297 Z-19.493
X62.217 Z-19.428
X62.757 Z-19.405
X63.523 Z-19.402
X64.433 Z-19.368
X65.513 Z-19.289
X66.88 Z-19.238
X68.022 Z-19.227
X68.244 Z-19.244
X68.765 Z-19.307
X69.029 Z-19.259
X69.738 Z-19.249
X70.996 Z-19.291
X72.309 Z-19.304
X72.801 Z-19.329
X75.052 Z-19.3
X76.364 Z-19.275
X77.16 Z-19.206
X78.299 Z-19.211
X78.736 Z-19.22
X79.721 Z-19.251
X81.636 Z-19.253
X83.222 Z-19.319
X83.711 Z-19.353
X84.125 Z-19.41
X84.907 Z-19.475
X85.728 Z-19.446
X86.498 Z-19.431
X88.139 Z-19.388
X89.123 Z-19.438
X89.392 Z-19.459
X90.312 Z-19.571
X90.859 Z-19.564
X92.609 Z-19.58
X94.468 Z-19.591
X96.218 Z-19.661
X97.512 Z-19.769
X98.104 Z-19.809
X99.413 Z-19.77
X100.681 Z-19.554
X101.196 Z-19.455
X103.401 Z-19.003
X105.594 Z-18.497
X107.142 Z-18.107
X107.627 Z-17.996
X108.27 Z-17.902
X108.712 Z-17.79
X109.085 Z-17.755
X109.296 Z-17.726
X109.603 Z-17.677
X109.912 Z-17.643
X110.272 Z-17.613
X111.022 Z-17.558
X112.168 Z-17.527
X112.689 Z-17.47
X113.346 Z-17.438
X115.533 Z-17.419
X116.518 Z-17.451
X117.666 Z-17.483
X118.731 Z-17.474
X119.253 Z-17.418
X119.855 Z-17.375
X120.394 Z-17.347
X121.871 Z-17.324
X124.988 Z-17.271
X125.253
X126.401 Z-17.335
X127.44 Z-17.355
X127.463 Z-17.35
X127.485 Z-17.345
X127.509
X127.525 Y3.743
X127.541 Y3.748 Z-17.344
X127.556 Y3.757
X127.567 Y3.769 Z-17.343
X127.576 Y3.783 Z-17.342
X127.582 Y3.799 Z-17.341
X127.584 Y3.816 Z-17.339
X127.582 Y3.832 Z-17.338
X127.576 Y3.848 Z-17.337
X127.567 Y3.862 Z-17.336
X127.556 Y3.874 Z-17.335
X127.541 Y3.883 Z-17.334
X127.525 Y3.889
X127.509 Y3.891
X127.487 Z-17.339
X127.464 Z-17.344
X126.479 Z-17.325
X126.221 Z-17.305
X125.136 Z-17.248
X121.691 Z-17.303
X120.323 Z-17.326
X119.729 Z-17.355
X119.208 Z-17.398
X118.675 Z-17.454
X117.512 Z-17.46
X115.872 Z-17.412
X114.723 Z-17.413
X113.903 Z-17.425
X113.082 Z-17.433
X112.657 Z-17.46
X112.08 Z-17.518
X111.096 Z-17.545
X110.211 Z-17.625
X109.631 Z-17.69
X108.96 Z-17.805
X108.635 Z-17.834
X108.446 Z-17.877
X108.25 Z-17.927
X107.825 Z-17.987
X107.625 Z-18.028
X106.951 Z-18.18
X105.771 Z-18.475
X103.369 Z-19.028
X101.269 Z-19.455
X100.962 Z-19.507
X99.589 Z-19.745
X99.21 Z-19.762
X98.27 Z-19.798
X97.674 Z-19.77
X96.486 Z-19.671
X96.337 Z-19.652
X94.422 Z-19.577
X92.508 Z-19.566
X90.813 Z-19.554
X90.321 Z-19.557
X89.866 Z-19.506
X89.547 Z-19.468
X89.17 Z-19.435
X88.022 Z-19.378
X86.436 Z-19.416
X85.85 Z-19.417
X84.924 Z-19.451
X84.844 Z-19.461
X84.083 Z-19.392
X83.563 Z-19.323
X82.907 Z-19.286
X81.54 Z-19.232
X79.71 Z-19.23
X78.78 Z-19.199
X78.234 Z-19.194
X77.136 Z-19.188
X76.448 Z-19.253
X75.148 Z-19.275
X72.843 Z-19.3
X72.515 Z-19.287
X70.984 Z-19.272
X69.699 Z-19.229
X69.07 Z-19.235
X68.92 Z-19.26
X68.769 Z-19.289
X68.248 Z-19.223
X67.977 Z-19.205
X66.884 Z-19.216
X65.516 Z-19.267
X64.109 Z-19.367
X63.551 Z-19.386
X62.73 Z-19.387
X62.135 Z-19.412
X60.832 Z-19.498
X59.356 Z-19.559
X57.934 Z-19.591
X57.114 Z-19.61
X54.555 Z-19.755
X52.815 Z-19.882
X49.37 Z-19.911
X48.713 Z-19.947
X47.034 Z-20.113
X46.162 Z-20.132
X44.969 Z-20.086
X44.751 Z-20.09
X43.725 Z-20.012
X42.543 Z-20.065
X41.44 Z-20.135
X41.114 Z-20.172
X39.875 Z-20.357
X39.485 Z-20.42
X38.442 Z-20.675
X37.385 Z-20.853
X36.842 Z-20.896
X36.404 Z-20.926
X35.353 Z-21.065
X35.033 Z-21.1
X34.726 Z-21.149
X33.894 Z-21.308
X33.696 Z-21.354
X32.653 Z-21.603
X31.423 Z-21.895
X30.161 Z-22.139
X29.361 Z-22.225
X26.684 Z-22.373
X24.825 Z-22.452
X20.504 Z-22.56
X15.254 Z-22.613
X6.397 Z-22.603
X0.036 Z-22.599
X0.014 Z-22.594
X0.012 Z-22.593
X-0.01 Z-22.588
X-0.029
X-0.061 Y3.898
X-0.087 Y3.919
X-0.102 Y3.949
Y3.982
X-0.087 Y4.012
X-0.061 Y4.033
X-0.029 Y4.041
X-0.007 Z-22.593
X0.015 Z-22.598
X5.82 Z-22.604
X15.32 Z-22.613
X20.516 Z-22.56
X24.836 Z-22.452
X26.805 Z-22.368
X29.755 Z-22.198
X30.503 Z-22.117
X31.344 Z-21.953
X32.793 Z-21.61
X33.929 Z-21.336
X34.14 Z-21.296
X35.056 Z-21.124
X35.364 Z-21.085
X36.593 Z-20.919
X37.055 Z-20.887
X37.379 Z-20.858
X38.436 Z-20.678
X39.467 Z-20.43
X39.909 Z-20.346
X41 Z-20.181
X41.57 Z-20.117
X43.032 Z-20.015
X43.79 Z-19.978
X44.972 Z-20.068
X46.175 Z-20.108
X46.965 Z-20.097
X48.741 Z-19.922
X49.233 Z-19.894
X52.788 Z-19.863
X54.747 Z-19.725
X57.251 Z-19.586
X58.399 Z-19.564
X59.602 Z-19.526
X60.86 Z-19.473
X62.053 Z-19.397
X62.703 Z-19.369
X63.578
X64.085 Z-19.352
X65.52 Z-19.244
X66.888 Z-19.193
X67.954 Z-19.182
X68.252 Z-19.202
X68.772 Z-19.271
X69.036 Z-19.215
X69.692 Z-19.208
X71.005 Z-19.254
X72.646 Z-19.269
X75.398 Z-19.245
X76.382 Z-19.235
X77.112 Z-19.171
X77.385 Z-19.172
X78.661 Z-19.177
X79.7 Z-19.209
X81.503 Z-19.21
X83.199 Z-19.279
X83.524 Z-19.303
X84.055 Z-19.376
X84.802 Z-19.444
X84.937 Z-19.427
X85.808 Z-19.392
X86.759 Z-19.394
X87.962 Z-19.368
X89.273 Z-19.437
X89.702 Z-19.477
X90.117 Z-19.527
X90.442 Z-19.549
X90.77 Z-19.544
X92.302 Z-19.55
X94.434 Z-19.563
X96.294 Z-19.637
X96.455 Z-19.649
X96.55 Z-19.664
X96.877 Z-19.697
X97.794 Z-19.762
X98.363 Z-19.785
X98.582 Z-19.777
X99.672 Z-19.734
X101.139 Z-19.475
X101.563 Z-19.411
X103.454 Z-19.03
X105.856 Z-18.474
X106.678 Z-18.274
X107.866 Z-18.007
X108.22 Z-17.953
X108.512 Z-17.884
X108.729 Z-17.864
X109.716 Z-17.697
X110.084 Z-17.654
X110.7 Z-17.578
X111.157 Z-17.534
X112.082 Z-17.506
X112.819 Z-17.429
X114.132 Z-17.416
X114.898 Z-17.403
X116.21 Z-17.404
X117.359 Z-17.438
X118.628 Z-17.431
X119.527 Z-17.341
X120.285 Z-17.303
X123.184 Z-17.259
X125.153 Z-17.227
X126.019 Z-17.275
X126.551 Z-17.314
X127.48 Z-17.333
X127.503 Z-17.328
X127.525 Z-17.323
X127.542
X127.559 Y4.043
X127.574 Y4.048 Z-17.322
X127.589 Y4.057
X127.601 Y4.069 Z-17.321
X127.61 Y4.083 Z-17.32
X127.615 Y4.099 Z-17.319
X127.617 Y4.116 Z-17.318
X127.615 Y4.132 Z-17.316
X127.61 Y4.148 Z-17.315
X127.601 Y4.162 Z-17.314
X127.589 Y4.174 Z-17.313
X127.574 Y4.183
X127.559 Y4.189 Z-17.312
X127.542 Y4.191
X127.52 Z-17.317
X127.497 Z-17.322
X126.567 Z-17.299
X126.202 Z-17.266
X125.117 Z-17.206
X123.64 Z-17.227
X120.249 Z-17.281
X119.538 Z-17.315
X118.706 Z-17.404
X117.205 Z-17.416
X116.494 Z-17.397
X115.017 Z-17.393
X114.306 Z-17.408
X113.322 Z-17.418
X112.884 Z-17.424
X112.351 Z-17.465
X112.022 Z-17.495
X111.256 Z-17.519
X110.914 Z-17.558
X110.288 Z-17.647
X109.814 Z-17.702
X108.51 Z-17.922
X108.33 Z-17.948
X108.213 Z-17.976
X108.001 Z-18.009
X106.348 Z-18.379
X103.435 Z-19.053
X101.965 Z-19.352
X101.117 Z-19.48
X99.861 Z-19.707
X99.647 Z-19.722
X98.443 Z-19.772
X97.803 Z-19.748
X96.776 Z-19.678
X96.4 Z-19.627
X94.446 Z-19.549
X90.782 Z-19.533
X90.454 Z-19.535
X90.059 Z-19.509
X89.642 Z-19.466
X89.213 Z-19.428
X87.845 Z-19.359
X87.025 Z-19.372
X85.985 Z-19.369
X85.766 Z-19.368
X85.059 Z-19.398
X84.799 Z-19.422
X84.759 Z-19.427
X84.108 Z-19.371
X83.375 Z-19.272
X81.57 Z-19.189
X79.69 Z-19.187
X78.76 Z-19.16
X77.416 Z-19.155
X77.088 Z-19.153
X76.356 Z-19.216
X74.606 Z-19.228
X72.911 Z-19.244
X72.657 Z-19.252
X71.016 Z-19.236
X69.703 Z-19.186
X69.047 Z-19.193
X68.857 Z-19.231
X68.752 Z-19.251
X68.218 Z-19.178
X67.865 Z-19.159
X66.88 Z-19.171
X65.513 Z-19.223
X64.664 Z-19.29
X64.069 Z-19.337
X63.606 Z-19.352
X62.676 Z-19.351
X61.972 Z-19.382
X60.341 Z-19.475
X58.153 Z-19.55
X57.278 Z-19.567
X54.884 Z-19.699
X53.636 Z-19.788
X52.816 Z-19.844
X50.772 Z-19.864
X50.401 Z-19.853
X49.581 Z-19.874
X49.034 Z-19.88
X48.815 Z-19.892
X47.135 Z-20.057
X46.815 Z-20.082
X46.288 Z-20.087
X45.131 Z-20.046
X44.989 Z-20.027
X43.855 Z-19.944
X43.423 Z-19.966
X42.736 Z-20.022
X41.813 Z-20.087
X40.924 Z-20.186
X40.208 Z-20.295
X39.519 Z-20.427
X39.309 Z-20.471
X38.487 Z-20.67
X37.325 Z-20.87
X36.782 Z-20.912
X35.199 Z-21.128
X33.957 Z-21.366
X32.822 Z-21.643
X31.269 Z-22.011
X30.743 Z-22.108
X29.554 Z-22.214
X26.714 Z-22.373
X24.8 Z-22.453
X20.534 Z-22.56
X15.339 Z-22.613
X5.572 Z-22.604
X0.005 Z-22.597
X-0.017 Z-22.592
X-0.019 Z-22.591
X-0.041 Z-22.586
X-0.045
X-0.077 Y4.198
X-0.103 Y4.219
X-0.118 Y4.249
Y4.282
X-0.103 Y4.312
X-0.077 Y4.333
X-0.045 Y4.341
X-0.023 Z-22.591
X-0.001 Z-22.597
X15.362 Z-22.613
X20.502 Z-22.561
X24.823 Z-22.453
X26.682 Z-22.375
X29.359 Z-22.227
X31.041 Z-22.087
X31.222 Z-22.063
X32.472 Z-21.766
X34.013 Z-21.39
X35.266 Z-21.149
X35.478 Z-21.114
X36.91 Z-20.913
X37.33 Z-20.873
X38.492 Z-20.671
X39.21 Z-20.5
X39.724 Z-20.393
X40.705 Z-20.21
X42.014 Z-20.061
X42.876 Z-19.999
X43.616 Z-19.931
X43.917 Z-19.91
X44.631 Z-19.955
X44.901 Z-19.976
X45.217 Z-20.022
X46.4 Z-20.066
X46.776 Z-20.064
X47.151 Z-20.032
X48.831 Z-19.868
X50.253 Z-19.819
X50.746 Z-19.83
X50.891 Z-19.843
X52.837 Z-19.824
X53.712 Z-19.765
X55.015 Z-19.673
X57.3 Z-19.55
X57.901 Z-19.536
X60.253 Z-19.454
X61.993 Z-19.36
X62.704 Z-19.333
X63.634 Z-19.335
X64.118 Z-19.319
X64.874 Z-19.253
X65.494 Z-19.202
X66.916 Z-19.147
X67.846 Z-19.136
X68.229 Z-19.158
X68.759 Z-19.232
X68.959 Z-19.187
X69.06 Z-19.17
X69.771 Z-19.163
X70.974 Z-19.216
X72.583 Z-19.235
X72.961 Z-19.218
X74.711 Z-19.199
X76.452 Z-19.193
X77.052 Z-19.136
X77.446 Z-19.138
X78.859 Z-19.143
X79.679 Z-19.166
X81.489 Z-19.168
X83.129 Z-19.238
X83.345 Z-19.254
X83.982 Z-19.342
X84.716 Z-19.41
X84.962 Z-19.38
X85.697 Z-19.345
X86.162 Z-19.35
X87.756 Z-19.348
X89.26 Z-19.425
X89.904 Z-19.485
X90.452 Z-19.52
X90.78 Z-19.522
X94.445 Z-19.535
X96.447 Z-19.615
X96.829 Z-19.672
X97.813 Z-19.734
X98.628 Z-19.762
X99.693 Z-19.712
X99.963 Z-19.692
X101.112 Z-19.482
X102.278 Z-19.306
X103.434 Z-19.072
X105.825 Z-18.519
X106.433 Z-18.388
X108.102 Z-18.019
X109.908 Z-17.707
X110.169 Z-17.675
X111.314 Z-17.51
X111.916 Z-17.49
X112.299 Z-17.471
X113.222 Z-17.418
X113.988 Z-17.409
X115.082 Z-17.383
X117.092 Z-17.393
X118.711 Z-17.379
X119.137 Z-17.333
X119.655 Z-17.285
X120.202 Z-17.259
X123.647 Z-17.204
X125.124 Z-17.186
X126.209 Z-17.248
X126.627 Z-17.287
X127.502 Z-17.311
X127.525 Z-17.306
X127.547 Z-17.301
X127.552
X127.569 Y4.343
X127.585 Y4.348 Z-17.3
X127.599 Y4.357
X127.611 Y4.369 Z-17.299
X127.62 Y4.383 Z-17.298
X127.626 Y4.399 Z-17.296
X127.627 Y4.416 Z-17.295
X127.626 Y4.432 Z-17.294
X127.62 Y4.448 Z-17.293
X127.611 Y4.462 Z-17.292
X127.599 Y4.474 Z-17.291
X127.585 Y4.483 Z-17.29
X127.569 Y4.489
X127.552 Y4.491
X127.53 Z-17.295
X127.507 Z-17.3
X126.631 Z-17.27
X126.16 Z-17.227
X125.075 Z-17.165
X123.489 Z-17.183
X120.207 Z-17.235
X119.77 Z-17.256
X118.928 Z-17.331
X118.619 Z-17.359
X117.361 Z-17.376
X117.04 Z-17.384
X115.191 Z-17.374
X114.142 Z-17.403
X113.595 Z-17.41
X112.397 Z-17.476
X111.741 Z-17.502
X111.471 Z-17.516
X111.266 Z-17.537
X110.47 Z-17.647
X109.856 Z-17.738
X108.28 Z-18.013
X106.442 Z-18.421
X106.23 Z-18.459
X105.215 Z-18.68
X103.45 Z-19.087
X102.61 Z-19.257
X101.02 Z-19.498
X100.082 Z-19.671
X99.762 Z-19.703
X98.747 Z-19.75
X97.872 Z-19.723
X96.893 Z-19.661
X96.475 Z-19.603
X94.465 Z-19.521
X90.749 Z-19.511
X90.49 Z-19.508
X89.833 Z-19.472
X89.253 Z-19.42
X87.842 Z-19.338
X87.514 Z-19.33
X86.175 Z-19.327
X85.628 Z-19.321
X84.921 Z-19.363
X84.674 Z-19.393
X83.941 Z-19.324
X83.184 Z-19.222
X81.504 Z-19.148
X79.669 Z-19.145
X79.013 Z-19.126
X77.532 Z-19.122
X77.026 Z-19.118
X76.363 Z-19.178
X75.307 Z-19.166
X73.065 Z-19.188
X72.574 Z-19.218
X70.988 Z-19.197
X69.784 Z-19.141
X69.074 Z-19.147
X68.964 Z-19.164
X68.759 Z-19.211
X68.228 Z-19.138
X67.845 Z-19.113
X66.915 Z-19.124
X65.493 Z-19.181
X64.88 Z-19.236
X64.014 Z-19.308
X63.607 Z-19.318
X62.732 Z-19.315
X61.914 Z-19.342
X60.221 Z-19.431
X57.65 Z-19.522
X57.215 Z-19.538
X55.147 Z-19.648
X53.68 Z-19.749
X52.859 Z-19.805
X51.006 Z-19.823
X50.861 Z-19.804
X50.137 Z-19.785
X48.933 Z-19.827
X47.788 Z-19.945
X46.741 Z-20.047
X46.184 Z-20.035
X45.309 Z-20.001
X45.218 Z-19.982
X44.793 Z-19.923
X44.359 Z-19.891
X44.031 Z-19.882
X43.825 Z-19.895
X42.817 Z-19.989
X42.277 Z-20.029
X41.09 Z-20.164
X40.675 Z-20.22
X39.749 Z-20.395
X39.119 Z-20.526
X38.505 Z-20.671
X37.238 Z-20.89
X36.607 Z-20.975
X35.368 Z-21.16
X34.069 Z-21.415
X32.274 Z-21.854
X31.44 Z-22.052
X29.4 Z-22.225
X26.723 Z-22.374
X24.809 Z-22.453
X20.543 Z-22.561
X15.403 Z-22.613
X-0.006 Z-22.596
X-0.028 Z-22.591
X-0.029 Z-22.59
X-0.051 Z-22.585
X-0.054
X-0.086 Y4.498
X-0.113 Y4.519
X-0.127 Y4.549
Y4.582
X-0.113 Y4.612
X-0.086 Y4.633
X-0.054 Y4.641
X-0.032 Z-22.59
X-0.01 Z-22.595
X15.45 Z-22.613
X20.536 Z-22.561
X24.802 Z-22.453
X26.716 Z-22.375
X29.174 Z-22.239
X30.156 Z-22.165
X31.715 Z-22.025
X32.237 Z-21.901
X34.205 Z-21.421
X35.422 Z-21.181
X37.037 Z-20.94
X37.411 Z-20.865
X38.596 Z-20.656
X39.049 Z-20.547
X39.832 Z-20.386
X40.653 Z-20.231
X41.61 Z-20.106
X42.429 Z-20.009
X42.788 Z-19.978
X43.928 Z-19.868
X44.63 Z-19.865
X45.247 Z-19.948
X45.404 Z-19.98
X46.731 Z-20.028
X48.118 Z-19.89
X48.745 Z-19.815
X49.004 Z-19.789
X49.989 Z-19.751
X50.972 Z-19.778
X51.128 Z-19.807
X52.908 Z-19.785
X54.211 Z-19.694
X55.35 Z-19.616
X57.312 Z-19.516
X60.208 Z-19.408
X62.066 Z-19.311
X62.23 Z-19.313
X62.76 Z-19.297
X63.786 Z-19.301
X64.333 Z-19.268
X65.445 Z-19.164
X66.915 Z-19.102
X67.79 Z-19.091
X68.172 Z-19.113
X68.333 Z-19.129
X68.758 Z-19.189
X69.032 Z-19.129
X69.798 Z-19.119
X71.165 Z-19.183
X72.464 Z-19.201
X73.115 Z-19.161
X75.357 Z-19.138
X76.396 Z-19.158
X77.003 Z-19.1
X77.563 Z-19.106
X79.112 Z-19.109
X79.659 Z-19.124
X81.529 Z-19.128
X83.113 Z-19.198
X83.941 Z-19.312
X84.583 Z-19.372
X84.94 Z-19.338
X85.586 Z-19.297
X86.133 Z-19.304
X87.675 Z-19.314
X88.112 Z-19.348
X89.357 Z-19.422
X89.775 Z-19.461
X90.432 Z-19.49
X90.747 Z-19.5
X91.676
X94.475 Z-19.507
X96.499 Z-19.59
X96.604 Z-19.602
X96.86 Z-19.64
X97.882 Z-19.708
X98.853 Z-19.737
X99.673 Z-19.7
X100.26 Z-19.637
X100.987 Z-19.505
X102.895 Z-19.215
X103.42 Z-19.113
X104.663 Z-18.828
X106.214 Z-18.493
X106.425 Z-18.458
X107.576 Z-18.206
X108.497 Z-18.002
X110.176 Z-17.706
X111.336 Z-17.553
X111.757 Z-17.515
X112.085 Z-17.5
X113.884 Z-17.406
X114.267 Z-17.397
X115.381 Z-17.365
X117.126 Z-17.386
X117.224 Z-17.378
X117.825 Z-17.353
X118.591 Z-17.335
X119.715 Z-17.241
X120.132 Z-17.214
X123.304 Z-17.164
X125.109 Z-17.144
X126.14 Z-17.207
X126.664 Z-17.256
X127.51 Z-17.282
X127.534 Z-17.277
X127.556 Z-17.272
X127.572 Y4.643 Z-17.271
X127.588 Y4.648
X127.603 Y4.657 Z-17.27
X127.615 Y4.669 Z-17.268
X127.624 Y4.683 Z-17.266
X127.629 Y4.699 Z-17.264
X127.631 Y4.716 Z-17.262
X127.629 Y4.732 Z-17.26
X127.624 Y4.748 Z-17.258
X127.615 Y4.762 Z-17.257
X127.603 Y4.774 Z-17.255
X127.588 Y4.783 Z-17.254
X127.572 Y4.789 Z-17.253
X127.556 Y4.791
X127.554
X127.532 Z-17.258
X127.51 Z-17.263
X127.138 Z-17.26
X126.701 Z-17.242
X126.176 Z-17.191
X125.093 Z-17.124
X123.124 Z-17.144
X120.116 Z-17.191
X119.747 Z-17.219
X118.593 Z-17.319
X117.39 Z-17.363
X117.075 Z-17.386
X115.472 Z-17.368
X114.214 Z-17.4
X111.989 Z-17.519
X111.352 Z-17.576
X110.203 Z-17.728
X109.263 Z-17.892
X108.735 Z-17.987
X108.023 Z-18.141
X106.558 Z-18.463
X106.031 Z-18.56
X104.072 Z-18.984
X103.351 Z-19.146
X101.02 Z-19.499
X100.398 Z-19.608
X99.598 Z-19.697
X98.985 Z-19.726
X97.788 Z-19.688
X96.87 Z-19.624
X96.615 Z-19.586
X96.454 Z-19.574
X94.54 Z-19.495
X92.221 Z-19.493
X90.799 Z-19.489
X90.483 Z-19.478
X89.663 Z-19.445
X89.297 Z-19.412
X88.378 Z-19.357
X87.613 Z-19.297
X86.3 Z-19.285
X85.507 Z-19.274
X84.891 Z-19.315
X84.634 Z-19.343
X84.418 Z-19.344
X83.894 Z-19.294
X83.078 Z-19.178
X82.861 Z-19.165
X81.549 Z-19.108
X79.648 Z-19.103
X79.211 Z-19.092
X77.594 Z-19.089
X76.978 Z-19.083
X76.53 Z-19.126
X76.184 Z-19.128
X75.363 Z-19.111
X73.176 Z-19.134
X72.306 Z-19.183
X71.342 Z-19.168
X69.811 Z-19.097
X69.042 Z-19.106
X68.748 Z-19.167
X68.329 Z-19.108
X68.114 Z-19.089
X67.785 Z-19.068
X66.965 Z-19.077
X65.488 Z-19.139
X64.484 Z-19.239
X63.773 Z-19.284
X62.787 Z-19.279
X62.295 Z-19.289
X62.097 Z-19.286
X60.184 Z-19.385
X57.34 Z-19.495
X55.49 Z-19.59
X54.242 Z-19.677
X53.596 Z-19.721
X52.94 Z-19.765
X51.238 Z-19.788
X51.135 Z-19.761
X51.008 Z-19.749
X49.86 Z-19.717
X49.095 Z-19.749
X48.687 Z-19.79
X47.847 Z-19.893
X46.717 Z-20.001
X45.485 Z-19.956
X45.38 Z-19.933
X45.276 Z-19.914
X44.745 Z-19.842
X43.925 Z-19.851
X42.574 Z-19.991
X40.634 Z-20.24
X39.918 Z-20.376
X38.972 Z-20.57
X38.567 Z-20.663
X37.721 Z-20.813
X36.916 Z-20.986
X35.538 Z-21.191
X34.368 Z-21.423
X33.164 Z-21.719
X31.983 Z-21.999
X31.127 Z-22.084
X29.219 Z-22.237
X26.707 Z-22.376
X24.793 Z-22.454
X20.527 Z-22.561
X15.495 Z-22.612
X-0.01 Z-22.594
X-0.032 Z-22.589
X-0.033 Z-22.588
X-0.055 Z-22.583
X-0.088 Y4.798
X-0.114 Y4.819
X-0.129 Y4.849
Y4.882
X-0.114 Y4.912
X-0.088 Y4.933
X-0.055 Y4.941
X-0.054
X-0.032 Z-22.588
X-0.01 Z-22.594
X15.488 Z-22.612
X20.52 Z-22.562
X24.84 Z-22.453
X26.754 Z-22.375
X29.157 Z-22.241
X31.393 Z-22.062
X32.245 Z-21.973
X32.389 Z-21.938
X33.527 Z-21.672
X34.628 Z-21.403
X35.588 Z-21.213
X36.753 Z-21.036
X38.041 Z-20.759
X38.622 Z-20.655
X38.925 Z-20.586
X39.87 Z-20.394
X40.491 Z-20.273
X40.692 Z-20.239
X42.181 Z-20.049
X43.114 Z-19.919
X43.926 Z-19.834
X44.88 Z-19.822
X45.304 Z-19.879
X45.566 Z-19.933
X46.577 Z-19.969
X46.793
X47.523 Z-19.902
X48.79 Z-19.745
X49.209 Z-19.706
X49.756 Z-19.683
X50.904 Z-19.714
X51.175 Z-19.729
X51.348 Z-19.769
X52.958 Z-19.746
X53.669 Z-19.698
X54.315 Z-19.657
X55.628 Z-19.564
X57.696 Z-19.459
X60.103 Z-19.364
X61.142 Z-19.314
X61.741 Z-19.285
X62.146 Z-19.259
X62.417 Z-19.268
X62.8 Z-19.262
X63.839 Z-19.267
X64.443 Z-19.224
X65.504 Z-19.117
X66.981 Z-19.054
X67.746 Z-19.045
X68.264 Z-19.079
X68.739 Z-19.145
X69.058 Z-19.083
X69.824 Z-19.075
X71.519 Z-19.153
X72.235 Z-19.165
X73.268 Z-19.105
X75.345 Z-19.083
X76.111 Z-19.1
X76.571 Z-19.097
X76.947 Z-19.065
X77.629 Z-19.072
X79.2 Z-19.076
X79.692 Z-19.083
X81.559 Z-19.088
X82.871 Z-19.144
X83.127 Z-19.169
X83.848 Z-19.275
X84.246 Z-19.315
X84.519 Z-19.318
X84.831 Z-19.293
X85.461 Z-19.25
X86.24 Z-19.267
X87.553 Z-19.28
X88.537 Z-19.357
X89.292 Z-19.407
X89.55 Z-19.429
X90.534 Z-19.466
X90.851 Z-19.477
X92.382 Z-19.484
X94.604 Z-19.485
X96.572 Z-19.565
X96.88 Z-19.607
X97.798 Z-19.674
X99.035 Z-19.712
X99.527 Z-19.694
X100.54 Z-19.579
X100.952 Z-19.513
X103.534 Z-19.123
X105.936 Z-18.609
X106.254 Z-18.555
X106.674 Z-18.472
X108.14 Z-18.151
X108.994 Z-17.967
X109.98 Z-17.792
X110.393 Z-17.727
X111.33 Z-17.602
X112.291 Z-17.517
X114.58 Z-17.393
X115.62 Z-17.37
X117.061 Z-17.387
X117.449 Z-17.357
X118.543 Z-17.314
X119.079 Z-17.267
X120.098 Z-17.169
X122.723 Z-17.127
X125.075 Z-17.103
X126.106 Z-17.168
X126.737 Z-17.228
X127.175 Z-17.247
X127.51 Z-17.245
X127.532 Z-17.24
X127.554 Z-17.235
X127.57 Y4.943 Z-17.234
X127.586 Y4.948
X127.601 Y4.957 Z-17.233
X127.613 Y4.969 Z-17.231
X127.622 Y4.983 Z-17.229
X127.627 Y4.999 Z-17.227
X127.629 Y5.016 Z-17.225
X127.627 Y5.032 Z-17.223
X127.622 Y5.048 Z-17.221
X127.613 Y5.062 Z-17.22
X127.601 Y5.074 Z-17.218
X127.586 Y5.083 Z-17.217
X127.57 Y5.089 Z-17.216
X127.554 Y5.091
X127.553
X127.531 Z-17.221
X127.51 Z-17.226
X127.102 Z-17.231
X126.774 Z-17.214
X126.035 Z-17.145
X125.059 Z-17.082
X122.434 Z-17.108
X120.246 Z-17.147
X119.944 Z-17.172
X118.552 Z-17.307
X117.567 Z-17.347
X117.036 Z-17.388
X115.71 Z-17.374
X114.836 Z-17.394
X112.5 Z-17.524
X111.334 Z-17.627
X110.599 Z-17.724
X109.974 Z-17.82
X109.198 Z-17.959
X108.229 Z-18.166
X106.868 Z-18.465
X106.238 Z-18.592
X105.815 Z-18.664
X103.73 Z-19.11
X101.767 Z-19.389
X100.718 Z-19.546
X99.441 Z-19.691
X99.222 Z-19.701
X97.807 Z-19.659
X96.836 Z-19.585
X96.582 Z-19.552
X94.723 Z-19.475
X92.489
X90.848 Z-19.466
X89.396 Z-19.408
X87.491 Z-19.263
X86.069 Z-19.245
X85.399 Z-19.226
X84.714 Z-19.277
X84.512 Z-19.29
X84.074 Z-19.286
X83.708 Z-19.244
X83.094 Z-19.149
X82.88 Z-19.126
X82.499 Z-19.106
X81.57 Z-19.067
X79.669 Z-19.06
X77.522 Z-19.053
X76.921 Z-19.048
X76.619 Z-19.067
X76.093 Z-19.073
X75.328 Z-19.056
X73.359 Z-19.075
X72.161 Z-19.148
X71.587 Z-19.133
X69.837 Z-19.052
X69.072 Z-19.061
X68.922 Z-19.088
X68.745 Z-19.126
X68.321 Z-19.064
X67.695 Z-19.022
X66.957 Z-19.033
X65.535 Z-19.093
X64.745 Z-19.179
X64.048 Z-19.235
X63.46 Z-19.246
X62.804 Z-19.244
X62.53 Z-19.246
X62.182 Z-19.234
X61.86 Z-19.259
X61.042 Z-19.296
X60.002 Z-19.343
X58.034 Z-19.423
X55.747 Z-19.539
X54.325 Z-19.64
X53.569 Z-19.688
X52.967 Z-19.727
X51.458 Z-19.75
X51.312 Z-19.718
X50.921 Z-19.68
X49.746 Z-19.647
X49.254 Z-19.67
X48.727 Z-19.72
X47.366 Z-19.892
X46.773 Z-19.94
X46.546 Z-19.942
X45.648 Z-19.909
X45.439 Z-19.862
X45.015 Z-19.802
X43.922 Z-19.818
X43.458 Z-19.867
X42.478 Z-20.014
X40.671 Z-20.249
X40.47 Z-20.283
X39.849 Z-20.405
X38.799 Z-20.62
X38.295 Z-20.72
X36.524 Z-21.1
X35.676 Z-21.229
X34.95 Z-21.37
X33.825 Z-21.641
X32.478 Z-21.95
X31.494 Z-22.054
X29.149 Z-22.242
X26.746 Z-22.376
X24.831 Z-22.453
X20.566 Z-22.561
X15.534 Z-22.612
X-0.01 Z-22.593
X-0.032 Z-22.588
X-0.033 Z-22.587
X-0.055 Z-22.582
X-0.088 Y5.098
X-0.114 Y5.119
X-0.129 Y5.149
Y5.182
X-0.114 Y5.212
X-0.088 Y5.233
X-0.055 Y5.241
X-0.054
X-0.032 Z-22.587
X-0.01 Z-22.592
X15.558 Z-22.612
X20.535 Z-22.562
X24.8 Z-22.454
X26.769 Z-22.375
X29.117 Z-22.245
X31.681 Z-22.039
X32.8 Z-21.915
X33.879 Z-21.665
X35.155 Z-21.363
X35.73 Z-21.25
X36.154 Z-21.187
X36.574 Z-21.107
X38.565 Z-20.677
X39.919 Z-20.399
X40.529 Z-20.279
X40.742 Z-20.248
X42.654 Z-19.993
X43.702 Z-19.83
X43.976 Z-19.797
X45.15 Z-19.782
X45.415 Z-19.818
X45.52 Z-19.838
X45.729 Z-19.885
X46.543 Z-19.915
X46.871 Z-19.907
X47.409 Z-19.862
X47.716 Z-19.819
X48.769 Z-19.683
X49.296 Z-19.634
X49.723 Z-19.611
X50.83 Z-19.642
X51.073 Z-19.673
X51.393 Z-19.7
X51.562 Z-19.729
X52.987 Z-19.708
X53.534 Z-19.673
X54.344 Z-19.623
X55.876 Z-19.513
X58.053 Z-19.403
X60.843 Z-19.283
X61.825 Z-19.239
X62.231 Z-19.207
X62.753 Z-19.229
X63.245 Z-19.226
X64.064 Z-19.211
X64.556 Z-19.18
X64.808 Z-19.152
X65.558 Z-19.07
X67.004 Z-19.008
X67.661 Z-18.999
X68.261 Z-19.038
X68.526 Z-19.072
X68.736 Z-19.105
X68.935 Z-19.063
X69.085 Z-19.038
X69.905 Z-19.03
X72.089 Z-19.131
X73.451 Z-19.046
X75.31 Z-19.029
X76.021 Z-19.045
X76.896 Z-19.03
X77.579 Z-19.035
X81.578 Z-19.047
X82.699 Z-19.094
X83.048 Z-19.127
X83.46 Z-19.193
X83.972 Z-19.263
X84.492
X84.752 Z-19.245
X85.345 Z-19.206
X85.947 Z-19.225
X87.423 Z-19.246
X89.325 Z-19.397
X90.846 Z-19.454
X92.596 Z-19.466
X94.783 Z-19.465
X96.615 Z-19.539
X96.792 Z-19.561
X97.812 Z-19.645
X99.343 Z-19.689
X99.921 Z-19.627
X101.049 Z-19.501
X103.915 Z-19.096
X105.172 Z-18.831
X105.791 Z-18.7
X106.215 Z-18.63
X106.845 Z-18.503
X108.206 Z-18.207
X109.443 Z-17.942
X109.96 Z-17.849
X110.702 Z-17.736
X111.259 Z-17.66
X112.595 Z-17.541
X112.965 Z-17.514
X115.092 Z-17.394
X115.858 Z-17.377
X117.012 Z-17.389
X117.713 Z-17.333
X118.586 Z-17.297
X120.018 Z-17.157
X120.504 Z-17.132
X122.637 Z-17.084
X125.043 Z-17.062
X126.071 Z-17.129
X126.714 Z-17.191
X127.029 Z-17.214
X127.51 Z-17.208
X127.531 Z-17.203
X127.553 Z-17.198
X127.57 Y5.243
X127.586 Y5.248 Z-17.197
X127.6 Y5.257 Z-17.196
X127.612 Y5.269 Z-17.194
X127.621 Y5.283 Z-17.193
X127.627 Y5.299 Z-17.191
X127.629 Y5.316 Z-17.189
X127.627 Y5.332 Z-17.186
X127.621 Y5.348 Z-17.185
X127.612 Y5.362 Z-17.183
X127.6 Y5.374 Z-17.181
X127.586 Y5.383 Z-17.18
X127.57 Y5.389
X127.553 Y5.391 Z-17.179
X127.531 Z-17.184
X127.51 Z-17.189
X126.963 Z-17.198
X126.003 Z-17.106
X125.027 Z-17.041
X123.168 Z-17.058
X120.925 Z-17.11
X119.947 Z-17.157
X118.513 Z-17.294
X117.81 Z-17.324
X117.013 Z-17.39
X116.003 Z-17.38
X115.292 Z-17.398
X113.329 Z-17.512
X112.903 Z-17.54
X111.289 Z-17.68
X110.579 Z-17.781
X109.943 Z-17.878
X109.554 Z-17.954
X108.306 Z-18.22
X106.84 Z-18.537
X105.903 Z-18.716
X105.586 Z-18.771
X104.234 Z-19.062
X102.962 Z-19.248
X101.29 Z-19.477
X100.745 Z-19.528
X99.409 Z-19.677
X97.773 Z-19.627
X96.803 Z-19.545
X96.655 Z-19.527
X94.851 Z-19.455
X92.757 Z-19.458
X90.798 Z-19.437
X89.267 Z-19.384
X87.401 Z-19.229
X85.842 Z-19.206
X85.35 Z-19.19
X84.918 Z-19.207
X84.503 Z-19.235
X83.818
X82.956 Z-19.1
X82.661 Z-19.072
X81.624 Z-19.027
X77.689 Z-19.018
X76.923 Z-19.008
X75.949 Z-19.017
X75.292 Z-19.001
X73.542 Z-19.017
X72.074 Z-19.11
X69.888 Z-19.008
X69.068 Z-19.017
X68.719 Z-19.083
X68.34 Z-19.025
X67.652 Z-18.976
X66.996 Z-18.986
X65.574 Z-19.048
X64.897 Z-19.122
X64.539 Z-19.164
X64.156 Z-19.183
X63.031 Z-19.206
X62.754 Z-19.203
X62.317 Z-19.18
X61.788 Z-19.22
X60.641 Z-19.27
X58.399 Z-19.368
X56.102 Z-19.48
X54.362 Z-19.606
X53.442 Z-19.662
X53.004 Z-19.688
X51.669 Z-19.709
X51.518 Z-19.688
X51.027 Z-19.645
X50.826 Z-19.614
X50.72 Z-19.604
X49.736 Z-19.574
X49.408 Z-19.592
X48.665 Z-19.662
X47.837 Z-19.772
X47.424 Z-19.835
X46.884 Z-19.877
X46.556 Z-19.889
X45.81 Z-19.862
X45.47 Z-19.787
X45.231 Z-19.759
X44.084 Z-19.78
X43.795 Z-19.818
X42.631 Z-19.999
X40.506 Z-20.289
X38.868 Z-20.622
X36.586 Z-21.121
X35.956 Z-21.245
X35.649 Z-21.296
X35.262 Z-21.382
X33.485 Z-21.786
X33.067 Z-21.879
X31.897 Z-22.015
X29.18 Z-22.242
X26.777 Z-22.376
X24.808 Z-22.454
X20.543 Z-22.562
X15.62 Z-22.612
X-0.01 Z-22.591
X-0.032 Z-22.586
X-0.033 Z-22.585
X-0.055 Z-22.58
X-0.088 Y5.398
X-0.114 Y5.419
X-0.129 Y5.449
Y5.482
X-0.114 Y5.512
X-0.088 Y5.533
X-0.055 Y5.541
X-0.054
X-0.032 Z-22.585
X-0.01 Z-22.591
X0.444
X15.626 Z-22.612
X20.548 Z-22.562
X24.814 Z-22.454
X26.838 Z-22.373
X29.186 Z-22.242
X31.838 Z-22.013
X33.224 Z-21.861
X35.621 Z-21.337
X36.135 Z-21.23
X37.394 Z-20.964
X38.743 Z-20.66
X40.485 Z-20.299
X42.608 Z-20.004
X43.869 Z-19.811
X44.328 Z-19.756
X45.094 Z-19.741
X45.42 Z-19.743
X45.578 Z-19.767
X45.891 Z-19.838
X46.54 Z-19.862
X46.923 Z-19.846
X47.41 Z-19.81
X48.035 Z-19.714
X48.662 Z-19.63
X49.415 Z-19.559
X49.73 Z-19.538
X50.605 Z-19.565
X50.711 Z-19.575
X51.018 Z-19.622
X51.766 Z-19.689
X52.969 Z-19.67
X53.352 Z-19.651
X54.382 Z-19.589
X56.231 Z-19.455
X58.966 Z-19.322
X61.806 Z-19.198
X62.308 Z-19.155
X62.988 Z-19.187
X64.192 Z-19.155
X64.574 Z-19.143
X65.043 Z-19.084
X65.593 Z-19.026
X66.987 Z-18.964
X67.589 Z-18.954
X68.3 Z-19
X68.512 Z-19.028
X68.723 Z-19.064
X69.056 Z-18.997
X69.931 Z-18.985
X72.102 Z-19.085
X73.619 Z-18.989
X75.315 Z-18.974
X76.02 Z-18.993
X76.307 Z-18.997
X76.963 Z-18.984
X77.838 Z-19.002
X79.665
X81.634 Z-19.007
X82.522 Z-19.044
X82.991 Z-19.088
X83.403 Z-19.156
X83.815 Z-19.218
X83.933 Z-19.214
X84.425 Z-19.208
X84.745 Z-19.194
X85.292 Z-19.176
X85.675 Z-19.185
X86.714 Z-19.203
X87.37 Z-19.219
X89.209 Z-19.372
X90.85 Z-19.426
X92.864 Z-19.449
X94.931 Z-19.445
X96.626 Z-19.512
X97.855 Z-19.617
X99.277 Z-19.66
X99.571 Z-19.656
X100.743 Z-19.524
X101.681 Z-19.442
X103.274 Z-19.219
X104.44 Z-19.045
X105.477 Z-18.823
X105.688 Z-18.786
X106.941 Z-18.546
X108.303 Z-18.256
X109.655 Z-17.967
X110.044 Z-17.89
X111.273 Z-17.707
X113.105 Z-17.548
X115.603 Z-17.394
X116.095 Z-17.384
X116.974 Z-17.391
X117.888 Z-17.317
X118.375 Z-17.294
X119.865 Z-17.159
X121.28 Z-17.092
X122.702 Z-17.061
X123.413 Z-17.037
X124.999 Z-17.02
X125.928 Z-17.082
X126.963 Z-17.181
X127.51 Z-17.171
X127.531 Z-17.166
X127.553 Z-17.161
X127.57 Y5.543
X127.586 Y5.548 Z-17.16
X127.6 Y5.557 Z-17.159
X127.612 Y5.569 Z-17.157
X127.621 Y5.583 Z-17.156
X127.627 Y5.599 Z-17.154
X127.629 Y5.616 Z-17.152
X127.627 Y5.632 Z-17.15
X127.621 Y5.648 Z-17.148
X127.612 Y5.662 Z-17.146
X127.6 Y5.674 Z-17.144
X127.586 Y5.683 Z-17.143
X127.57 Y5.689
X127.553 Y5.691 Z-17.142
X127.531 Z-17.147
X127.51 Z-17.153
X126.963 Z-17.165
X125.728 Z-17.048
X124.99 Z-17
X123.705 Z-17.013
X122.884 Z-17.047
X121.517 Z-17.077
X119.822 Z-17.156
X118.326 Z-17.289
X118.004 Z-17.306
X116.969 Z-17.392
X116.242 Z-17.386
X115.804 Z-17.398
X113.308 Z-17.556
X111.269 Z-17.733
X110.044 Z-17.929
X109.633 Z-18.007
X108.396 Z-18.271
X107.138 Z-18.536
X105.265 Z-18.897
X104.636 Z-19.03
X103.471 Z-19.206
X101.878 Z-19.424
X101.251 Z-19.48
X100.621 Z-19.534
X99.662 Z-19.642
X99.254 Z-19.646
X97.942 Z-19.607
X96.67 Z-19.5
X95.029 Z-19.435
X92.971 Z-19.439
X90.838 Z-19.413
X89.197 Z-19.364
X87.412 Z-19.216
X86.537 Z-19.182
X85.553 Z-19.165
X85.279 Z-19.16
X84.186 Z-19.195
X83.896 Z-19.209
X83.68 Z-19.189
X82.962 Z-19.069
X82.534 Z-19.027
X82.317 Z-19.013
X81.66 Z-18.987
X79.965 Z-18.978
X79.527 Z-18.982
X78.535 Z-18.988
X77.441 Z-18.974
X77.003 Z-18.961
X76.511 Z-18.977
X76.074 Z-18.978
X75.775 Z-18.958
X75.228 Z-18.947
X73.697 Z-18.961
X72.161 Z-19.061
X70.466 Z-18.986
X69.919 Z-18.963
X69.044 Z-18.977
X68.716 Z-19.043
X68.505 Z-19.006
X68.293 Z-18.979
X67.582 Z-18.931
X66.98 Z-18.942
X65.613 Z-19.003
X65.036 Z-19.067
X64.623 Z-19.121
X63.529 Z-19.145
X62.966 Z-19.158
X62.364 Z-19.129
X61.783 Z-19.178
X59.541 Z-19.275
X56.423 Z-19.424
X54.41 Z-19.572
X53.052 Z-19.65
X51.864 Z-19.671
X51.056 Z-19.607
X50.535 Z-19.529
X49.682 Z-19.503
X48.65 Z-19.599
X48.235 Z-19.655
X47.399 Z-19.785
X46.967 Z-19.815
X46.529 Z-19.835
X45.973 Z-19.814
X45.561 Z-19.724
X45.339 Z-19.719
X44.519 Z-19.736
X43.741 Z-19.834
X42.693 Z-19.995
X40.675 Z-20.276
X40.38 Z-20.33
X38.827 Z-20.653
X38.419 Z-20.744
X37.375 Z-20.985
X36.011 Z-21.272
X33.52 Z-21.82
X32.35 Z-21.954
X30.845 Z-22.095
X28.974 Z-22.255
X26.842 Z-22.373
X24.818 Z-22.454
X20.552 Z-22.562
X15.685 Z-22.612
X3.153 Z-22.595
X-0.01 Z-22.59
X-0.032 Z-22.585
X-0.033 Z-22.584
X-0.055 Z-22.579
X-0.088 Y5.698
X-0.114 Y5.719
X-0.129 Y5.749
Y5.782
X-0.114 Y5.812
X-0.088 Y5.833
X-0.055 Y5.841
X-0.054
X-0.032 Z-22.584
X-0.01 Z-22.589
X4.496 Z-22.597
X15.699 Z-22.611
X20.567 Z-22.562
X24.833 Z-22.453
X26.965 Z-22.368
X28.88 Z-22.259
X31.668 Z-22.016
X33.694 Z-21.801
X35.892 Z-21.316
X37.14 Z-21.052
X38.393 Z-20.76
X39.01 Z-20.625
X40.459 Z-20.325
X40.966 Z-20.239
X42.664 Z-20.002
X43.713 Z-19.842
X44.71 Z-19.716
X45.088 Z-19.704
X45.58
X45.74 Z-19.72
X46.054 Z-19.791
X46.5 Z-19.807
X46.858 Z-19.791
X47.401 Z-19.758
X48.354 Z-19.608
X48.651 Z-19.566
X49.668 Z-19.475
X50.417 Z-19.49
X51.069 Z-19.588
X51.891 Z-19.65
X53.041 Z-19.631
X54.391 Z-19.557
X56.514 Z-19.402
X60.171 Z-19.223
X61.757 Z-19.158
X62.379 Z-19.104
X62.94 Z-19.129
X63.59 Z-19.116
X64.735 Z-19.093
X65.148 Z-19.034
X65.612 Z-18.983
X66.973 Z-18.919
X67.52 Z-18.908
X68.122 Z-18.946
X68.392 Z-18.968
X68.709 Z-19.022
X68.937 Z-18.977
X69.086 Z-18.951
X69.961 Z-18.941
X70.891 Z-18.983
X72.204 Z-19.036
X73.777 Z-18.932
X75.199 Z-18.92
X75.746 Z-18.93
X76.122 Z-18.963
X76.442 Z-18.96
X77.043 Z-18.938
X77.7 Z-18.959
X78.739 Z-18.971
X79.706 Z-18.954
X80.034 Z-18.956
X81.675 Z-18.967
X82.384 Z-18.996
X82.92 Z-19.048
X83.532 Z-19.153
X83.696 Z-19.168
X83.966 Z-19.198
X84.427 Z-19.163
X85.247 Z-19.145
X86.122 Z-19.159
X86.943 Z-19.185
X87.49 Z-19.215
X89.165 Z-19.354
X90.751 Z-19.4
X93.048 Z-19.429
X95.105 Z-19.425
X96.691 Z-19.487
X98.029 Z-19.598
X99.232 Z-19.633
X99.749 Z-19.626
X100.601 Z-19.532
X100.915 Z-19.504
X101.67 Z-19.439
X102.203 Z-19.396
X103.477 Z-19.22
X104.749 Z-19.028
X105.169 Z-18.947
X107.463 Z-18.501
X108.407 Z-18.304
X109.329 Z-18.107
X110.15 Z-17.951
X111.198 Z-17.784
X111.602 Z-17.736
X113.571 Z-17.559
X116.004 Z-17.402
X116.332 Z-17.39
X116.943 Z-17.392
X118.244 Z-17.286
X119.686 Z-17.162
X121.801 Z-17.06
X122.949 Z-17.035
X123.934 Z-16.992
X124.973 Z-16.979
X125.574 Z-17.018
X126.688 Z-17.127
X126.963 Z-17.146
X127.51 Z-17.134
X127.531 Z-17.129
X127.553 Z-17.124
X127.57 Y5.843
X127.586 Y5.848 Z-17.123
X127.6 Y5.857 Z-17.122
X127.612 Y5.869 Z-17.12
X127.621 Y5.883 Z-17.119
X127.627 Y5.899 Z-17.117
X127.629 Y5.916 Z-17.115
X127.627 Y5.932 Z-17.113
X127.621 Y5.948 Z-17.111
X127.612 Y5.962 Z-17.109
X127.6 Y5.974 Z-17.107
X127.586 Y5.983 Z-17.106
X127.57 Y5.989
X127.553 Y5.991 Z-17.105
X127.531 Z-17.111
X127.51 Z-17.116
X126.963 Z-17.127
X126.685 Z-17.114
X125.422 Z-16.987
X124.985 Z-16.958
X124.219 Z-16.968
X123.016 Z-17.022
X122.031 Z-17.046
X119.853 Z-17.152
X117.286 Z-17.367
X116.961 Z-17.394
X116.397 Z-17.395
X114.38 Z-17.524
X113.314 Z-17.614
X111.971 Z-17.736
X111.2 Z-17.826
X110.892 Z-17.869
X110.257 Z-17.973
X109.109 Z-18.189
X107.766 Z-18.47
X105.053 Z-18.996
X103.675 Z-19.207
X102.508 Z-19.368
X101.865 Z-19.419
X101.003 Z-19.496
X100.579 Z-19.53
X99.845 Z-19.61
X99.209 Z-19.619
X98.115 Z-19.588
X96.779 Z-19.477
X95.193 Z-19.415
X93.007 Z-19.416
X90.6 Z-19.385
X89.124 Z-19.343
X87.557 Z-19.214
X87.01 Z-19.179
X85.807 Z-19.137
X85.205 Z-19.13
X84.33 Z-19.142
X83.957 Z-19.177
X83.702 Z-19.146
X83.539 Z-19.142
X82.87 Z-19.026
X82.226 Z-18.967
X81.679 Z-18.946
X80.093 Z-18.934
X79.765 Z-18.929
X78.56 Z-18.953
X77.849 Z-18.939
X77.084 Z-18.915
X76.373 Z-18.943
X76.143 Z-18.945
X75.712 Z-18.904
X75.331 Z-18.891
X73.854 Z-18.904
X72.227 Z-19.012
X71.262 Z-18.978
X70.004 Z-18.918
X69.074 Z-18.93
X68.702 Z-19.001
X68.491 Z-18.962
X68.386 Z-18.946
X67.568 Z-18.887
X67.076 Z-18.893
X65.654 Z-18.958
X65.239 Z-19.003
X64.77 Z-19.063
X62.914 Z-19.1
X62.422 Z-19.078
X61.788 Z-19.135
X60.366 Z-19.191
X56.702 Z-19.372
X54.306 Z-19.545
X53.102 Z-19.611
X51.975 Z-19.632
X51.056 Z-19.564
X50.482 Z-19.478
X50.266 Z-19.466
X49.597 Z-19.456
X48.619 Z-19.54
X47.304 Z-19.741
X46.431 Z-19.778
X46.135 Z-19.767
X45.874 Z-19.71
X45.66 Z-19.696
X45.058 Z-19.686
X44.852 Z-19.703
X43.693 Z-19.849
X42.75 Z-19.993
X41.264 Z-20.2
X40.534 Z-20.322
X39.925 Z-20.444
X38.782 Z-20.685
X38.28 Z-20.797
X36.819 Z-21.138
X35.99 Z-21.313
X33.898 Z-21.775
X31.551 Z-22.02
X28.874 Z-22.256
X27.179 Z-22.359
X24.827 Z-22.454
X20.561 Z-22.563
X15.749 Z-22.611
X4.69 Z-22.597
X-0.01 Z-22.588
X-0.032 Z-22.583
X-0.033 Z-22.582
X-0.055 Z-22.577
X-0.088 Y5.998
X-0.114 Y6.019
X-0.129 Y6.049
Y6.082
X-0.114 Y6.112
X-0.088 Y6.133
X-0.055 Y6.141
X-0.054
X-0.032 Z-22.582
X-0.01 Z-22.588
X4.939 Z-22.597
X15.793 Z-22.611
X20.606 Z-22.562
X24.872 Z-22.452
X27.169 Z-22.36
X28.81 Z-22.256
X31.376 Z-22.029
X34.153 Z-21.743
X36.049 Z-21.319
X36.562 Z-21.21
X38.43 Z-20.772
X39.888 Z-20.462
X40.602 Z-20.32
X41.543 Z-20.164
X42.605 Z-20.016
X43.548 Z-19.875
X45.136 Z-19.674
X45.628 Z-19.684
X46.008 Z-19.7
X46.217 Z-19.743
X46.438 Z-19.751
X47.351 Z-19.71
X48.68 Z-19.51
X49.523 Z-19.438
X49.973 Z-19.442
X50.408 Z-19.453
X50.621 Z-19.477
X51.034 Z-19.54
X52.008 Z-19.61
X53.103 Z-19.59
X54.251 Z-19.528
X56.798 Z-19.343
X60.79 Z-19.148
X61.774 Z-19.115
X62.451 Z-19.053
X62.888 Z-19.071
X64.443 Z-19.045
X64.936 Z-19.023
X65.243 Z-18.985
X65.647 Z-18.938
X66.741 Z-18.883
X67.452 Z-18.862
X68.379 Z-18.924
X68.695 Z-18.98
X69.058 Z-18.91
X69.992 Z-18.896
X71.469 Z-18.962
X72.25 Z-18.987
X73.932 Z-18.876
X75.354 Z-18.864
X75.625 Z-18.876
X76.139 Z-18.925
X76.358
X77.124 Z-18.892
X78.381 Z-18.934
X79.722 Z-18.906
X80.05 Z-18.908
X81.636 Z-18.926
X82.128 Z-18.942
X82.558 Z-18.979
X82.877 Z-19.019
X83.438 Z-19.114
X83.657 Z-19.123
X83.914 Z-19.151
X84.247 Z-19.12
X85.436 Z-19.115
X86.967 Z-19.169
X87.678 Z-19.216
X89.028 Z-19.328
X90.45 Z-19.371
X92.856 Z-19.403
X95.291 Z-19.405
X96.877 Z-19.469
X98.16 Z-19.575
X99.144 Z-19.605
X99.926 Z-19.594
X100.609 Z-19.523
X101.046 Z-19.492
X102.015 Z-19.404
X102.755 Z-19.345
X103.71 Z-19.217
X104.971 Z-19.025
X105.288 Z-18.98
X107.803 Z-18.491
X108.821 Z-18.285
X110.38 Z-17.991
X110.829 Z-17.917
X111.515 Z-17.83
X112.345 Z-17.735
X113.413 Z-17.638
X115.191 Z-17.491
X116.517 Z-17.402
X116.902 Z-17.394
X117.068 Z-17.385
X118.572 Z-17.264
X120.189 Z-17.135
X122.263 Z-17.031
X123.028 Z-17.011
X124.396 Z-16.95
X124.833 Z-16.938
X125.107 Z-16.946
X125.537 Z-16.984
X126.585 Z-17.091
X126.963 Z-17.108
X127.51 Z-17.097
X127.531 Z-17.092
X127.553 Z-17.087
X127.57 Y6.143
X127.586 Y6.148 Z-17.086
X127.6 Y6.157 Z-17.085
X127.612 Y6.169 Z-17.083
X127.621 Y6.183 Z-17.082
X127.627 Y6.199 Z-17.08
X127.629 Y6.216 Z-17.078
X127.627 Y6.232 Z-17.076
X127.621 Y6.248 Z-17.074
X127.612 Y6.262 Z-17.072
X127.6 Y6.274 Z-17.07
X127.586 Y6.283 Z-17.069
X127.57 Y6.289
X127.553 Y6.291 Z-17.068
X127.531 Z-17.074
X127.51 Z-17.079
X126.963 Z-17.089
X126.485 Z-17.068
X125.652 Z-16.98
X125.01 Z-16.919
X124.682 Z-16.926
X123.095 Z-16.999
X122.494 Z-17.017
X120.425 Z-17.124
X119.126 Z-17.225
X116.891 Z-17.396
X116.217 Z-17.441
X113.509 Z-17.662
X112.705 Z-17.736
X111.614 Z-17.86
X110.716 Z-17.973
X110.162 Z-18.074
X107.992 Z-18.482
X105.373 Z-18.988
X104.852 Z-19.059
X103.697 Z-19.234
X103.06 Z-19.318
X102.21 Z-19.385
X101.137 Z-19.484
X100.48 Z-19.533
X100.065 Z-19.576
X98.996 Z-19.589
X98.23 Z-19.564
X96.948 Z-19.459
X95.416 Z-19.394
X92.596 Z-19.389
X91.078 Z-19.367
X89.807 Z-19.343
X88.932 Z-19.312
X87.746 Z-19.215
X86.87 Z-19.156
X85.175 Z-19.094
X84.15 Z-19.099
X83.87 Z-19.125
X83.668 Z-19.102
X83.395 Z-19.095
X83.045 Z-19.035
X82.381 Z-18.946
X82.031 Z-18.916
X81.594 Z-18.906
X79.953 Z-18.881
X78.586 Z-18.909
X77.509 Z-18.877
X77.181 Z-18.868
X76.251 Z-18.908
X76.075 Z-18.899
X75.431 Z-18.84
X73.984 Z-18.849
X72.274 Z-18.962
X71.621 Z-18.944
X70.035 Z-18.874
X69.05 Z-18.888
X68.688 Z-18.959
X68.345 Z-18.899
X67.445 Z-18.839
X66.788 Z-18.86
X65.695 Z-18.913
X65.086 Z-18.984
X64.375 Z-19.019
X62.862 Z-19.042
X62.483 Z-19.028
X61.739 Z-19.095
X60.919 Z-19.122
X60.426 Z-19.141
X56.981 Z-19.307
X56.762 Z-19.32
X55.083 Z-19.449
X53.945 Z-19.526
X53.125 Z-19.567
X52.042 Z-19.588
X51.012 Z-19.516
X50.65 Z-19.464
X50.331 Z-19.431
X49.456 Z-19.418
X48.741 Z-19.48
X47.338 Z-19.684
X46.353 Z-19.722
X46.25 Z-19.709
X46.083 Z-19.686
X45.208 Z-19.668
X44.897 Z-19.706
X43.515 Z-19.884
X42.572 Z-20.023
X41.828 Z-20.128
X40.676 Z-20.318
X39.855 Z-20.478
X38.294 Z-20.813
X36.322 Z-21.277
X34.391 Z-21.712
X31.293 Z-22.03
X28.726 Z-22.258
X27.031 Z-22.366
X24.843 Z-22.453
X20.632 Z-22.562
X15.82 Z-22.611
X5.119 Z-22.597
X-0.01 Z-22.587
X-0.032 Z-22.582
X-0.033 Z-22.581
X-0.055 Z-22.576
X-0.088 Y6.298
X-0.114 Y6.319
X-0.129 Y6.349
Y6.382
X-0.114 Y6.412
X-0.088 Y6.433
X-0.055 Y6.441
X-0.054
X-0.032 Z-22.581
X-0.01 Z-22.586
X5.217 Z-22.597
X15.844 Z-22.611
X20.656 Z-22.561
X24.867 Z-22.453
X27.055 Z-22.365
X29.074 Z-22.226
X31.11 Z-22.04
X34.294 Z-21.716
X34.612 Z-21.672
X35.972 Z-21.369
X38.256 Z-20.832
X39.818 Z-20.496
X40.744 Z-20.316
X42.23 Z-20.073
X43.465 Z-19.895
X45.225 Z-19.664
X46.187 Z-19.678
X46.363 Z-19.693
X47.384 Z-19.659
X48.8 Z-19.45
X49.382 Z-19.4
X50.317 Z-19.413
X50.79 Z-19.464
X51.046 Z-19.499
X52.068 Z-19.566
X53.271 Z-19.539
X54.091 Z-19.497
X56.214 Z-19.344
X56.848 Z-19.285
X57.176 Z-19.274
X60.348 Z-19.122
X60.95 Z-19.096
X61.715 Z-19.075
X62.519 Z-19.003
X62.837 Z-19.013
X64.317 Z-18.992
X65.138 Z-18.951
X65.449 Z-18.921
X65.701 Z-18.891
X66.353 Z-18.858
X67.392 Z-18.817
X68.299 Z-18.87
X68.681 Z-18.939
X69.07 Z-18.86
X69.235 Z-18.856
X70.023 Z-18.852
X71.773 Z-18.925
X72.374 Z-18.938
X74.009 Z-18.822
X75.319 Z-18.809
X76.205 Z-18.891
X77.2 Z-18.845
X77.473 Z-18.851
X78.677 Z-18.878
X79.037 Z-18.876
X79.967 Z-18.858
X81.799 Z-18.886
X82.044 Z-18.898
X82.257 Z-18.919
X83.001 Z-19.022
X83.297 Z-19.068
X83.57 Z-19.078
X83.731 Z-19.086
X83.827 Z-19.1
X84.067 Z-19.077
X84.914 Z-19.073
X86.828 Z-19.146
X87.812 Z-19.213
X88.89 Z-19.301
X89.601 Z-19.327
X91.187 Z-19.357
X92.499 Z-19.376
X95.486 Z-19.385
X97.017 Z-19.449
X98.311 Z-19.554
X98.848 Z-19.573
X100.155 Z-19.56
X100.411 Z-19.536
X101.166 Z-19.48
X102.454 Z-19.361
X103.316 Z-19.295
X103.637 Z-19.257
X104.793 Z-19.084
X105.537 Z-18.986
X107.42 Z-18.621
X108.662 Z-18.386
X108.875 Z-18.354
X110.621 Z-18.028
X111.815 Z-17.878
X113.072 Z-17.736
X113.599 Z-17.686
X116.537 Z-17.447
X117.141 Z-17.39
X118.975 Z-17.244
X120.329 Z-17.138
X121.397 Z-17.07
X123.091 Z-16.989
X124.677 Z-16.918
X125.071 Z-16.909
X125.767 Z-16.977
X126.44 Z-17.05
X126.963 Z-17.07
X127.51 Z-17.06
X127.531 Z-17.055
X127.553 Z-17.05
X127.57 Y6.443
X127.586 Y6.448 Z-17.049
X127.6 Y6.457 Z-17.048
X127.612 Y6.469 Z-17.047
X127.621 Y6.483 Z-17.045
X127.627 Y6.499 Z-17.043
X127.629 Y6.516 Z-17.041
X127.627 Y6.532 Z-17.039
X127.621 Y6.548 Z-17.037
X127.612 Y6.562 Z-17.035
X127.6 Y6.574 Z-17.034
X127.586 Y6.583 Z-17.032
X127.57 Y6.589
X127.553 Y6.591
X127.531 Z-17.037
X127.51 Z-17.042
X126.963 Z-17.051
X126.395 Z-17.033
X125.884 Z-16.974
X125.188 Z-16.906
X124.576 Z-16.921
X122.628 Z-17.004
X120.273 Z-17.149
X117.81 Z-17.343
X116.835 Z-17.456
X113.689 Z-17.711
X113.271 Z-17.754
X111.908 Z-17.909
X110.584 Z-18.075
X108.966 Z-18.372
X108.754 Z-18.401
X106.995 Z-18.731
X105.638 Z-18.992
X104.681 Z-19.118
X103.738 Z-19.258
X102.668 Z-19.339
X101.23 Z-19.474
X100.409 Z-19.532
X100.204 Z-19.544
X98.7 Z-19.557
X98.272 Z-19.535
X97.086 Z-19.439
X95.555 Z-19.375
X92.403 Z-19.363
X91.255 Z-19.345
X89.395 Z-19.311
X88.848 Z-19.29
X87.879 Z-19.212
X86.785 Z-19.135
X84.707 Z-19.052
X83.969 Z-19.056
X83.784 Z-19.074
X83.581 Z-19.056
X83.198 Z-19.042
X81.959 Z-18.873
X81.278 Z-18.859
X79.965 Z-18.834
X78.926 Z-18.852
X78.259 Z-18.834
X77.219 Z-18.823
X76.22 Z-18.872
X75.338 Z-18.783
X74.018 Z-18.794
X73.027 Z-18.872
X72.417 Z-18.914
X71.815 Z-18.903
X70.065 Z-18.829
X69.449 Z-18.831
X69.121 Z-18.828
X68.877 Z-18.872
X68.661 Z-18.915
X68.263 Z-18.842
X67.342 Z-18.794
X65.708 Z-18.87
X65.363 Z-18.908
X64.269 Z-18.966
X62.738 Z-18.981
X62.551 Z-18.978
X61.744 Z-19.053
X60.65 Z-19.083
X57.369 Z-19.241
X56.877 Z-19.255
X56.136 Z-19.328
X54.068 Z-19.478
X53.357 Z-19.513
X52.108 Z-19.544
X51.014 Z-19.474
X50.387 Z-19.402
X50.225 Z-19.394
X49.309 Z-19.381
X48.859 Z-19.421
X47.515 Z-19.621
X47.192 Z-19.643
X46.22 Z-19.669
X45.29 Z-19.658
X43.44 Z-19.903
X42.305 Z-20.07
X40.719 Z-20.332
X39.945 Z-20.483
X38.253 Z-20.843
X35.967 Z-21.378
X34.922 Z-21.612
X34.393 Z-21.7
X31.54 Z-21.99
X30.368 Z-22.102
X28.98 Z-22.23
X26.796 Z-22.376
X24.828 Z-22.454
X20.671 Z-22.561
X15.913 Z-22.611
X5.357 Z-22.598
X-0.01 Z-22.585
X-0.032 Z-22.58
X-0.033
X-0.055 Z-22.574
X-0.088 Y6.598
X-0.114 Y6.619
X-0.129 Y6.649
Y6.682
X-0.114 Y6.712
X-0.088 Y6.733
X-0.055 Y6.741
X-0.054
X-0.032 Z-22.58
X-0.01 Z-22.585
X5.441 Z-22.598
X15.949 Z-22.61
X20.707 Z-22.56
X24.863 Z-22.453
X26.558 Z-22.387
X28.418 Z-22.268
X29.12 Z-22.211
X30.94 Z-22.044
X31.677 Z-21.964
X32.309 Z-21.901
X34.342 Z-21.699
X35.082 Z-21.578
X35.71 Z-21.443
X38.101 Z-20.888
X38.94 Z-20.707
X39.549 Z-20.582
X40.109 Z-20.464
X40.777 Z-20.332
X42.67 Z-20.02
X43.285 Z-19.931
X45.374 Z-19.65
X45.921 Z-19.657
X47.274 Z-19.618
X47.648 Z-19.583
X48.923 Z-19.39
X49.238 Z-19.362
X50.284 Z-19.377
X50.851 Z-19.438
X52.141 Z-19.522
X53.184 Z-19.495
X54.004 Z-19.462
X56.017 Z-19.315
X56.859 Z-19.23
X57.564 Z-19.209
X60.736 Z-19.055
X61.721 Z-19.033
X62.566 Z-18.954
X62.705 Z-18.951
X64.127 Z-18.941
X65.33 Z-18.879
X65.74 Z-18.846
X67.326 Z-18.771
X68.247 Z-18.816
X68.655 Z-18.895
X68.967 Z-18.826
X69.172 Z-18.797
X69.445 Z-18.802
X70.053 Z-18.807
X71.803 Z-18.878
X72.425 Z-18.889
X73.081 Z-18.847
X74.049 Z-18.765
X75.279 Z-18.754
X75.468 Z-18.764
X75.895 Z-18.809
X76.2 Z-18.843
X77.28 Z-18.795
X78.278 Z-18.8
X79.11 Z-18.824
X79.711 Z-18.812
X80.04
X81.844 Z-18.845
X83.097 Z-19.015
X83.535 Z-19.033
X83.74 Z-19.048
X83.871 Z-19.035
X84.514 Z-19.031
X86.763 Z-19.124
X87.947 Z-19.21
X88.862 Z-19.284
X90.065 Z-19.313
X91.323 Z-19.334
X92.362 Z-19.351
X95.56 Z-19.362
X97.146 Z-19.429
X98.581 Z-19.542
X100.432 Z-19.527
X101.252 Z-19.471
X102.593 Z-19.345
X103.981 Z-19.236
X104.548 Z-19.155
X105.765 Z-18.994
X106.386 Z-18.877
X108.777 Z-18.43
X109.202 Z-18.371
X110.561 Z-18.119
X112.051 Z-17.935
X113.853 Z-17.73
X117.067 Z-17.466
X118.371 Z-17.307
X119.432 Z-17.22
X120.395 Z-17.15
X123.226 Z-16.975
X124.482 Z-16.925
X125.297 Z-16.903
X125.881 Z-16.959
X126.295 Z-17.008
X126.963 Z-17.032
X127.51 Z-17.023
X127.531 Z-17.018
X127.553 Z-17.013
X127.57 Y6.743
X127.586 Y6.748 Z-17.012
X127.6 Y6.757 Z-17.011
X127.612 Y6.769 Z-17.01
X127.621 Y6.783 Z-17.008
X127.627 Y6.799 Z-17.006
X127.629 Y6.816 Z-17.004
X127.627 Y6.832 Z-17.002
X127.621 Y6.848 Z-17
X127.612 Y6.862 Z-16.998
X127.6 Y6.874 Z-16.997
X127.586 Y6.883 Z-16.996
X127.57 Y6.889 Z-16.995
X127.553 Y6.891
X127.531 Z-17
X127.51 Z-17.005
X127.07 Z-17.017
X126.196 Z-16.982
X125.78 Z-16.935
X125.416 Z-16.901
X124.497 Z-16.924
X123.622 Z-16.958
X122.451 Z-17.03
X120.474 Z-17.153
X119.401 Z-17.228
X118.857 Z-17.282
X117.225 Z-17.484
X115.485 Z-17.629
X114.089 Z-17.745
X112.194 Z-17.96
X110.598 Z-18.156
X110.397 Z-18.19
X109.343 Z-18.383
X108.918 Z-18.438
X108.19 Z-18.571
X105.883 Z-18.997
X104.501 Z-19.179
X104.245 Z-19.212
X102.574 Z-19.345
X101.343 Z-19.463
X100.496 Z-19.519
X99.84 Z-19.518
X98.568 Z-19.525
X97.206 Z-19.419
X95.62 Z-19.353
X92.156 Z-19.337
X91.281 Z-19.319
X89.039 Z-19.28
X88.668 Z-19.26
X87.905 Z-19.201
X86.825 Z-19.119
X84.255 Z-19.01
X83.79 Z-19.013
X83.67 Z-19.018
X83.014 Z-18.988
X81.788 Z-18.821
X80.066 Z-18.789
X79.738 Z-18.788
X79.245 Z-18.794
X78.297 Z-18.765
X77.422 Z-18.762
X76.262 Z-18.817
X76.188 Z-18.818
X75.89 Z-18.779
X75.464 Z-18.736
X75.19 Z-18.727
X74.042 Z-18.739
X73.296 Z-18.807
X72.502 Z-18.865
X71.846 Z-18.855
X70.096 Z-18.785
X69.167 Z-18.77
X68.976 Z-18.799
X68.777 Z-18.841
X68.637 Z-18.873
X68.229 Z-18.789
X67.302 Z-18.748
X65.554 Z-18.836
X64.138 Z-18.911
X62.598 Z-18.929
X61.701 Z-19.011
X60.772 Z-19.03
X57.764 Z-19.176
X56.889 Z-19.201
X55.883 Z-19.303
X53.925 Z-19.447
X52.174 Z-19.5
X50.98 Z-19.426
X50.761 Z-19.412
X50.346 Z-19.365
X50.184 Z-19.357
