
;Inkscape Lasertools G-code
;https://github.com/ChrisWag91/Inkscape-Lasertools-Plugin

G90	;Absolute programming
G21	;Programming in millimeters (mm)
M03 S1 ;Activate laser and set power to 0 (CUSTOM)

; START perimeter strategy
G01 F800.0
M5
G00 X13.42 Y4.81 F1500.0
M4 S700 F1500.0
G01 F800.0
G01 X13.71 F800.0
G01 Y4.52 F800.0
G01 X13.42 F800.0
G01 Y4.81 F800.0
M5
G00 X13.13 Y4.81 F1500.0
M4 S700 F1500.0
G01 F800.0
G01 X13.42 F800.0
G01 Y4.52 F800.0
G01 X13.13 F800.0
G01 Y4.81 F800.0
M5
G00 X13.13 Y5.11 F1500.0
M4 S700 F1500.0
G01 F800.0
G01 X13.42 F800.0
G01 Y4.81 F800.0
G01 X13.13 F800.0
G01 Y5.11 F800.0
M5
G00 X13.13 Y5.4 F1500.0
M4 S700 F1500.0
G01 F800.0
G01 X13.42 F800.0
G01 Y5.11 F800.0
G01 X13.13 F800.0
G01 Y5.4 F800.0
M5
G00 X12.83 Y5.4 F1500.0
M4 S700 F1500.0
G01 F800.0
G01 X13.13 F800.0
G01 Y5.11 F800.0
G01 X12.83 F800.0
G01 Y5.4 F800.0
M5
G00 X12.54 Y5.4 F1500.0
M4 S700 F1500.0
G01 F800.0
G01 X12.83 F800.0
G01 Y5.11 F800.0
G01 X12.54 F800.0
G01 Y5.4 F800.0
M5
G00 X12.25 Y5.4 F1500.0
M4 S700 F1500.0
G01 F800.0
G01 X12.54 F800.0
G01 Y5.11 F800.0
G01 X12.25 F800.0
G01 Y5.4 F800.0
M5
G00 X12.25 Y5.11 F1500.0
M4 S700 F1500.0
G01 F800.0
G01 X12.54 F800.0
G01 Y4.81 F800.0
G01 X12.25 F800.0
G01 Y5.11 F800.0
M5
G00 X11.96 Y5.11 F1500.0
M4 S700 F1500.0
G01 F800.0
G01 X12.25 F800.0
G01 Y4.81 F800.0
G01 X11.96 F800.0
G01 Y5.11 F800.0
M5
G00 X11.66 Y5.11 F1500.0
M4 S700 F1500.0
G01 F800.0
G01 X11.96 F800.0
G01 Y4.81 F800.0
G01 X11.66 F800.0
G01 Y5.11 F800.0
M5
G00 X11.37 Y5.11 F1500.0
M4 S700 F1500.0
G01 F800.0
G01 X11.66 F800.0
G01 Y4.81 F800.0
G01 X11.37 F800.0
G01 Y5.11 F800.0
M5
G00 X11.08 Y5.11 F1500.0
M4 S700 F1500.0
G01 F800.0
G01 X11.37 F800.0
G01 Y4.81 F800.0
G01 X11.08 F800.0
G01 Y5.11 F800.0
M5
G00 X11.08 Y5.4 F1500.0
M4 S700 F1500.0
G01 F800.0
G01 X11.37 F800.0
G01 Y5.11 F800.0
G01 X11.08 F800.0
G01 Y5.4 F800.0
M5
G00 X10.79 Y5.4 F1500.0
M4 S700 F1500.0
G01 F800.0
G01 X11.08 F800.0
G01 Y5.11 F800.0
G01 X10.79 F800.0
G01 Y5.4 F800.0
M5
G00 X10.79 Y5.69 F1500.0
M4 S700 F1500.0
G01 F800.0
G01 X11.08 F800.0
G01 Y5.4 F800.0
G01 X10.79 F800.0
G01 Y5.69 F800.0
M5
G00 X11.08 Y5.69 F1500.0
M4 S700 F1500.0
G01 F800.0
G01 X11.37 F800.0
G01 Y5.4 F800.0
G01 X11.08 F800.0
G01 Y5.69 F800.0
M5
G00 X11.08 Y5.98 F1500.0
M4 S700 F1500.0
G01 F800.0
G01 X11.37 F800.0
G01 Y5.69 F800.0
G01 X11.08 F800.0
G01 Y5.98 F800.0
M5
G00 X10.79 Y5.98 F1500.0
M4 S700 F1500.0
G01 F800.0
G01 X11.08 F800.0
G01 Y5.69 F800.0
G01 X10.79 F800.0
G01 Y5.98 F800.0
M5
G00 X10.49 Y5.98 F1500.0
M4 S700 F1500.0
G01 F800.0
G01 X10.79 F800.0
G01 Y5.69 F800.0
G01 X10.49 F800.0
G01 Y5.98 F800.0
M5
G00 X10.49 Y5.69 F1500.0
M4 S700 F1500.0
G01 F800.0
G01 X10.79 F800.0
G01 Y5.4 F800.0
G01 X10.49 F800.0
G01 Y5.69 F800.0
M5
G00 X10.2 Y5.69 F1500.0
M4 S700 F1500.0
G01 F800.0
G01 X10.49 F800.0
G01 Y5.4 F800.0
G01 X10.2 F800.0
G01 Y5.69 F800.0
M5
G00 X9.91 Y5.69 F1500.0
M4 S700 F1500.0
G01 F800.0
G01 X10.2 F800.0
G01 Y5.4 F800.0
G01 X9.91 F800.0
G01 Y5.69 F800.0
M5
G00 X9.91 Y5.4 F1500.0
M4 S700 F1500.0
G01 F800.0
G01 X10.2 F800.0
G01 Y5.11 F800.0
G01 X9.91 F800.0
G01 Y5.4 F800.0
M5
G00 X10.2 Y5.4 F1500.0
M4 S700 F1500.0
G01 F800.0
G01 X10.49 F800.0
G01 Y5.11 F800.0
G01 X10.2 F800.0
G01 Y5.4 F800.0
M5
G00 X10.49 Y5.11 F1500.0
M4 S700 F1500.0
G01 F800.0
G01 X10.79 F800.0
G01 Y4.81 F800.0
G01 X10.49 F800.0
G01 Y5.11 F800.0
M5
G00 X10.79 Y4.81 F1500.0
M4 S700 F1500.0
G01 F800.0
G01 X11.08 F800.0
G01 Y4.52 F800.0
G01 X10.79 F800.0
G01 Y4.81 F800.0
M5
G00 X10.79 Y4.52 F1500.0
M4 S700 F1500.0
G01 F800.0
G01 X11.08 F800.0
G01 Y4.23 F800.0
G01 X10.79 F800.0
G01 Y4.52 F800.0
M5
G00 X10.49 Y4.52 F1500.0
M4 S700 F1500.0
G01 F800.0
G01 X10.79 F800.0
G01 Y4.23 F800.0
G01 X10.49 F800.0
G01 Y4.52 F800.0
M5
G00 X10.49 Y4.23 F1500.0
M4 S700 F1500.0
G01 F800.0
G01 X10.79 F800.0
G01 Y3.93 F800.0
G01 X10.49 F800.0
G01 Y4.23 F800.0
M5
G00 X10.2 Y4.23 F1500.0
M4 S700 F1500.0
G01 F800.0
G01 X10.49 F800.0
G01 Y3.93 F800.0
G01 X10.2 F800.0
G01 Y4.23 F800.0
M5
G00 X9.91 Y3.93 F1500.0
M4 S700 F1500.0
G01 F800.0
G01 X10.2 F800.0
G01 Y3.64 F800.0
G01 X9.91 F800.0
G01 Y3.93 F800.0
M5
G00 X10.49 Y3.93 F1500.0
M4 S700 F1500.0
G01 F800.0
G01 X10.79 F800.0
G01 Y3.64 F800.0
G01 X10.49 F800.0
G01 Y3.93 F800.0
M5
G00 X10.79 Y3.93 F1500.0
M4 S700 F1500.0
G01 F800.0
G01 X11.08 F800.0
G01 Y3.64 F800.0
G01 X10.79 F800.0
G01 Y3.93 F800.0
M5
G00 X11.08 Y3.93 F1500.0
M4 S700 F1500.0
G01 F800.0
G01 X11.37 F800.0
G01 Y3.64 F800.0
G01 X11.08 F800.0
G01 Y3.93 F800.0
M5
G00 X11.37 Y4.23 F1500.0
M4 S700 F1500.0
G01 F800.0
G01 X11.66 F800.0
G01 Y3.93 F800.0
G01 X11.37 F800.0
G01 Y4.23 F800.0
M5
G00 X11.66 Y4.52 F1500.0
M4 S700 F1500.0
G01 F800.0
G01 X11.96 F800.0
G01 Y4.23 F800.0
G01 X11.66 F800.0
G01 Y4.52 F800.0
M5
G00 X11.96 Y4.81 F1500.0
M4 S700 F1500.0
G01 F800.0
G01 X12.25 F800.0
G01 Y4.52 F800.0
G01 X11.96 F800.0
G01 Y4.81 F800.0
M5
G00 X12.25 Y4.81 F1500.0
M4 S700 F1500.0
G01 F800.0
G01 X12.54 F800.0
G01 Y4.52 F800.0
G01 X12.25 F800.0
G01 Y4.81 F800.0
M5
G00 X12.54 Y4.52 F1500.0
M4 S700 F1500.0
G01 F800.0
G01 X12.83 F800.0
G01 Y4.23 F800.0
G01 X12.54 F800.0
G01 Y4.52 F800.0
M5
G00 X12.83 Y4.52 F1500.0
M4 S700 F1500.0
G01 F800.0
G01 X13.13 F800.0
G01 Y4.23 F800.0
G01 X12.83 F800.0
G01 Y4.52 F800.0
M5
G00 X12.83 Y4.23 F1500.0
M4 S700 F1500.0
G01 F800.0
G01 X13.13 F800.0
G01 Y3.93 F800.0
G01 X12.83 F800.0
G01 Y4.23 F800.0
M5
G00 X12.54 Y4.23 F1500.0
M4 S700 F1500.0
G01 F800.0
G01 X12.83 F800.0
G01 Y3.93 F800.0
G01 X12.54 F800.0
G01 Y4.23 F800.0
M5
G00 X12.54 Y3.93 F1500.0
M4 S700 F1500.0
G01 F800.0
G01 X12.83 F800.0
G01 Y3.64 F800.0
G01 X12.54 F800.0
G01 Y3.93 F800.0
M5
G00 X13.13 Y3.93 F1500.0
M4 S700 F1500.0
G01 F800.0
G01 X13.42 F800.0
G01 Y3.64 F800.0
G01 X13.13 F800.0
G01 Y3.93 F800.0
M5
G00 X11.96 Y4.23 F1500.0
M4 S700 F1500.0
G01 F800.0
G01 X12.25 F800.0
G01 Y3.93 F800.0
G01 X11.96 F800.0
G01 Y4.23 F800.0
M5
G00 X11.37 Y4.81 F1500.0
M4 S700 F1500.0
G01 F800.0
G01 X11.66 F800.0
G01 Y4.52 F800.0
G01 X11.37 F800.0
G01 Y4.81 F800.0
M5
G00 X11.66 Y5.69 F1500.0
M4 S700 F1500.0
G01 F800.0
G01 X11.96 F800.0
G01 Y5.4 F800.0
G01 X11.66 F800.0
G01 Y5.69 F800.0
M5
G00 X11.66 Y6.28 F1500.0
M4 S700 F1500.0
G01 F800.0
G01 X11.96 F800.0
G01 Y5.98 F800.0
G01 X11.66 F800.0
G01 Y6.28 F800.0
M5
G00 X11.96 Y6.28 F1500.0
M4 S700 F1500.0
G01 F800.0
G01 X12.25 F800.0
G01 Y5.98 F800.0
G01 X11.96 F800.0
G01 Y6.28 F800.0
M5
G00 X12.25 Y6.28 F1500.0
M4 S700 F1500.0
G01 F800.0
G01 X12.54 F800.0
G01 Y5.98 F800.0
G01 X12.25 F800.0
G01 Y6.28 F800.0
M5
G00 X12.25 Y5.98 F1500.0
M4 S700 F1500.0
G01 F800.0
G01 X12.54 F800.0
G01 Y5.69 F800.0
G01 X12.25 F800.0
G01 Y5.98 F800.0
M5
G00 X12.25 Y5.69 F1500.0
M4 S700 F1500.0
G01 F800.0
G01 X12.54 F800.0
G01 Y5.4 F800.0
G01 X12.25 F800.0
G01 Y5.69 F800.0
M5
G00 X12.54 Y5.69 F1500.0
M4 S700 F1500.0
G01 F800.0
G01 X12.83 F800.0
G01 Y5.4 F800.0
G01 X12.54 F800.0
G01 Y5.69 F800.0
M5
G00 X12.54 Y5.98 F1500.0
M4 S700 F1500.0
G01 F800.0
G01 X12.83 F800.0
G01 Y5.69 F800.0
G01 X12.54 F800.0
G01 Y5.98 F800.0
M5
G00 X12.83 Y5.98 F1500.0
M4 S700 F1500.0
G01 F800.0
G01 X13.13 F800.0
G01 Y5.69 F800.0
G01 X12.83 F800.0
G01 Y5.98 F800.0
M5
G00 X13.13 Y5.69 F1500.0
M4 S700 F1500.0
G01 F800.0
G01 X13.42 F800.0
G01 Y5.4 F800.0
G01 X13.13 F800.0
G01 Y5.69 F800.0
M5
G00 X13.42 Y5.98 F1500.0
M4 S700 F1500.0
G01 F800.0
G01 X13.71 F800.0
G01 Y5.69 F800.0
G01 X13.42 F800.0
G01 Y5.98 F800.0
M5
G00 X13.42 Y6.28 F1500.0
M4 S700 F1500.0
G01 F800.0
G01 X13.71 F800.0
G01 Y5.98 F800.0
G01 X13.42 F800.0
G01 Y6.28 F800.0
M5
G00 X13.13 Y6.86 F1500.0
M4 S700 F1500.0
G01 F800.0
G01 X13.42 F800.0
G01 Y6.57 F800.0
G01 X13.13 F800.0
G01 Y6.86 F800.0
M5
G00 X13.13 Y7.15 F1500.0
M4 S700 F1500.0
G01 F800.0
G01 X13.42 F800.0
G01 Y6.86 F800.0
G01 X13.13 F800.0
G01 Y7.15 F800.0
M5
G00 X13.42 Y7.15 F1500.0
M4 S700 F1500.0
G01 F800.0
G01 X13.71 F800.0
G01 Y6.86 F800.0
G01 X13.42 F800.0
G01 Y7.15 F800.0
M5
G00 X13.13 Y7.45 F1500.0
M4 S700 F1500.0
G01 F800.0
G01 X13.42 F800.0
G01 Y7.15 F800.0
G01 X13.13 F800.0
G01 Y7.45 F800.0
M5
G00 X12.83 Y7.74 F1500.0
M4 S700 F1500.0
G01 F800.0
G01 X13.13 F800.0
G01 Y7.45 F800.0
G01 X12.83 F800.0
G01 Y7.74 F800.0
M5
G00 X12.54 Y8.03 F1500.0
M4 S700 F1500.0
G01 F800.0
G01 X12.83 F800.0
G01 Y7.74 F800.0
G01 X12.54 F800.0
G01 Y8.03 F800.0
M5
G00 X12.54 Y8.33 F1500.0
M4 S700 F1500.0
G01 F800.0
G01 X12.83 F800.0
G01 Y8.03 F800.0
G01 X12.54 F800.0
G01 Y8.33 F800.0
M5
G00 X12.25 Y8.62 F1500.0
M4 S700 F1500.0
G01 F800.0
G01 X12.54 F800.0
G01 Y8.33 F800.0
G01 X12.25 F800.0
G01 Y8.62 F800.0
M5
G00 X11.96 Y8.62 F1500.0
M4 S700 F1500.0
G01 F800.0
G01 X12.25 F800.0
G01 Y8.33 F800.0
G01 X11.96 F800.0
G01 Y8.62 F800.0
M5
G00 X11.96 Y8.91 F1500.0
M4 S700 F1500.0
G01 F800.0
G01 X12.25 F800.0
G01 Y8.62 F800.0
G01 X11.96 F800.0
G01 Y8.91 F800.0
M5
G00 X11.66 Y8.91 F1500.0
M4 S700 F1500.0
G01 F800.0
G01 X11.96 F800.0
G01 Y8.62 F800.0
G01 X11.66 F800.0
G01 Y8.91 F800.0
M5
G00 X11.37 Y8.91 F1500.0
M4 S700 F1500.0
G01 F800.0
G01 X11.66 F800.0
G01 Y8.62 F800.0
G01 X11.37 F800.0
G01 Y8.91 F800.0
M5
G00 X11.37 Y8.62 F1500.0
M4 S700 F1500.0
G01 F800.0
G01 X11.66 F800.0
G01 Y8.33 F800.0
G01 X11.37 F800.0
G01 Y8.62 F800.0
M5
G00 X11.08 Y8.62 F1500.0
M4 S700 F1500.0
G01 F800.0
G01 X11.37 F800.0
G01 Y8.33 F800.0
G01 X11.08 F800.0
G01 Y8.62 F800.0
M5
G00 X10.79 Y8.62 F1500.0
M4 S700 F1500.0
G01 F800.0
G01 X11.08 F800.0
G01 Y8.33 F800.0
G01 X10.79 F800.0
G01 Y8.62 F800.0
M5
G00 X10.79 Y8.33 F1500.0
M4 S700 F1500.0
G01 F800.0
G01 X11.08 F800.0
G01 Y8.03 F800.0
G01 X10.79 F800.0
G01 Y8.33 F800.0
M5
G00 X11.08 Y8.33 F1500.0
M4 S700 F1500.0
G01 F800.0
G01 X11.37 F800.0
G01 Y8.03 F800.0
G01 X11.08 F800.0
G01 Y8.33 F800.0
M5
G00 X11.37 Y8.03 F1500.0
M4 S700 F1500.0
G01 F800.0
G01 X11.66 F800.0
G01 Y7.74 F800.0
G01 X11.37 F800.0
G01 Y8.03 F800.0
M5
G00 X11.37 Y7.74 F1500.0
M4 S700 F1500.0
G01 F800.0
G01 X11.66 F800.0
G01 Y7.45 F800.0
G01 X11.37 F800.0
G01 Y7.74 F800.0
M5
G00 X11.08 Y7.45 F1500.0
M4 S700 F1500.0
G01 F800.0
G01 X11.37 F800.0
G01 Y7.15 F800.0
G01 X11.08 F800.0
G01 Y7.45 F800.0
M5
G00 X10.79 Y7.74 F1500.0
M4 S700 F1500.0
G01 F800.0
G01 X11.08 F800.0
G01 Y7.45 F800.0
G01 X10.79 F800.0
G01 Y7.74 F800.0
M5
G00 X10.49 Y8.03 F1500.0
M4 S700 F1500.0
G01 F800.0
G01 X10.79 F800.0
G01 Y7.74 F800.0
G01 X10.49 F800.0
G01 Y8.03 F800.0
M5
G00 X10.2 Y7.74 F1500.0
M4 S700 F1500.0
G01 F800.0
G01 X10.49 F800.0
G01 Y7.45 F800.0
G01 X10.2 F800.0
G01 Y7.74 F800.0
M5
G00 X9.62 Y7.74 F1500.0
M4 S700 F1500.0
G01 F800.0
G01 X9.91 F800.0
G01 Y7.45 F800.0
G01 X9.62 F800.0
G01 Y7.74 F800.0
M5
G00 X9.62 Y7.15 F1500.0
M4 S700 F1500.0
G01 F800.0
G01 X9.91 F800.0
G01 Y6.86 F800.0
G01 X9.62 F800.0
G01 Y7.15 F800.0
M5
G00 X9.91 Y7.15 F1500.0
M4 S700 F1500.0
G01 F800.0
G01 X10.2 F800.0
G01 Y6.86 F800.0
G01 X9.91 F800.0
G01 Y7.15 F800.0
M5
G00 X9.91 Y6.86 F1500.0
M4 S700 F1500.0
G01 F800.0
G01 X10.2 F800.0
G01 Y6.57 F800.0
G01 X9.91 F800.0
G01 Y6.86 F800.0
M5
G00 X9.91 Y6.57 F1500.0
M4 S700 F1500.0
G01 F800.0
G01 X10.2 F800.0
G01 Y6.28 F800.0
G01 X9.91 F800.0
G01 Y6.57 F800.0
M5
G00 X10.2 Y6.57 F1500.0
M4 S700 F1500.0
G01 F800.0
G01 X10.49 F800.0
G01 Y6.28 F800.0
G01 X10.2 F800.0
G01 Y6.57 F800.0
M5
G00 X10.49 Y6.57 F1500.0
M4 S700 F1500.0
G01 F800.0
G01 X10.79 F800.0
G01 Y6.28 F800.0
G01 X10.49 F800.0
G01 Y6.57 F800.0
M5
G00 X10.49 Y6.86 F1500.0
M4 S700 F1500.0
G01 F800.0
G01 X10.79 F800.0
G01 Y6.57 F800.0
G01 X10.49 F800.0
G01 Y6.86 F800.0
M5
G00 X10.79 Y7.15 F1500.0
M4 S700 F1500.0
G01 F800.0
G01 X11.08 F800.0
G01 Y6.86 F800.0
G01 X10.79 F800.0
G01 Y7.15 F800.0
M5
G00 X11.37 Y6.86 F1500.0
M4 S700 F1500.0
G01 F800.0
G01 X11.66 F800.0
G01 Y6.57 F800.0
G01 X11.37 F800.0
G01 Y6.86 F800.0
M5
G00 X11.37 Y6.57 F1500.0
M4 S700 F1500.0
G01 F800.0
G01 X11.66 F800.0
G01 Y6.28 F800.0
G01 X11.37 F800.0
G01 Y6.57 F800.0
M5
G00 X11.66 Y6.57 F1500.0
M4 S700 F1500.0
G01 F800.0
G01 X11.96 F800.0
G01 Y6.28 F800.0
G01 X11.66 F800.0
G01 Y6.57 F800.0
M5
G00 X11.96 Y6.57 F1500.0
M4 S700 F1500.0
G01 F800.0
G01 X12.25 F800.0
G01 Y6.28 F800.0
G01 X11.96 F800.0
G01 Y6.57 F800.0
M5
G00 X11.96 Y6.86 F1500.0
M4 S700 F1500.0
G01 F800.0
G01 X12.25 F800.0
G01 Y6.57 F800.0
G01 X11.96 F800.0
G01 Y6.86 F800.0
M5
G00 X11.66 Y6.86 F1500.0
M4 S700 F1500.0
G01 F800.0
G01 X11.96 F800.0
G01 Y6.57 F800.0
G01 X11.66 F800.0
G01 Y6.86 F800.0
M5
G00 X11.66 Y7.15 F1500.0
M4 S700 F1500.0
G01 F800.0
G01 X11.96 F800.0
G01 Y6.86 F800.0
G01 X11.66 F800.0
G01 Y7.15 F800.0
M5
G00 X12.25 Y7.45 F1500.0
M4 S700 F1500.0
G01 F800.0
G01 X12.54 F800.0
G01 Y7.15 F800.0
G01 X12.25 F800.0
G01 Y7.45 F800.0
M5
G00 X12.54 Y7.15 F1500.0
M4 S700 F1500.0
G01 F800.0
G01 X12.83 F800.0
G01 Y6.86 F800.0
G01 X12.54 F800.0
G01 Y7.15 F800.0
M5
G00 X12.54 Y6.86 F1500.0
M4 S700 F1500.0
G01 F800.0
G01 X12.83 F800.0
G01 Y6.57 F800.0
G01 X12.54 F800.0
G01 Y6.86 F800.0
M5
G00 X12.54 Y6.57 F1500.0
M4 S700 F1500.0
G01 F800.0
G01 X12.83 F800.0
G01 Y6.28 F800.0
G01 X12.54 F800.0
G01 Y6.57 F800.0
M5
G00 X12.83 Y6.57 F1500.0
M4 S700 F1500.0
G01 F800.0
G01 X13.13 F800.0
G01 Y6.28 F800.0
G01 X12.83 F800.0
G01 Y6.57 F800.0
M5
G00 X12.25 Y6.57 F1500.0
M4 S700 F1500.0
G01 F800.0
G01 X12.54 F800.0
G01 Y6.28 F800.0
G01 X12.25 F800.0
G01 Y6.57 F800.0
M5
G00 X11.37 Y6.28 F1500.0
M4 S700 F1500.0
G01 F800.0
G01 X11.66 F800.0
G01 Y5.98 F800.0
G01 X11.37 F800.0
G01 Y6.28 F800.0
M5
G00 X11.08 Y6.28 F1500.0
M4 S700 F1500.0
G01 F800.0
G01 X11.37 F800.0
G01 Y5.98 F800.0
G01 X11.08 F800.0
G01 Y6.28 F800.0
M5
G00 X10.49 Y6.28 F1500.0
M4 S700 F1500.0
G01 F800.0
G01 X10.79 F800.0
G01 Y5.98 F800.0
G01 X10.49 F800.0
G01 Y6.28 F800.0
M5
G00 X10.2 Y5.98 F1500.0
M4 S700 F1500.0
G01 F800.0
G01 X10.49 F800.0
G01 Y5.69 F800.0
G01 X10.2 F800.0
G01 Y5.98 F800.0
M5
G00 X9.62 Y5.98 F1500.0
M4 S700 F1500.0
G01 F800.0
G01 X9.91 F800.0
G01 Y5.69 F800.0
G01 X9.62 F800.0
G01 Y5.98 F800.0
M5
G00 X9.62 Y6.28 F1500.0
M4 S700 F1500.0
G01 F800.0
G01 X9.91 F800.0
G01 Y5.98 F800.0
G01 X9.62 F800.0
G01 Y6.28 F800.0
M5
G00 X9.32 Y5.98 F1500.0
M4 S700 F1500.0
G01 F800.0
G01 X9.62 F800.0
G01 Y5.69 F800.0
G01 X9.32 F800.0
G01 Y5.98 F800.0
M5
G00 X9.03 Y5.98 F1500.0
M4 S700 F1500.0
G01 F800.0
G01 X9.32 F800.0
G01 Y5.69 F800.0
G01 X9.03 F800.0
G01 Y5.98 F800.0
M5
G00 X9.03 Y6.28 F1500.0
M4 S700 F1500.0
G01 F800.0
G01 X9.32 F800.0
G01 Y5.98 F800.0
G01 X9.03 F800.0
G01 Y6.28 F800.0
M5
G00 X8.74 Y5.98 F1500.0
M4 S700 F1500.0
G01 F800.0
G01 X9.03 F800.0
G01 Y5.69 F800.0
G01 X8.74 F800.0
G01 Y5.98 F800.0
M5
G00 X8.44 Y5.98 F1500.0
M4 S700 F1500.0
G01 F800.0
G01 X8.74 F800.0
G01 Y5.69 F800.0
G01 X8.44 F800.0
G01 Y5.98 F800.0
M5
G00 X8.15 Y5.98 F1500.0
M4 S700 F1500.0
G01 F800.0
G01 X8.44 F800.0
G01 Y5.69 F800.0
G01 X8.15 F800.0
G01 Y5.98 F800.0
M5
G00 X8.15 Y5.69 F1500.0
M4 S700 F1500.0
G01 F800.0
G01 X8.44 F800.0
G01 Y5.4 F800.0
G01 X8.15 F800.0
G01 Y5.69 F800.0
M5
G00 X8.44 Y5.69 F1500.0
M4 S700 F1500.0
G01 F800.0
G01 X8.74 F800.0
G01 Y5.4 F800.0
G01 X8.44 F800.0
G01 Y5.69 F800.0
M5
G00 X8.44 Y6.28 F1500.0
M4 S700 F1500.0
G01 F800.0
G01 X8.74 F800.0
G01 Y5.98 F800.0
G01 X8.44 F800.0
G01 Y6.28 F800.0
M5
G00 X8.44 Y6.57 F1500.0
M4 S700 F1500.0
G01 F800.0
G01 X8.74 F800.0
G01 Y6.28 F800.0
G01 X8.44 F800.0
G01 Y6.57 F800.0
M5
G00 X8.15 Y6.57 F1500.0
M4 S700 F1500.0
G01 F800.0
G01 X8.44 F800.0
G01 Y6.28 F800.0
G01 X8.15 F800.0
G01 Y6.57 F800.0
M5
G00 X8.44 Y6.86 F1500.0
M4 S700 F1500.0
G01 F800.0
G01 X8.74 F800.0
G01 Y6.57 F800.0
G01 X8.44 F800.0
G01 Y6.86 F800.0
M5
G00 X8.44 Y7.15 F1500.0
M4 S700 F1500.0
G01 F800.0
G01 X8.74 F800.0
G01 Y6.86 F800.0
G01 X8.44 F800.0
G01 Y7.15 F800.0
M5
G00 X8.74 Y7.15 F1500.0
M4 S700 F1500.0
G01 F800.0
G01 X9.03 F800.0
G01 Y6.86 F800.0
G01 X8.74 F800.0
G01 Y7.15 F800.0
M5
G00 X8.74 Y6.86 F1500.0
M4 S700 F1500.0
G01 F800.0
G01 X9.03 F800.0
G01 Y6.57 F800.0
G01 X8.74 F800.0
G01 Y6.86 F800.0
M5
G00 X8.74 Y6.57 F1500.0
M4 S700 F1500.0
G01 F800.0
G01 X9.03 F800.0
G01 Y6.28 F800.0
G01 X8.74 F800.0
G01 Y6.57 F800.0
M5
G00 X9.32 Y6.86 F1500.0
M4 S700 F1500.0
G01 F800.0
G01 X9.62 F800.0
G01 Y6.57 F800.0
G01 X9.32 F800.0
G01 Y6.86 F800.0
M5
G00 X9.32 Y7.15 F1500.0
M4 S700 F1500.0
G01 F800.0
G01 X9.62 F800.0
G01 Y6.86 F800.0
G01 X9.32 F800.0
G01 Y7.15 F800.0
M5
G00 X9.03 Y7.45 F1500.0
M4 S700 F1500.0
G01 F800.0
G01 X9.32 F800.0
G01 Y7.15 F800.0
G01 X9.03 F800.0
G01 Y7.45 F800.0
M5
G00 X8.44 Y7.45 F1500.0
M4 S700 F1500.0
G01 F800.0
G01 X8.74 F800.0
G01 Y7.15 F800.0
G01 X8.44 F800.0
G01 Y7.45 F800.0
M5
G00 X8.15 Y7.45 F1500.0
M4 S700 F1500.0
G01 F800.0
G01 X8.44 F800.0
G01 Y7.15 F800.0
G01 X8.15 F800.0
G01 Y7.45 F800.0
M5
G00 X8.44 Y7.74 F1500.0
M4 S700 F1500.0
G01 F800.0
G01 X8.74 F800.0
G01 Y7.45 F800.0
G01 X8.44 F800.0
G01 Y7.74 F800.0
M5
G00 X8.44 Y8.03 F1500.0
M4 S700 F1500.0
G01 F800.0
G01 X8.74 F800.0
G01 Y7.74 F800.0
G01 X8.44 F800.0
G01 Y8.03 F800.0
M5
G00 X8.15 Y8.03 F1500.0
M4 S700 F1500.0
G01 F800.0
G01 X8.44 F800.0
G01 Y7.74 F800.0
G01 X8.15 F800.0
G01 Y8.03 F800.0
M5
G00 X7.86 Y8.03 F1500.0
M4 S700 F1500.0
G01 F800.0
G01 X8.15 F800.0
G01 Y7.74 F800.0
G01 X7.86 F800.0
G01 Y8.03 F800.0
M5
G00 X7.86 Y7.74 F1500.0
M4 S700 F1500.0
G01 F800.0
G01 X8.15 F800.0
G01 Y7.45 F800.0
G01 X7.86 F800.0
G01 Y7.74 F800.0
M5
G00 X7.57 Y7.74 F1500.0
M4 S700 F1500.0
G01 F800.0
G01 X7.86 F800.0
G01 Y7.45 F800.0
G01 X7.57 F800.0
G01 Y7.74 F800.0
M5
G00 X7.57 Y7.45 F1500.0
M4 S700 F1500.0
G01 F800.0
G01 X7.86 F800.0
G01 Y7.15 F800.0
G01 X7.57 F800.0
G01 Y7.45 F800.0
M5
G00 X7.57 Y6.86 F1500.0
M4 S700 F1500.0
G01 F800.0
G01 X7.86 F800.0
G01 Y6.57 F800.0
G01 X7.57 F800.0
G01 Y6.86 F800.0
M5
G00 X7.27 Y6.86 F1500.0
M4 S700 F1500.0
G01 F800.0
G01 X7.57 F800.0
G01 Y6.57 F800.0
G01 X7.27 F800.0
G01 Y6.86 F800.0
M5
G00 X7.27 Y6.57 F1500.0
M4 S700 F1500.0
G01 F800.0
G01 X7.57 F800.0
G01 Y6.28 F800.0
G01 X7.27 F800.0
G01 Y6.57 F800.0
M5
G00 X7.27 Y6.28 F1500.0
M4 S700 F1500.0
G01 F800.0
G01 X7.57 F800.0
G01 Y5.98 F800.0
G01 X7.27 F800.0
G01 Y6.28 F800.0
M5
G00 X6.98 Y6.28 F1500.0
M4 S700 F1500.0
G01 F800.0
G01 X7.27 F800.0
G01 Y5.98 F800.0
G01 X6.98 F800.0
G01 Y6.28 F800.0
M5
G00 X6.98 Y5.98 F1500.0
M4 S700 F1500.0
G01 F800.0
G01 X7.27 F800.0
G01 Y5.69 F800.0
G01 X6.98 F800.0
G01 Y5.98 F800.0
M5
G00 X6.69 Y5.69 F1500.0
M4 S700 F1500.0
G01 F800.0
G01 X6.98 F800.0
G01 Y5.4 F800.0
G01 X6.69 F800.0
G01 Y5.69 F800.0
M5
G00 X6.39 Y5.69 F1500.0
M4 S700 F1500.0
G01 F800.0
G01 X6.69 F800.0
G01 Y5.4 F800.0
G01 X6.39 F800.0
G01 Y5.69 F800.0
M5
G00 X6.39 Y5.98 F1500.0
M4 S700 F1500.0
G01 F800.0
G01 X6.69 F800.0
G01 Y5.69 F800.0
G01 X6.39 F800.0
G01 Y5.98 F800.0
M5
G00 X6.69 Y6.28 F1500.0
M4 S700 F1500.0
G01 F800.0
G01 X6.98 F800.0
G01 Y5.98 F800.0
G01 X6.69 F800.0
G01 Y6.28 F800.0
M5
G00 X6.69 Y6.57 F1500.0
M4 S700 F1500.0
G01 F800.0
G01 X6.98 F800.0
G01 Y6.28 F800.0
G01 X6.69 F800.0
G01 Y6.57 F800.0
M5
G00 X6.69 Y7.15 F1500.0
M4 S700 F1500.0
G01 F800.0
G01 X6.98 F800.0
G01 Y6.86 F800.0
G01 X6.69 F800.0
G01 Y7.15 F800.0
M5
G00 X6.39 Y7.15 F1500.0
M4 S700 F1500.0
G01 F800.0
G01 X6.69 F800.0
G01 Y6.86 F800.0
G01 X6.39 F800.0
G01 Y7.15 F800.0
M5
G00 X6.39 Y7.45 F1500.0
M4 S700 F1500.0
G01 F800.0
G01 X6.69 F800.0
G01 Y7.15 F800.0
G01 X6.39 F800.0
G01 Y7.45 F800.0
M5
G00 X6.1 Y7.45 F1500.0
M4 S700 F1500.0
G01 F800.0
G01 X6.39 F800.0
G01 Y7.15 F800.0
G01 X6.1 F800.0
G01 Y7.45 F800.0
M5
G00 X5.81 Y7.45 F1500.0
M4 S700 F1500.0
G01 F800.0
G01 X6.1 F800.0
G01 Y7.15 F800.0
G01 X5.81 F800.0
G01 Y7.45 F800.0
M5
G00 X5.52 Y7.45 F1500.0
M4 S700 F1500.0
G01 F800.0
G01 X5.81 F800.0
G01 Y7.15 F800.0
G01 X5.52 F800.0
G01 Y7.45 F800.0
M5
G00 X5.52 Y7.15 F1500.0
M4 S700 F1500.0
G01 F800.0
G01 X5.81 F800.0
G01 Y6.86 F800.0
G01 X5.52 F800.0
G01 Y7.15 F800.0
M5
G00 X5.22 Y7.15 F1500.0
M4 S700 F1500.0
G01 F800.0
G01 X5.52 F800.0
G01 Y6.86 F800.0
G01 X5.22 F800.0
G01 Y7.15 F800.0
M5
G00 X4.93 Y7.45 F1500.0
M4 S700 F1500.0
G01 F800.0
G01 X5.22 F800.0
G01 Y7.15 F800.0
G01 X4.93 F800.0
G01 Y7.45 F800.0
M5
G00 X4.93 Y7.74 F1500.0
M4 S700 F1500.0
G01 F800.0
G01 X5.22 F800.0
G01 Y7.45 F800.0
G01 X4.93 F800.0
G01 Y7.74 F800.0
M5
G00 X4.93 Y8.03 F1500.0
M4 S700 F1500.0
G01 F800.0
G01 X5.22 F800.0
G01 Y7.74 F800.0
G01 X4.93 F800.0
G01 Y8.03 F800.0
M5
G00 X5.22 Y8.03 F1500.0
M4 S700 F1500.0
G01 F800.0
G01 X5.52 F800.0
G01 Y7.74 F800.0
G01 X5.22 F800.0
G01 Y8.03 F800.0
M5
G00 X5.52 Y8.03 F1500.0
M4 S700 F1500.0
G01 F800.0
G01 X5.81 F800.0
G01 Y7.74 F800.0
G01 X5.52 F800.0
G01 Y8.03 F800.0
M5
G00 X5.81 Y8.03 F1500.0
M4 S700 F1500.0
G01 F800.0
G01 X6.1 F800.0
G01 Y7.74 F800.0
G01 X5.81 F800.0
G01 Y8.03 F800.0
M5
G00 X5.81 Y8.62 F1500.0
M4 S700 F1500.0
G01 F800.0
G01 X6.1 F800.0
G01 Y8.33 F800.0
G01 X5.81 F800.0
G01 Y8.62 F800.0
M5
G00 X5.52 Y8.91 F1500.0
M4 S700 F1500.0
G01 F800.0
G01 X5.81 F800.0
G01 Y8.62 F800.0
G01 X5.52 F800.0
G01 Y8.91 F800.0
M5
G00 X5.22 Y8.91 F1500.0
M4 S700 F1500.0
G01 F800.0
G01 X5.52 F800.0
G01 Y8.62 F800.0
G01 X5.22 F800.0
G01 Y8.91 F800.0
M5
G00 X4.93 Y8.91 F1500.0
M4 S700 F1500.0
G01 F800.0
G01 X5.22 F800.0
G01 Y8.62 F800.0
G01 X4.93 F800.0
G01 Y8.91 F800.0
M5
G00 X4.93 Y8.62 F1500.0
M4 S700 F1500.0
G01 F800.0
G01 X5.22 F800.0
G01 Y8.33 F800.0
G01 X4.93 F800.0
G01 Y8.62 F800.0
M5
G00 X4.93 Y8.33 F1500.0
M4 S700 F1500.0
G01 F800.0
G01 X5.22 F800.0
G01 Y8.03 F800.0
G01 X4.93 F800.0
G01 Y8.33 F800.0
M5
G00 X4.64 Y8.62 F1500.0
M4 S700 F1500.0
G01 F800.0
G01 X4.93 F800.0
G01 Y8.33 F800.0
G01 X4.64 F800.0
G01 Y8.62 F800.0
M5
G00 X4.35 Y8.62 F1500.0
M4 S700 F1500.0
G01 F800.0
G01 X4.64 F800.0
G01 Y8.33 F800.0
G01 X4.35 F800.0
G01 Y8.62 F800.0
M5
G00 X4.35 Y8.91 F1500.0
M4 S700 F1500.0
G01 F800.0
G01 X4.64 F800.0
G01 Y8.62 F800.0
G01 X4.35 F800.0
G01 Y8.91 F800.0
M5
G00 X4.64 Y8.91 F1500.0
M4 S700 F1500.0
G01 F800.0
G01 X4.93 F800.0
G01 Y8.62 F800.0
G01 X4.64 F800.0
G01 Y8.91 F800.0
M5
G00 X4.64 Y9.2 F1500.0
M4 S700 F1500.0
G01 F800.0
G01 X4.93 F800.0
G01 Y8.91 F800.0
G01 X4.64 F800.0
G01 Y9.2 F800.0
M5
G00 X5.22 Y9.2 F1500.0
M4 S700 F1500.0
G01 F800.0
G01 X5.52 F800.0
G01 Y8.91 F800.0
G01 X5.22 F800.0
G01 Y9.2 F800.0
M5
G00 X5.52 Y9.2 F1500.0
M4 S700 F1500.0
G01 F800.0
G01 X5.81 F800.0
G01 Y8.91 F800.0
G01 X5.52 F800.0
G01 Y9.2 F800.0
M5
G00 X5.52 Y9.5 F1500.0
M4 S700 F1500.0
G01 F800.0
G01 X5.81 F800.0
G01 Y9.2 F800.0
G01 X5.52 F800.0
G01 Y9.5 F800.0
M5
G00 X5.22 Y9.5 F1500.0
M4 S700 F1500.0
G01 F800.0
G01 X5.52 F800.0
G01 Y9.2 F800.0
G01 X5.22 F800.0
G01 Y9.5 F800.0
M5
G00 X5.52 Y9.79 F1500.0
M4 S700 F1500.0
G01 F800.0
G01 X5.81 F800.0
G01 Y9.5 F800.0
G01 X5.52 F800.0
G01 Y9.79 F800.0
M5
G00 X5.81 Y9.79 F1500.0
M4 S700 F1500.0
G01 F800.0
G01 X6.1 F800.0
G01 Y9.5 F800.0
G01 X5.81 F800.0
G01 Y9.79 F800.0
M5
G00 X5.52 Y10.08 F1500.0
M4 S700 F1500.0
G01 F800.0
G01 X5.81 F800.0
G01 Y9.79 F800.0
G01 X5.52 F800.0
G01 Y10.08 F800.0
M5
G00 X5.52 Y10.37 F1500.0
M4 S700 F1500.0
G01 F800.0
G01 X5.81 F800.0
G01 Y10.08 F800.0
G01 X5.52 F800.0
G01 Y10.37 F800.0
M5
G00 X5.81 Y10.37 F1500.0
M4 S700 F1500.0
G01 F800.0
G01 X6.1 F800.0
G01 Y10.08 F800.0
G01 X5.81 F800.0
G01 Y10.37 F800.0
M5
G00 X6.1 Y10.37 F1500.0
M4 S700 F1500.0
G01 F800.0
G01 X6.39 F800.0
G01 Y10.08 F800.0
G01 X6.1 F800.0
G01 Y10.37 F800.0
M5
G00 X6.1 Y10.08 F1500.0
M4 S700 F1500.0
G01 F800.0
G01 X6.39 F800.0
G01 Y9.79 F800.0
G01 X6.1 F800.0
G01 Y10.08 F800.0
M5
G00 X6.39 Y10.67 F1500.0
M4 S700 F1500.0
G01 F800.0
G01 X6.69 F800.0
G01 Y10.37 F800.0
G01 X6.39 F800.0
G01 Y10.67 F800.0
M5
G00 X6.39 Y10.96 F1500.0
M4 S700 F1500.0
G01 F800.0
G01 X6.69 F800.0
G01 Y10.67 F800.0
G01 X6.39 F800.0
G01 Y10.96 F800.0
M5
G00 X6.1 Y10.96 F1500.0
M4 S700 F1500.0
G01 F800.0
G01 X6.39 F800.0
G01 Y10.67 F800.0
G01 X6.1 F800.0
G01 Y10.96 F800.0
M5
G00 X5.81 Y10.96 F1500.0
M4 S700 F1500.0
G01 F800.0
G01 X6.1 F800.0
G01 Y10.67 F800.0
G01 X5.81 F800.0
G01 Y10.96 F800.0
M5
G00 X5.81 Y11.54 F1500.0
M4 S700 F1500.0
G01 F800.0
G01 X6.1 F800.0
G01 Y11.25 F800.0
G01 X5.81 F800.0
G01 Y11.54 F800.0
M5
G00 X5.52 Y11.54 F1500.0
M4 S700 F1500.0
G01 F800.0
G01 X5.81 F800.0
G01 Y11.25 F800.0
G01 X5.52 F800.0
G01 Y11.54 F800.0
M5
G00 X5.22 Y11.54 F1500.0
M4 S700 F1500.0
G01 F800.0
G01 X5.52 F800.0
G01 Y11.25 F800.0
G01 X5.22 F800.0
G01 Y11.54 F800.0
M5
G00 X4.93 Y11.54 F1500.0
M4 S700 F1500.0
G01 F800.0
G01 X5.22 F800.0
G01 Y11.25 F800.0
G01 X4.93 F800.0
G01 Y11.54 F800.0
M5
G00 X4.64 Y11.54 F1500.0
M4 S700 F1500.0
G01 F800.0
G01 X4.93 F800.0
G01 Y11.25 F800.0
G01 X4.64 F800.0
G01 Y11.54 F800.0
M5
G00 X4.35 Y11.54 F1500.0
M4 S700 F1500.0
G01 F800.0
G01 X4.64 F800.0
G01 Y11.25 F800.0
G01 X4.35 F800.0
G01 Y11.54 F800.0
M5
G00 X4.05 Y11.54 F1500.0
M4 S700 F1500.0
G01 F800.0
G01 X4.35 F800.0
G01 Y11.25 F800.0
G01 X4.05 F800.0
G01 Y11.54 F800.0
M5
G00 X4.05 Y11.84 F1500.0
M4 S700 F1500.0
G01 F800.0
G01 X4.35 F800.0
G01 Y11.54 F800.0
G01 X4.05 F800.0
G01 Y11.84 F800.0
M5
G00 X4.05 Y12.13 F1500.0
M4 S700 F1500.0
G01 F800.0
G01 X4.35 F800.0
G01 Y11.84 F800.0
G01 X4.05 F800.0
G01 Y12.13 F800.0
M5
G00 X4.05 Y12.42 F1500.0
M4 S700 F1500.0
G01 F800.0
G01 X4.35 F800.0
G01 Y12.13 F800.0
G01 X4.05 F800.0
G01 Y12.42 F800.0
M5
G00 X4.05 Y12.72 F1500.0
M4 S700 F1500.0
G01 F800.0
G01 X4.35 F800.0
G01 Y12.42 F800.0
G01 X4.05 F800.0
G01 Y12.72 F800.0
M5
G00 X4.05 Y13.01 F1500.0
M4 S700 F1500.0
G01 F800.0
G01 X4.35 F800.0
G01 Y12.72 F800.0
G01 X4.05 F800.0
G01 Y13.01 F800.0
M5
G00 X4.05 Y13.3 F1500.0
M4 S700 F1500.0
G01 F800.0
G01 X4.35 F800.0
G01 Y13.01 F800.0
G01 X4.05 F800.0
G01 Y13.3 F800.0
M5
G00 X4.35 Y13.3 F1500.0
M4 S700 F1500.0
G01 F800.0
G01 X4.64 F800.0
G01 Y13.01 F800.0
G01 X4.35 F800.0
G01 Y13.3 F800.0
M5
G00 X4.64 Y13.3 F1500.0
M4 S700 F1500.0
G01 F800.0
G01 X4.93 F800.0
G01 Y13.01 F800.0
G01 X4.64 F800.0
G01 Y13.3 F800.0
M5
G00 X4.93 Y13.3 F1500.0
M4 S700 F1500.0
G01 F800.0
G01 X5.22 F800.0
G01 Y13.01 F800.0
G01 X4.93 F800.0
G01 Y13.3 F800.0
M5
G00 X5.22 Y13.3 F1500.0
M4 S700 F1500.0
G01 F800.0
G01 X5.52 F800.0
G01 Y13.01 F800.0
G01 X5.22 F800.0
G01 Y13.3 F800.0
M5
G00 X5.52 Y13.3 F1500.0
M4 S700 F1500.0
G01 F800.0
G01 X5.81 F800.0
G01 Y13.01 F800.0
G01 X5.52 F800.0
G01 Y13.3 F800.0
M5
G00 X5.81 Y13.3 F1500.0
M4 S700 F1500.0
G01 F800.0
G01 X6.1 F800.0
G01 Y13.01 F800.0
G01 X5.81 F800.0
G01 Y13.3 F800.0
M5
G00 X5.81 Y13.01 F1500.0
M4 S700 F1500.0
G01 F800.0
G01 X6.1 F800.0
G01 Y12.72 F800.0
G01 X5.81 F800.0
G01 Y13.01 F800.0
M5
G00 X5.81 Y12.72 F1500.0
M4 S700 F1500.0
G01 F800.0
G01 X6.1 F800.0
G01 Y12.42 F800.0
G01 X5.81 F800.0
G01 Y12.72 F800.0
M5
G00 X5.81 Y12.42 F1500.0
M4 S700 F1500.0
G01 F800.0
G01 X6.1 F800.0
G01 Y12.13 F800.0
G01 X5.81 F800.0
G01 Y12.42 F800.0
M5
G00 X5.81 Y12.13 F1500.0
M4 S700 F1500.0
G01 F800.0
G01 X6.1 F800.0
G01 Y11.84 F800.0
G01 X5.81 F800.0
G01 Y12.13 F800.0
M5
G00 X5.81 Y11.84 F1500.0
M4 S700 F1500.0
G01 F800.0
G01 X6.1 F800.0
G01 Y11.54 F800.0
G01 X5.81 F800.0
G01 Y11.84 F800.0
M5
G00 X6.39 Y11.84 F1500.0
M4 S700 F1500.0
G01 F800.0
G01 X6.69 F800.0
G01 Y11.54 F800.0
G01 X6.39 F800.0
G01 Y11.84 F800.0
M5
G00 X6.69 Y11.84 F1500.0
M4 S700 F1500.0
G01 F800.0
G01 X6.98 F800.0
G01 Y11.54 F800.0
G01 X6.69 F800.0
G01 Y11.84 F800.0
M5
G00 X6.69 Y12.13 F1500.0
M4 S700 F1500.0
G01 F800.0
G01 X6.98 F800.0
G01 Y11.84 F800.0
G01 X6.69 F800.0
G01 Y12.13 F800.0
M5
G00 X6.69 Y12.42 F1500.0
M4 S700 F1500.0
G01 F800.0
G01 X6.98 F800.0
G01 Y12.13 F800.0
G01 X6.69 F800.0
G01 Y12.42 F800.0
M5
G00 X6.39 Y12.42 F1500.0
M4 S700 F1500.0
G01 F800.0
G01 X6.69 F800.0
G01 Y12.13 F800.0
G01 X6.39 F800.0
G01 Y12.42 F800.0
M5
G00 X6.98 Y12.42 F1500.0
M4 S700 F1500.0
G01 F800.0
G01 X7.27 F800.0
G01 Y12.13 F800.0
G01 X6.98 F800.0
G01 Y12.42 F800.0
M5
G00 X7.57 Y12.42 F1500.0
M4 S700 F1500.0
G01 F800.0
G01 X7.86 F800.0
G01 Y12.13 F800.0
G01 X7.57 F800.0
G01 Y12.42 F800.0
M5
G00 X7.86 Y12.42 F1500.0
M4 S700 F1500.0
G01 F800.0
G01 X8.15 F800.0
G01 Y12.13 F800.0
G01 X7.86 F800.0
G01 Y12.42 F800.0
M5
G00 X8.15 Y12.42 F1500.0
M4 S700 F1500.0
G01 F800.0
G01 X8.44 F800.0
G01 Y12.13 F800.0
G01 X8.15 F800.0
G01 Y12.42 F800.0
M5
G00 X8.15 Y12.72 F1500.0
M4 S700 F1500.0
G01 F800.0
G01 X8.44 F800.0
G01 Y12.42 F800.0
G01 X8.15 F800.0
G01 Y12.72 F800.0
M5
G00 X8.15 Y13.01 F1500.0
M4 S700 F1500.0
G01 F800.0
G01 X8.44 F800.0
G01 Y12.72 F800.0
G01 X8.15 F800.0
G01 Y13.01 F800.0
M5
G00 X8.44 Y13.01 F1500.0
M4 S700 F1500.0
G01 F800.0
G01 X8.74 F800.0
G01 Y12.72 F800.0
G01 X8.44 F800.0
G01 Y13.01 F800.0
M5
G00 X8.74 Y13.3 F1500.0
M4 S700 F1500.0
G01 F800.0
G01 X9.03 F800.0
G01 Y13.01 F800.0
G01 X8.74 F800.0
G01 Y13.3 F800.0
M5
G00 X9.03 Y13.3 F1500.0
M4 S700 F1500.0
G01 F800.0
G01 X9.32 F800.0
G01 Y13.01 F800.0
G01 X9.03 F800.0
G01 Y13.3 F800.0
M5
G00 X9.32 Y13.3 F1500.0
M4 S700 F1500.0
G01 F800.0
G01 X9.62 F800.0
G01 Y13.01 F800.0
G01 X9.32 F800.0
G01 Y13.3 F800.0
M5
G00 X9.62 Y13.3 F1500.0
M4 S700 F1500.0
G01 F800.0
G01 X9.91 F800.0
G01 Y13.01 F800.0
G01 X9.62 F800.0
G01 Y13.3 F800.0
M5
G00 X9.91 Y13.3 F1500.0
M4 S700 F1500.0
G01 F800.0
G01 X10.2 F800.0
G01 Y13.01 F800.0
G01 X9.91 F800.0
G01 Y13.3 F800.0
M5
G00 X10.2 Y13.3 F1500.0
M4 S700 F1500.0
G01 F800.0
G01 X10.49 F800.0
G01 Y13.01 F800.0
G01 X10.2 F800.0
G01 Y13.3 F800.0
M5
G00 X10.49 Y13.3 F1500.0
M4 S700 F1500.0
G01 F800.0
G01 X10.79 F800.0
G01 Y13.01 F800.0
G01 X10.49 F800.0
G01 Y13.3 F800.0
M5
G00 X10.79 Y13.3 F1500.0
M4 S700 F1500.0
G01 F800.0
G01 X11.08 F800.0
G01 Y13.01 F800.0
G01 X10.79 F800.0
G01 Y13.3 F800.0
M5
G00 X11.08 Y13.01 F1500.0
M4 S700 F1500.0
G01 F800.0
G01 X11.37 F800.0
G01 Y12.72 F800.0
G01 X11.08 F800.0
G01 Y13.01 F800.0
M5
G00 X11.08 Y12.72 F1500.0
M4 S700 F1500.0
G01 F800.0
G01 X11.37 F800.0
G01 Y12.42 F800.0
G01 X11.08 F800.0
G01 Y12.72 F800.0
M5
G00 X10.79 Y12.72 F1500.0
M4 S700 F1500.0
G01 F800.0
G01 X11.08 F800.0
G01 Y12.42 F800.0
G01 X10.79 F800.0
G01 Y12.72 F800.0
M5
G00 X10.49 Y12.42 F1500.0
M4 S700 F1500.0
G01 F800.0
G01 X10.79 F800.0
G01 Y12.13 F800.0
G01 X10.49 F800.0
G01 Y12.42 F800.0
M5
G00 X10.79 Y12.13 F1500.0
M4 S700 F1500.0
G01 F800.0
G01 X11.08 F800.0
G01 Y11.84 F800.0
G01 X10.79 F800.0
G01 Y12.13 F800.0
M5
G00 X11.08 Y11.54 F1500.0
M4 S700 F1500.0
G01 F800.0
G01 X11.37 F800.0
G01 Y11.25 F800.0
G01 X11.08 F800.0
G01 Y11.54 F800.0
M5
G00 X11.08 Y11.25 F1500.0
M4 S700 F1500.0
G01 F800.0
G01 X11.37 F800.0
G01 Y10.96 F800.0
G01 X11.08 F800.0
G01 Y11.25 F800.0
M5
G00 X11.08 Y10.96 F1500.0
M4 S700 F1500.0
G01 F800.0
G01 X11.37 F800.0
G01 Y10.67 F800.0
G01 X11.08 F800.0
G01 Y10.96 F800.0
M5
G00 X11.37 Y10.96 F1500.0
M4 S700 F1500.0
G01 F800.0
G01 X11.66 F800.0
G01 Y10.67 F800.0
G01 X11.37 F800.0
G01 Y10.96 F800.0
M5
G00 X11.66 Y10.67 F1500.0
M4 S700 F1500.0
G01 F800.0
G01 X11.96 F800.0
G01 Y10.37 F800.0
G01 X11.66 F800.0
G01 Y10.67 F800.0
M5
G00 X11.96 Y10.37 F1500.0
M4 S700 F1500.0
G01 F800.0
G01 X12.25 F800.0
G01 Y10.08 F800.0
G01 X11.96 F800.0
G01 Y10.37 F800.0
M5
G00 X12.25 Y10.37 F1500.0
M4 S700 F1500.0
G01 F800.0
G01 X12.54 F800.0
G01 Y10.08 F800.0
G01 X12.25 F800.0
G01 Y10.37 F800.0
M5
G00 X12.25 Y10.08 F1500.0
M4 S700 F1500.0
G01 F800.0
G01 X12.54 F800.0
G01 Y9.79 F800.0
G01 X12.25 F800.0
G01 Y10.08 F800.0
M5
G00 X12.25 Y9.79 F1500.0
M4 S700 F1500.0
G01 F800.0
G01 X12.54 F800.0
G01 Y9.5 F800.0
G01 X12.25 F800.0
G01 Y9.79 F800.0
M5
G00 X12.54 Y9.79 F1500.0
M4 S700 F1500.0
G01 F800.0
G01 X12.83 F800.0
G01 Y9.5 F800.0
G01 X12.54 F800.0
G01 Y9.79 F800.0
M5
G00 X12.83 Y10.08 F1500.0
M4 S700 F1500.0
G01 F800.0
G01 X13.13 F800.0
G01 Y9.79 F800.0
G01 X12.83 F800.0
G01 Y10.08 F800.0
M5
G00 X12.54 Y10.37 F1500.0
M4 S700 F1500.0
G01 F800.0
G01 X12.83 F800.0
G01 Y10.08 F800.0
G01 X12.54 F800.0
G01 Y10.37 F800.0
M5
G00 X12.83 Y10.67 F1500.0
M4 S700 F1500.0
G01 F800.0
G01 X13.13 F800.0
G01 Y10.37 F800.0
G01 X12.83 F800.0
G01 Y10.67 F800.0
M5
G00 X13.13 Y10.67 F1500.0
M4 S700 F1500.0
G01 F800.0
G01 X13.42 F800.0
G01 Y10.37 F800.0
G01 X13.13 F800.0
G01 Y10.67 F800.0
M5
G00 X13.13 Y10.37 F1500.0
M4 S700 F1500.0
G01 F800.0
G01 X13.42 F800.0
G01 Y10.08 F800.0
G01 X13.13 F800.0
G01 Y10.37 F800.0
M5
G00 X13.42 Y10.67 F1500.0
M4 S700 F1500.0
G01 F800.0
G01 X13.71 F800.0
G01 Y10.37 F800.0
G01 X13.42 F800.0
G01 Y10.67 F800.0
M5
G00 X13.13 Y10.96 F1500.0
M4 S700 F1500.0
G01 F800.0
G01 X13.42 F800.0
G01 Y10.67 F800.0
G01 X13.13 F800.0
G01 Y10.96 F800.0
M5
G00 X13.13 Y11.54 F1500.0
M4 S700 F1500.0
G01 F800.0
G01 X13.42 F800.0
G01 Y11.25 F800.0
G01 X13.13 F800.0
G01 Y11.54 F800.0
M5
G00 X13.42 Y11.54 F1500.0
M4 S700 F1500.0
G01 F800.0
G01 X13.71 F800.0
G01 Y11.25 F800.0
G01 X13.42 F800.0
G01 Y11.54 F800.0
M5
G00 X13.42 Y11.84 F1500.0
M4 S700 F1500.0
G01 F800.0
G01 X13.71 F800.0
G01 Y11.54 F800.0
G01 X13.42 F800.0
G01 Y11.84 F800.0
M5
G00 X13.42 Y12.13 F1500.0
M4 S700 F1500.0
G01 F800.0
G01 X13.71 F800.0
G01 Y11.84 F800.0
G01 X13.42 F800.0
G01 Y12.13 F800.0
M5
G00 X13.42 Y12.42 F1500.0
M4 S700 F1500.0
G01 F800.0
G01 X13.71 F800.0
G01 Y12.13 F800.0
G01 X13.42 F800.0
G01 Y12.42 F800.0
M5
G00 X13.42 Y12.72 F1500.0
M4 S700 F1500.0
G01 F800.0
G01 X13.71 F800.0
G01 Y12.42 F800.0
G01 X13.42 F800.0
G01 Y12.72 F800.0
M5
G00 X13.42 Y13.01 F1500.0
M4 S700 F1500.0
G01 F800.0
G01 X13.71 F800.0
G01 Y12.72 F800.0
G01 X13.42 F800.0
G01 Y13.01 F800.0
M5
G00 X13.42 Y13.3 F1500.0
M4 S700 F1500.0
G01 F800.0
G01 X13.71 F800.0
G01 Y13.01 F800.0
G01 X13.42 F800.0
G01 Y13.3 F800.0
M5
G00 X13.13 Y13.3 F1500.0
M4 S700 F1500.0
G01 F800.0
G01 X13.42 F800.0
G01 Y13.01 F800.0
G01 X13.13 F800.0
G01 Y13.3 F800.0
M5
G00 X12.83 Y13.3 F1500.0
M4 S700 F1500.0
G01 F800.0
G01 X13.13 F800.0
G01 Y13.01 F800.0
G01 X12.83 F800.0
G01 Y13.3 F800.0
M5
G00 X12.54 Y13.3 F1500.0
M4 S700 F1500.0
G01 F800.0
G01 X12.83 F800.0
G01 Y13.01 F800.0
G01 X12.54 F800.0
G01 Y13.3 F800.0
M5
G00 X12.25 Y13.3 F1500.0
M4 S700 F1500.0
G01 F800.0
G01 X12.54 F800.0
G01 Y13.01 F800.0
G01 X12.25 F800.0
G01 Y13.3 F800.0
M5
G00 X11.96 Y13.3 F1500.0
M4 S700 F1500.0
G01 F800.0
G01 X12.25 F800.0
G01 Y13.01 F800.0
G01 X11.96 F800.0
G01 Y13.3 F800.0
M5
G00 X11.66 Y13.3 F1500.0
M4 S700 F1500.0
G01 F800.0
G01 X11.96 F800.0
G01 Y13.01 F800.0
G01 X11.66 F800.0
G01 Y13.3 F800.0
M5
G00 X11.66 Y13.01 F1500.0
M4 S700 F1500.0
G01 F800.0
G01 X11.96 F800.0
G01 Y12.72 F800.0
G01 X11.66 F800.0
G01 Y13.01 F800.0
M5
G00 X11.66 Y12.72 F1500.0
M4 S700 F1500.0
G01 F800.0
G01 X11.96 F800.0
G01 Y12.42 F800.0
G01 X11.66 F800.0
G01 Y12.72 F800.0
M5
G00 X11.66 Y12.42 F1500.0
M4 S700 F1500.0
G01 F800.0
G01 X11.96 F800.0
G01 Y12.13 F800.0
G01 X11.66 F800.0
G01 Y12.42 F800.0
M5
G00 X11.66 Y12.13 F1500.0
M4 S700 F1500.0
G01 F800.0
G01 X11.96 F800.0
G01 Y11.84 F800.0
G01 X11.66 F800.0
G01 Y12.13 F800.0
M5
G00 X11.66 Y11.84 F1500.0
M4 S700 F1500.0
G01 F800.0
G01 X11.96 F800.0
G01 Y11.54 F800.0
G01 X11.66 F800.0
G01 Y11.84 F800.0
M5
G00 X11.66 Y11.54 F1500.0
M4 S700 F1500.0
G01 F800.0
G01 X11.96 F800.0
G01 Y11.25 F800.0
G01 X11.66 F800.0
G01 Y11.54 F800.0
M5
G00 X11.96 Y11.54 F1500.0
M4 S700 F1500.0
G01 F800.0
G01 X12.25 F800.0
G01 Y11.25 F800.0
G01 X11.96 F800.0
G01 Y11.54 F800.0
M5
G00 X12.25 Y11.54 F1500.0
M4 S700 F1500.0
G01 F800.0
G01 X12.54 F800.0
G01 Y11.25 F800.0
G01 X12.25 F800.0
G01 Y11.54 F800.0
M5
G00 X12.54 Y11.54 F1500.0
M4 S700 F1500.0
G01 F800.0
G01 X12.83 F800.0
G01 Y11.25 F800.0
G01 X12.54 F800.0
G01 Y11.54 F800.0
M5
G00 X12.83 Y11.54 F1500.0
M4 S700 F1500.0
G01 F800.0
G01 X13.13 F800.0
G01 Y11.25 F800.0
G01 X12.83 F800.0
G01 Y11.54 F800.0
M5
G00 X12.83 Y12.13 F1500.0
M4 S700 F1500.0
G01 F800.0
G01 X13.13 F800.0
G01 Y11.84 F800.0
G01 X12.83 F800.0
G01 Y12.13 F800.0
M5
G00 X12.83 Y12.42 F1500.0
M4 S700 F1500.0
G01 F800.0
G01 X13.13 F800.0
G01 Y12.13 F800.0
G01 X12.83 F800.0
G01 Y12.42 F800.0
M5
G00 X12.54 Y12.42 F1500.0
M4 S700 F1500.0
G01 F800.0
G01 X12.83 F800.0
G01 Y12.13 F800.0
G01 X12.54 F800.0
G01 Y12.42 F800.0
M5
G00 X12.54 Y12.13 F1500.0
M4 S700 F1500.0
G01 F800.0
G01 X12.83 F800.0
G01 Y11.84 F800.0
G01 X12.54 F800.0
G01 Y12.13 F800.0
M5
G00 X12.25 Y12.13 F1500.0
M4 S700 F1500.0
G01 F800.0
G01 X12.54 F800.0
G01 Y11.84 F800.0
G01 X12.25 F800.0
G01 Y12.13 F800.0
M5
G00 X12.25 Y12.42 F1500.0
M4 S700 F1500.0
G01 F800.0
G01 X12.54 F800.0
G01 Y12.13 F800.0
G01 X12.25 F800.0
G01 Y12.42 F800.0
M5
G00 X12.25 Y12.72 F1500.0
M4 S700 F1500.0
G01 F800.0
G01 X12.54 F800.0
G01 Y12.42 F800.0
G01 X12.25 F800.0
G01 Y12.72 F800.0
M5
G00 X12.54 Y12.72 F1500.0
M4 S700 F1500.0
G01 F800.0
G01 X12.83 F800.0
G01 Y12.42 F800.0
G01 X12.54 F800.0
G01 Y12.72 F800.0
M5
G00 X12.83 Y12.72 F1500.0
M4 S700 F1500.0
G01 F800.0
G01 X13.13 F800.0
G01 Y12.42 F800.0
G01 X12.83 F800.0
G01 Y12.72 F800.0
M5
G00 X12.54 Y10.96 F1500.0
M4 S700 F1500.0
G01 F800.0
G01 X12.83 F800.0
G01 Y10.67 F800.0
G01 X12.54 F800.0
G01 Y10.96 F800.0
M5
G00 X11.96 Y10.96 F1500.0
M4 S700 F1500.0
G01 F800.0
G01 X12.25 F800.0
G01 Y10.67 F800.0
G01 X11.96 F800.0
G01 Y10.96 F800.0
M5
G00 X11.66 Y10.08 F1500.0
M4 S700 F1500.0
G01 F800.0
G01 X11.96 F800.0
G01 Y9.79 F800.0
G01 X11.66 F800.0
G01 Y10.08 F800.0
M5
G00 X11.37 Y10.08 F1500.0
M4 S700 F1500.0
G01 F800.0
G01 X11.66 F800.0
G01 Y9.79 F800.0
G01 X11.37 F800.0
G01 Y10.08 F800.0
M5
G00 X11.08 Y10.08 F1500.0
M4 S700 F1500.0
G01 F800.0
G01 X11.37 F800.0
G01 Y9.79 F800.0
G01 X11.08 F800.0
G01 Y10.08 F800.0
M5
G00 X11.08 Y10.37 F1500.0
M4 S700 F1500.0
G01 F800.0
G01 X11.37 F800.0
G01 Y10.08 F800.0
G01 X11.08 F800.0
G01 Y10.37 F800.0
M5
G00 X10.79 Y10.67 F1500.0
M4 S700 F1500.0
G01 F800.0
G01 X11.08 F800.0
G01 Y10.37 F800.0
G01 X10.79 F800.0
G01 Y10.67 F800.0
M5
G00 X10.49 Y10.37 F1500.0
M4 S700 F1500.0
G01 F800.0
G01 X10.79 F800.0
G01 Y10.08 F800.0
G01 X10.49 F800.0
G01 Y10.37 F800.0
M5
G00 X10.49 Y10.08 F1500.0
M4 S700 F1500.0
G01 F800.0
G01 X10.79 F800.0
G01 Y9.79 F800.0
G01 X10.49 F800.0
G01 Y10.08 F800.0
M5
G00 X10.2 Y10.08 F1500.0
M4 S700 F1500.0
G01 F800.0
G01 X10.49 F800.0
G01 Y9.79 F800.0
G01 X10.2 F800.0
G01 Y10.08 F800.0
M5
G00 X10.2 Y10.37 F1500.0
M4 S700 F1500.0
G01 F800.0
G01 X10.49 F800.0
G01 Y10.08 F800.0
G01 X10.2 F800.0
G01 Y10.37 F800.0
M5
G00 X9.62 Y10.67 F1500.0
M4 S700 F1500.0
G01 F800.0
G01 X9.91 F800.0
G01 Y10.37 F800.0
G01 X9.62 F800.0
G01 Y10.67 F800.0
M5
G00 X9.32 Y10.67 F1500.0
M4 S700 F1500.0
G01 F800.0
G01 X9.62 F800.0
G01 Y10.37 F800.0
G01 X9.32 F800.0
G01 Y10.67 F800.0
M5
G00 X9.32 Y10.37 F1500.0
M4 S700 F1500.0
G01 F800.0
G01 X9.62 F800.0
G01 Y10.08 F800.0
G01 X9.32 F800.0
G01 Y10.37 F800.0
M5
G00 X9.03 Y10.37 F1500.0
M4 S700 F1500.0
G01 F800.0
G01 X9.32 F800.0
G01 Y10.08 F800.0
G01 X9.03 F800.0
G01 Y10.37 F800.0
M5
G00 X8.74 Y10.37 F1500.0
M4 S700 F1500.0
G01 F800.0
G01 X9.03 F800.0
G01 Y10.08 F800.0
G01 X8.74 F800.0
G01 Y10.37 F800.0
M5
G00 X8.74 Y10.67 F1500.0
M4 S700 F1500.0
G01 F800.0
G01 X9.03 F800.0
G01 Y10.37 F800.0
G01 X8.74 F800.0
G01 Y10.67 F800.0
M5
G00 X8.44 Y10.67 F1500.0
M4 S700 F1500.0
G01 F800.0
G01 X8.74 F800.0
G01 Y10.37 F800.0
G01 X8.44 F800.0
G01 Y10.67 F800.0
M5
G00 X8.44 Y10.37 F1500.0
M4 S700 F1500.0
G01 F800.0
G01 X8.74 F800.0
G01 Y10.08 F800.0
G01 X8.44 F800.0
G01 Y10.37 F800.0
M5
G00 X8.15 Y10.37 F1500.0
M4 S700 F1500.0
G01 F800.0
G01 X8.44 F800.0
G01 Y10.08 F800.0
G01 X8.15 F800.0
G01 Y10.37 F800.0
M5
G00 X7.86 Y10.37 F1500.0
M4 S700 F1500.0
G01 F800.0
G01 X8.15 F800.0
G01 Y10.08 F800.0
G01 X7.86 F800.0
G01 Y10.37 F800.0
M5
G00 X7.86 Y10.67 F1500.0
M4 S700 F1500.0
G01 F800.0
G01 X8.15 F800.0
G01 Y10.37 F800.0
G01 X7.86 F800.0
G01 Y10.67 F800.0
M5
G00 X7.57 Y10.67 F1500.0
M4 S700 F1500.0
G01 F800.0
G01 X7.86 F800.0
G01 Y10.37 F800.0
G01 X7.57 F800.0
G01 Y10.67 F800.0
M5
G00 X7.27 Y10.96 F1500.0
M4 S700 F1500.0
G01 F800.0
G01 X7.57 F800.0
G01 Y10.67 F800.0
G01 X7.27 F800.0
G01 Y10.96 F800.0
M5
G00 X7.27 Y11.25 F1500.0
M4 S700 F1500.0
G01 F800.0
G01 X7.57 F800.0
G01 Y10.96 F800.0
G01 X7.27 F800.0
G01 Y11.25 F800.0
M5
G00 X6.98 Y11.25 F1500.0
M4 S700 F1500.0
G01 F800.0
G01 X7.27 F800.0
G01 Y10.96 F800.0
G01 X6.98 F800.0
G01 Y11.25 F800.0
M5
G00 X6.98 Y11.54 F1500.0
M4 S700 F1500.0
G01 F800.0
G01 X7.27 F800.0
G01 Y11.25 F800.0
G01 X6.98 F800.0
G01 Y11.54 F800.0
M5
G00 X6.69 Y11.25 F1500.0
M4 S700 F1500.0
G01 F800.0
G01 X6.98 F800.0
G01 Y10.96 F800.0
G01 X6.69 F800.0
G01 Y11.25 F800.0
M5
G00 X6.69 Y10.96 F1500.0
M4 S700 F1500.0
G01 F800.0
G01 X6.98 F800.0
G01 Y10.67 F800.0
G01 X6.69 F800.0
G01 Y10.96 F800.0
M5
G00 X6.98 Y10.67 F1500.0
M4 S700 F1500.0
G01 F800.0
G01 X7.27 F800.0
G01 Y10.37 F800.0
G01 X6.98 F800.0
G01 Y10.67 F800.0
M5
G00 X6.98 Y10.37 F1500.0
M4 S700 F1500.0
G01 F800.0
G01 X7.27 F800.0
G01 Y10.08 F800.0
G01 X6.98 F800.0
G01 Y10.37 F800.0
M5
G00 X6.98 Y9.79 F1500.0
M4 S700 F1500.0
G01 F800.0
G01 X7.27 F800.0
G01 Y9.5 F800.0
G01 X6.98 F800.0
G01 Y9.79 F800.0
M5
G00 X6.69 Y9.79 F1500.0
M4 S700 F1500.0
G01 F800.0
G01 X6.98 F800.0
G01 Y9.5 F800.0
G01 X6.69 F800.0
G01 Y9.79 F800.0
M5
G00 X6.69 Y9.5 F1500.0
M4 S700 F1500.0
G01 F800.0
G01 X6.98 F800.0
G01 Y9.2 F800.0
G01 X6.69 F800.0
G01 Y9.5 F800.0
M5
G00 X6.39 Y9.5 F1500.0
M4 S700 F1500.0
G01 F800.0
G01 X6.69 F800.0
G01 Y9.2 F800.0
G01 X6.39 F800.0
G01 Y9.5 F800.0
M5
G00 X5.81 Y9.2 F1500.0
M4 S700 F1500.0
G01 F800.0
G01 X6.1 F800.0
G01 Y8.91 F800.0
G01 X5.81 F800.0
G01 Y9.2 F800.0
M5
G00 X6.69 Y8.91 F1500.0
M4 S700 F1500.0
G01 F800.0
G01 X6.98 F800.0
G01 Y8.62 F800.0
G01 X6.69 F800.0
G01 Y8.91 F800.0
M5
G00 X6.98 Y8.91 F1500.0
M4 S700 F1500.0
G01 F800.0
G01 X7.27 F800.0
G01 Y8.62 F800.0
G01 X6.98 F800.0
G01 Y8.91 F800.0
M5
G00 X7.27 Y8.91 F1500.0
M4 S700 F1500.0
G01 F800.0
G01 X7.57 F800.0
G01 Y8.62 F800.0
G01 X7.27 F800.0
G01 Y8.91 F800.0
M5
G00 X7.27 Y8.62 F1500.0
M4 S700 F1500.0
G01 F800.0
G01 X7.57 F800.0
G01 Y8.33 F800.0
G01 X7.27 F800.0
G01 Y8.62 F800.0
M5
G00 X6.98 Y8.33 F1500.0
M4 S700 F1500.0
G01 F800.0
G01 X7.27 F800.0
G01 Y8.03 F800.0
G01 X6.98 F800.0
G01 Y8.33 F800.0
M5
G00 X6.69 Y8.03 F1500.0
M4 S700 F1500.0
G01 F800.0
G01 X6.98 F800.0
G01 Y7.74 F800.0
G01 X6.69 F800.0
G01 Y8.03 F800.0
M5
G00 X6.98 Y7.74 F1500.0
M4 S700 F1500.0
G01 F800.0
G01 X7.27 F800.0
G01 Y7.45 F800.0
G01 X6.98 F800.0
G01 Y7.74 F800.0
M5
G00 X6.98 Y7.15 F1500.0
M4 S700 F1500.0
G01 F800.0
G01 X7.27 F800.0
G01 Y6.86 F800.0
G01 X6.98 F800.0
G01 Y7.15 F800.0
M5
G00 X6.1 Y6.86 F1500.0
M4 S700 F1500.0
G01 F800.0
G01 X6.39 F800.0
G01 Y6.57 F800.0
G01 X6.1 F800.0
G01 Y6.86 F800.0
M5
G00 X6.1 Y6.57 F1500.0
M4 S700 F1500.0
G01 F800.0
G01 X6.39 F800.0
G01 Y6.28 F800.0
G01 X6.1 F800.0
G01 Y6.57 F800.0
M5
G00 X5.81 Y6.86 F1500.0
M4 S700 F1500.0
G01 F800.0
G01 X6.1 F800.0
G01 Y6.57 F800.0
G01 X5.81 F800.0
G01 Y6.86 F800.0
M5
G00 X5.52 Y6.57 F1500.0
M4 S700 F1500.0
G01 F800.0
G01 X5.81 F800.0
G01 Y6.28 F800.0
G01 X5.52 F800.0
G01 Y6.57 F800.0
M5
G00 X5.52 Y6.28 F1500.0
M4 S700 F1500.0
G01 F800.0
G01 X5.81 F800.0
G01 Y5.98 F800.0
G01 X5.52 F800.0
G01 Y6.28 F800.0
M5
G00 X5.22 Y6.28 F1500.0
M4 S700 F1500.0
G01 F800.0
G01 X5.52 F800.0
G01 Y5.98 F800.0
G01 X5.22 F800.0
G01 Y6.28 F800.0
M5
G00 X4.93 Y6.28 F1500.0
M4 S700 F1500.0
G01 F800.0
G01 X5.22 F800.0
G01 Y5.98 F800.0
G01 X4.93 F800.0
G01 Y6.28 F800.0
M5
G00 X4.64 Y6.28 F1500.0
M4 S700 F1500.0
G01 F800.0
G01 X4.93 F800.0
G01 Y5.98 F800.0
G01 X4.64 F800.0
G01 Y6.28 F800.0
M5
G00 X4.35 Y6.28 F1500.0
M4 S700 F1500.0
G01 F800.0
G01 X4.64 F800.0
G01 Y5.98 F800.0
G01 X4.35 F800.0
G01 Y6.28 F800.0
M5
G00 X4.35 Y6.57 F1500.0
M4 S700 F1500.0
G01 F800.0
G01 X4.64 F800.0
G01 Y6.28 F800.0
G01 X4.35 F800.0
G01 Y6.57 F800.0
M5
G00 X4.35 Y6.86 F1500.0
M4 S700 F1500.0
G01 F800.0
G01 X4.64 F800.0
G01 Y6.57 F800.0
G01 X4.35 F800.0
G01 Y6.86 F800.0
M5
G00 X4.64 Y6.86 F1500.0
M4 S700 F1500.0
G01 F800.0
G01 X4.93 F800.0
G01 Y6.57 F800.0
G01 X4.64 F800.0
G01 Y6.86 F800.0
M5
G00 X4.64 Y7.45 F1500.0
M4 S700 F1500.0
G01 F800.0
G01 X4.93 F800.0
G01 Y7.15 F800.0
G01 X4.64 F800.0
G01 Y7.45 F800.0
M5
G00 X4.35 Y7.45 F1500.0
M4 S700 F1500.0
G01 F800.0
G01 X4.64 F800.0
G01 Y7.15 F800.0
G01 X4.35 F800.0
G01 Y7.45 F800.0
M5
G00 X4.05 Y7.45 F1500.0
M4 S700 F1500.0
G01 F800.0
G01 X4.35 F800.0
G01 Y7.15 F800.0
G01 X4.05 F800.0
G01 Y7.45 F800.0
M5
G00 X4.05 Y8.03 F1500.0
M4 S700 F1500.0
G01 F800.0
G01 X4.35 F800.0
G01 Y7.74 F800.0
G01 X4.05 F800.0
G01 Y8.03 F800.0
M5
G00 X4.64 Y8.03 F1500.0
M4 S700 F1500.0
G01 F800.0
G01 X4.93 F800.0
G01 Y7.74 F800.0
G01 X4.64 F800.0
G01 Y8.03 F800.0
M5
G00 X4.05 Y8.62 F1500.0
M4 S700 F1500.0
G01 F800.0
G01 X4.35 F800.0
G01 Y8.33 F800.0
G01 X4.05 F800.0
G01 Y8.62 F800.0
M5
G00 X4.05 Y8.91 F1500.0
M4 S700 F1500.0
G01 F800.0
G01 X4.35 F800.0
G01 Y8.62 F800.0
G01 X4.05 F800.0
G01 Y8.91 F800.0
M5
G00 X4.05 Y9.5 F1500.0
M4 S700 F1500.0
G01 F800.0
G01 X4.35 F800.0
G01 Y9.2 F800.0
G01 X4.05 F800.0
G01 Y9.5 F800.0
M5
G00 X4.35 Y9.79 F1500.0
M4 S700 F1500.0
G01 F800.0
G01 X4.64 F800.0
G01 Y9.5 F800.0
G01 X4.35 F800.0
G01 Y9.79 F800.0
M5
G00 X4.64 Y10.08 F1500.0
M4 S700 F1500.0
G01 F800.0
G01 X4.93 F800.0
G01 Y9.79 F800.0
G01 X4.64 F800.0
G01 Y10.08 F800.0
M5
G00 X4.93 Y10.08 F1500.0
M4 S700 F1500.0
G01 F800.0
G01 X5.22 F800.0
G01 Y9.79 F800.0
G01 X4.93 F800.0
G01 Y10.08 F800.0
M5
G00 X4.93 Y10.37 F1500.0
M4 S700 F1500.0
G01 F800.0
G01 X5.22 F800.0
G01 Y10.08 F800.0
G01 X4.93 F800.0
G01 Y10.37 F800.0
M5
G00 X4.35 Y10.37 F1500.0
M4 S700 F1500.0
G01 F800.0
G01 X4.64 F800.0
G01 Y10.08 F800.0
G01 X4.35 F800.0
G01 Y10.37 F800.0
M5
G00 X4.35 Y10.67 F1500.0
M4 S700 F1500.0
G01 F800.0
G01 X4.64 F800.0
G01 Y10.37 F800.0
G01 X4.35 F800.0
G01 Y10.67 F800.0
M5
G00 X4.05 Y10.67 F1500.0
M4 S700 F1500.0
G01 F800.0
G01 X4.35 F800.0
G01 Y10.37 F800.0
G01 X4.05 F800.0
G01 Y10.67 F800.0
M5
G00 X4.05 Y10.96 F1500.0
M4 S700 F1500.0
G01 F800.0
G01 X4.35 F800.0
G01 Y10.67 F800.0
G01 X4.05 F800.0
G01 Y10.96 F800.0
M5
G00 X4.35 Y10.96 F1500.0
M4 S700 F1500.0
G01 F800.0
G01 X4.64 F800.0
G01 Y10.67 F800.0
G01 X4.35 F800.0
G01 Y10.96 F800.0
M5
G00 X4.64 Y10.96 F1500.0
M4 S700 F1500.0
G01 F800.0
G01 X4.93 F800.0
G01 Y10.67 F800.0
G01 X4.64 F800.0
G01 Y10.96 F800.0
M5
G00 X4.93 Y10.96 F1500.0
M4 S700 F1500.0
G01 F800.0
G01 X5.22 F800.0
G01 Y10.67 F800.0
G01 X4.93 F800.0
G01 Y10.96 F800.0
M5
G00 X5.22 Y10.96 F1500.0
M4 S700 F1500.0
G01 F800.0
G01 X5.52 F800.0
G01 Y10.67 F800.0
G01 X5.22 F800.0
G01 Y10.96 F800.0
M5
G00 X5.22 Y12.13 F1500.0
M4 S700 F1500.0
G01 F800.0
G01 X5.52 F800.0
G01 Y11.84 F800.0
G01 X5.22 F800.0
G01 Y12.13 F800.0
M5
G00 X5.22 Y12.42 F1500.0
M4 S700 F1500.0
G01 F800.0
G01 X5.52 F800.0
G01 Y12.13 F800.0
G01 X5.22 F800.0
G01 Y12.42 F800.0
M5
G00 X4.93 Y12.42 F1500.0
M4 S700 F1500.0
G01 F800.0
G01 X5.22 F800.0
G01 Y12.13 F800.0
G01 X4.93 F800.0
G01 Y12.42 F800.0
M5
G00 X4.93 Y12.13 F1500.0
M4 S700 F1500.0
G01 F800.0
G01 X5.22 F800.0
G01 Y11.84 F800.0
G01 X4.93 F800.0
G01 Y12.13 F800.0
M5
G00 X4.64 Y12.13 F1500.0
M4 S700 F1500.0
G01 F800.0
G01 X4.93 F800.0
G01 Y11.84 F800.0
G01 X4.64 F800.0
G01 Y12.13 F800.0
M5
G00 X4.64 Y12.42 F1500.0
M4 S700 F1500.0
G01 F800.0
G01 X4.93 F800.0
G01 Y12.13 F800.0
G01 X4.64 F800.0
G01 Y12.42 F800.0
M5
G00 X4.64 Y12.72 F1500.0
M4 S700 F1500.0
G01 F800.0
G01 X4.93 F800.0
G01 Y12.42 F800.0
G01 X4.64 F800.0
G01 Y12.72 F800.0
M5
G00 X4.93 Y12.72 F1500.0
M4 S700 F1500.0
G01 F800.0
G01 X5.22 F800.0
G01 Y12.42 F800.0
G01 X4.93 F800.0
G01 Y12.72 F800.0
M5
G00 X5.22 Y12.72 F1500.0
M4 S700 F1500.0
G01 F800.0
G01 X5.52 F800.0
G01 Y12.42 F800.0
G01 X5.22 F800.0
G01 Y12.72 F800.0
M5
G00 X6.39 Y13.01 F1500.0
M4 S700 F1500.0
G01 F800.0
G01 X6.69 F800.0
G01 Y12.72 F800.0
G01 X6.39 F800.0
G01 Y13.01 F800.0
M5
G00 X6.98 Y13.01 F1500.0
M4 S700 F1500.0
G01 F800.0
G01 X7.27 F800.0
G01 Y12.72 F800.0
G01 X6.98 F800.0
G01 Y13.01 F800.0
M5
G00 X6.98 Y13.3 F1500.0
M4 S700 F1500.0
G01 F800.0
G01 X7.27 F800.0
G01 Y13.01 F800.0
G01 X6.98 F800.0
G01 Y13.3 F800.0
M5
G00 X7.57 Y13.3 F1500.0
M4 S700 F1500.0
G01 F800.0
G01 X7.86 F800.0
G01 Y13.01 F800.0
G01 X7.57 F800.0
G01 Y13.3 F800.0
M5
G00 X7.86 Y13.3 F1500.0
M4 S700 F1500.0
G01 F800.0
G01 X8.15 F800.0
G01 Y13.01 F800.0
G01 X7.86 F800.0
G01 Y13.3 F800.0
M5
G00 X7.57 Y12.72 F1500.0
M4 S700 F1500.0
G01 F800.0
G01 X7.86 F800.0
G01 Y12.42 F800.0
G01 X7.57 F800.0
G01 Y12.72 F800.0
M5
G00 X7.57 Y11.84 F1500.0
M4 S700 F1500.0
G01 F800.0
G01 X7.86 F800.0
G01 Y11.54 F800.0
G01 X7.57 F800.0
G01 Y11.84 F800.0
M5
G00 X7.27 Y11.84 F1500.0
M4 S700 F1500.0
G01 F800.0
G01 X7.57 F800.0
G01 Y11.54 F800.0
G01 X7.27 F800.0
G01 Y11.84 F800.0
M5
G00 X7.57 Y11.54 F1500.0
M4 S700 F1500.0
G01 F800.0
G01 X7.86 F800.0
G01 Y11.25 F800.0
G01 X7.57 F800.0
G01 Y11.54 F800.0
M5
G00 X8.15 Y11.54 F1500.0
M4 S700 F1500.0
G01 F800.0
G01 X8.44 F800.0
G01 Y11.25 F800.0
G01 X8.15 F800.0
G01 Y11.54 F800.0
M5
G00 X8.15 Y11.84 F1500.0
M4 S700 F1500.0
G01 F800.0
G01 X8.44 F800.0
G01 Y11.54 F800.0
G01 X8.15 F800.0
G01 Y11.84 F800.0
M5
G00 X8.44 Y11.84 F1500.0
M4 S700 F1500.0
G01 F800.0
G01 X8.74 F800.0
G01 Y11.54 F800.0
G01 X8.44 F800.0
G01 Y11.84 F800.0
M5
G00 X8.74 Y11.84 F1500.0
M4 S700 F1500.0
G01 F800.0
G01 X9.03 F800.0
G01 Y11.54 F800.0
G01 X8.74 F800.0
G01 Y11.84 F800.0
M5
G00 X9.03 Y11.84 F1500.0
M4 S700 F1500.0
G01 F800.0
G01 X9.32 F800.0
G01 Y11.54 F800.0
G01 X9.03 F800.0
G01 Y11.84 F800.0
M5
G00 X9.03 Y12.13 F1500.0
M4 S700 F1500.0
G01 F800.0
G01 X9.32 F800.0
G01 Y11.84 F800.0
G01 X9.03 F800.0
G01 Y12.13 F800.0
M5
G00 X9.03 Y12.42 F1500.0
M4 S700 F1500.0
G01 F800.0
G01 X9.32 F800.0
G01 Y12.13 F800.0
G01 X9.03 F800.0
G01 Y12.42 F800.0
M5
G00 X9.32 Y12.13 F1500.0
M4 S700 F1500.0
G01 F800.0
G01 X9.62 F800.0
G01 Y11.84 F800.0
G01 X9.32 F800.0
G01 Y12.13 F800.0
M5
G00 X9.62 Y12.13 F1500.0
M4 S700 F1500.0
G01 F800.0
G01 X9.91 F800.0
G01 Y11.84 F800.0
G01 X9.62 F800.0
G01 Y12.13 F800.0
M5
G00 X9.91 Y12.13 F1500.0
M4 S700 F1500.0
G01 F800.0
G01 X10.2 F800.0
G01 Y11.84 F800.0
G01 X9.91 F800.0
G01 Y12.13 F800.0
M5
G00 X9.91 Y11.84 F1500.0
M4 S700 F1500.0
G01 F800.0
G01 X10.2 F800.0
G01 Y11.54 F800.0
G01 X9.91 F800.0
G01 Y11.84 F800.0
M5
G00 X10.2 Y11.84 F1500.0
M4 S700 F1500.0
G01 F800.0
G01 X10.49 F800.0
G01 Y11.54 F800.0
G01 X10.2 F800.0
G01 Y11.84 F800.0
M5
G00 X9.91 Y11.54 F1500.0
M4 S700 F1500.0
G01 F800.0
G01 X10.2 F800.0
G01 Y11.25 F800.0
G01 X9.91 F800.0
G01 Y11.54 F800.0
M5
G00 X9.91 Y11.25 F1500.0
M4 S700 F1500.0
G01 F800.0
G01 X10.2 F800.0
G01 Y10.96 F800.0
G01 X9.91 F800.0
G01 Y11.25 F800.0
M5
G00 X10.2 Y11.25 F1500.0
M4 S700 F1500.0
G01 F800.0
G01 X10.49 F800.0
G01 Y10.96 F800.0
G01 X10.2 F800.0
G01 Y11.25 F800.0
M5
G00 X10.49 Y11.25 F1500.0
M4 S700 F1500.0
G01 F800.0
G01 X10.79 F800.0
G01 Y10.96 F800.0
G01 X10.49 F800.0
G01 Y11.25 F800.0
M5
G00 X10.49 Y11.54 F1500.0
M4 S700 F1500.0
G01 F800.0
G01 X10.79 F800.0
G01 Y11.25 F800.0
G01 X10.49 F800.0
G01 Y11.54 F800.0
M5
G00 X10.49 Y10.96 F1500.0
M4 S700 F1500.0
G01 F800.0
G01 X10.79 F800.0
G01 Y10.67 F800.0
G01 X10.49 F800.0
G01 Y10.96 F800.0
M5
G00 X9.62 Y10.96 F1500.0
M4 S700 F1500.0
G01 F800.0
G01 X9.91 F800.0
G01 Y10.67 F800.0
G01 X9.62 F800.0
G01 Y10.96 F800.0
M5
G00 X9.62 Y11.25 F1500.0
M4 S700 F1500.0
G01 F800.0
G01 X9.91 F800.0
G01 Y10.96 F800.0
G01 X9.62 F800.0
G01 Y11.25 F800.0
M5
G00 X9.32 Y11.54 F1500.0
M4 S700 F1500.0
G01 F800.0
G01 X9.62 F800.0
G01 Y11.25 F800.0
G01 X9.32 F800.0
G01 Y11.54 F800.0
M5
G00 X8.74 Y11.54 F1500.0
M4 S700 F1500.0
G01 F800.0
G01 X9.03 F800.0
G01 Y11.25 F800.0
G01 X8.74 F800.0
G01 Y11.54 F800.0
M5
G00 X8.74 Y11.25 F1500.0
M4 S700 F1500.0
G01 F800.0
G01 X9.03 F800.0
G01 Y10.96 F800.0
G01 X8.74 F800.0
G01 Y11.25 F800.0
M5
G00 X8.44 Y11.25 F1500.0
M4 S700 F1500.0
G01 F800.0
G01 X8.74 F800.0
G01 Y10.96 F800.0
G01 X8.44 F800.0
G01 Y11.25 F800.0
M5
G00 X8.44 Y10.96 F1500.0
M4 S700 F1500.0
G01 F800.0
G01 X8.74 F800.0
G01 Y10.67 F800.0
G01 X8.44 F800.0
G01 Y10.96 F800.0
M5
G00 X9.03 Y10.96 F1500.0
M4 S700 F1500.0
G01 F800.0
G01 X9.32 F800.0
G01 Y10.67 F800.0
G01 X9.03 F800.0
G01 Y10.96 F800.0
M5
G00 X9.32 Y10.08 F1500.0
M4 S700 F1500.0
G01 F800.0
G01 X9.62 F800.0
G01 Y9.79 F800.0
G01 X9.32 F800.0
G01 Y10.08 F800.0
M5
G00 X9.32 Y9.79 F1500.0
M4 S700 F1500.0
G01 F800.0
G01 X9.62 F800.0
G01 Y9.5 F800.0
G01 X9.32 F800.0
G01 Y9.79 F800.0
M5
G00 X9.03 Y9.79 F1500.0
M4 S700 F1500.0
G01 F800.0
G01 X9.32 F800.0
G01 Y9.5 F800.0
G01 X9.03 F800.0
G01 Y9.79 F800.0
M5
G00 X9.03 Y9.5 F1500.0
M4 S700 F1500.0
G01 F800.0
G01 X9.32 F800.0
G01 Y9.2 F800.0
G01 X9.03 F800.0
G01 Y9.5 F800.0
M5
G00 X9.32 Y9.5 F1500.0
M4 S700 F1500.0
G01 F800.0
G01 X9.62 F800.0
G01 Y9.2 F800.0
G01 X9.32 F800.0
G01 Y9.5 F800.0
M5
G00 X9.62 Y9.5 F1500.0
M4 S700 F1500.0
G01 F800.0
G01 X9.91 F800.0
G01 Y9.2 F800.0
G01 X9.62 F800.0
G01 Y9.5 F800.0
M5
G00 X9.62 Y9.79 F1500.0
M4 S700 F1500.0
G01 F800.0
G01 X9.91 F800.0
G01 Y9.5 F800.0
G01 X9.62 F800.0
G01 Y9.79 F800.0
M5
G00 X9.91 Y9.79 F1500.0
M4 S700 F1500.0
G01 F800.0
G01 X10.2 F800.0
G01 Y9.5 F800.0
G01 X9.91 F800.0
G01 Y9.79 F800.0
M5
G00 X9.91 Y9.5 F1500.0
M4 S700 F1500.0
G01 F800.0
G01 X10.2 F800.0
G01 Y9.2 F800.0
G01 X9.91 F800.0
G01 Y9.5 F800.0
M5
G00 X10.2 Y9.5 F1500.0
M4 S700 F1500.0
G01 F800.0
G01 X10.49 F800.0
G01 Y9.2 F800.0
G01 X10.2 F800.0
G01 Y9.5 F800.0
M5
G00 X10.2 Y9.2 F1500.0
M4 S700 F1500.0
G01 F800.0
G01 X10.49 F800.0
G01 Y8.91 F800.0
G01 X10.2 F800.0
G01 Y9.2 F800.0
M5
G00 X9.91 Y9.2 F1500.0
M4 S700 F1500.0
G01 F800.0
G01 X10.2 F800.0
G01 Y8.91 F800.0
G01 X9.91 F800.0
G01 Y9.2 F800.0
M5
G00 X9.91 Y8.91 F1500.0
M4 S700 F1500.0
G01 F800.0
G01 X10.2 F800.0
G01 Y8.62 F800.0
G01 X9.91 F800.0
G01 Y8.91 F800.0
M5
G00 X10.2 Y8.91 F1500.0
M4 S700 F1500.0
G01 F800.0
G01 X10.49 F800.0
G01 Y8.62 F800.0
G01 X10.2 F800.0
G01 Y8.91 F800.0
M5
G00 X10.49 Y8.91 F1500.0
M4 S700 F1500.0
G01 F800.0
G01 X10.79 F800.0
G01 Y8.62 F800.0
G01 X10.49 F800.0
G01 Y8.91 F800.0
M5
G00 X10.49 Y8.62 F1500.0
M4 S700 F1500.0
G01 F800.0
G01 X10.79 F800.0
G01 Y8.33 F800.0
G01 X10.49 F800.0
G01 Y8.62 F800.0
M5
G00 X9.91 Y8.33 F1500.0
M4 S700 F1500.0
G01 F800.0
G01 X10.2 F800.0
G01 Y8.03 F800.0
G01 X9.91 F800.0
G01 Y8.33 F800.0
M5
G00 X9.62 Y8.33 F1500.0
M4 S700 F1500.0
G01 F800.0
G01 X9.91 F800.0
G01 Y8.03 F800.0
G01 X9.62 F800.0
G01 Y8.33 F800.0
M5
G00 X9.62 Y8.62 F1500.0
M4 S700 F1500.0
G01 F800.0
G01 X9.91 F800.0
G01 Y8.33 F800.0
G01 X9.62 F800.0
G01 Y8.62 F800.0
M5
G00 X9.62 Y8.91 F1500.0
M4 S700 F1500.0
G01 F800.0
G01 X9.91 F800.0
G01 Y8.62 F800.0
G01 X9.62 F800.0
G01 Y8.91 F800.0
M5
G00 X9.32 Y8.33 F1500.0
M4 S700 F1500.0
G01 F800.0
G01 X9.62 F800.0
G01 Y8.03 F800.0
G01 X9.32 F800.0
G01 Y8.33 F800.0
M5
G00 X9.03 Y8.33 F1500.0
M4 S700 F1500.0
G01 F800.0
G01 X9.32 F800.0
G01 Y8.03 F800.0
G01 X9.03 F800.0
G01 Y8.33 F800.0
M5
G00 X9.03 Y8.62 F1500.0
M4 S700 F1500.0
G01 F800.0
G01 X9.32 F800.0
G01 Y8.33 F800.0
G01 X9.03 F800.0
G01 Y8.62 F800.0
M5
G00 X8.74 Y8.33 F1500.0
M4 S700 F1500.0
G01 F800.0
G01 X9.03 F800.0
G01 Y8.03 F800.0
G01 X8.74 F800.0
G01 Y8.33 F800.0
M5
G00 X8.44 Y8.33 F1500.0
M4 S700 F1500.0
G01 F800.0
G01 X8.74 F800.0
G01 Y8.03 F800.0
G01 X8.44 F800.0
G01 Y8.33 F800.0
M5
G00 X8.15 Y8.33 F1500.0
M4 S700 F1500.0
G01 F800.0
G01 X8.44 F800.0
G01 Y8.03 F800.0
G01 X8.15 F800.0
G01 Y8.33 F800.0
M5
G00 X7.86 Y8.33 F1500.0
M4 S700 F1500.0
G01 F800.0
G01 X8.15 F800.0
G01 Y8.03 F800.0
G01 X7.86 F800.0
G01 Y8.33 F800.0
M5
G00 X7.57 Y8.33 F1500.0
M4 S700 F1500.0
G01 F800.0
G01 X7.86 F800.0
G01 Y8.03 F800.0
G01 X7.57 F800.0
G01 Y8.33 F800.0
M5
G00 X8.15 Y8.91 F1500.0
M4 S700 F1500.0
G01 F800.0
G01 X8.44 F800.0
G01 Y8.62 F800.0
G01 X8.15 F800.0
G01 Y8.91 F800.0
M5
G00 X8.44 Y8.91 F1500.0
M4 S700 F1500.0
G01 F800.0
G01 X8.74 F800.0
G01 Y8.62 F800.0
G01 X8.44 F800.0
G01 Y8.91 F800.0
M5
G00 X8.44 Y8.62 F1500.0
M4 S700 F1500.0
G01 F800.0
G01 X8.74 F800.0
G01 Y8.33 F800.0
G01 X8.44 F800.0
G01 Y8.62 F800.0
M5
G00 X8.74 Y8.91 F1500.0
M4 S700 F1500.0
G01 F800.0
G01 X9.03 F800.0
G01 Y8.62 F800.0
G01 X8.74 F800.0
G01 Y8.91 F800.0
M5
G00 X8.44 Y9.2 F1500.0
M4 S700 F1500.0
G01 F800.0
G01 X8.74 F800.0
G01 Y8.91 F800.0
G01 X8.44 F800.0
G01 Y9.2 F800.0
M5
G00 X8.44 Y9.5 F1500.0
M4 S700 F1500.0
G01 F800.0
G01 X8.74 F800.0
G01 Y9.2 F800.0
G01 X8.44 F800.0
G01 Y9.5 F800.0
M5
G00 X8.74 Y9.5 F1500.0
M4 S700 F1500.0
G01 F800.0
G01 X9.03 F800.0
G01 Y9.2 F800.0
G01 X8.74 F800.0
G01 Y9.5 F800.0
M5
G00 X9.03 Y9.2 F1500.0
M4 S700 F1500.0
G01 F800.0
G01 X9.32 F800.0
G01 Y8.91 F800.0
G01 X9.03 F800.0
G01 Y9.2 F800.0
M5
G00 X8.74 Y10.08 F1500.0
M4 S700 F1500.0
G01 F800.0
G01 X9.03 F800.0
G01 Y9.79 F800.0
G01 X8.74 F800.0
G01 Y10.08 F800.0
M5
G00 X8.44 Y10.08 F1500.0
M4 S700 F1500.0
G01 F800.0
G01 X8.74 F800.0
G01 Y9.79 F800.0
G01 X8.44 F800.0
G01 Y10.08 F800.0
M5
G00 X8.15 Y9.79 F1500.0
M4 S700 F1500.0
G01 F800.0
G01 X8.44 F800.0
G01 Y9.5 F800.0
G01 X8.15 F800.0
G01 Y9.79 F800.0
M5
G00 X7.86 Y10.08 F1500.0
M4 S700 F1500.0
G01 F800.0
G01 X8.15 F800.0
G01 Y9.79 F800.0
G01 X7.86 F800.0
G01 Y10.08 F800.0
M5
G00 X7.57 Y10.08 F1500.0
M4 S700 F1500.0
G01 F800.0
G01 X7.86 F800.0
G01 Y9.79 F800.0
G01 X7.57 F800.0
G01 Y10.08 F800.0
M5
G00 X7.57 Y9.79 F1500.0
M4 S700 F1500.0
G01 F800.0
G01 X7.86 F800.0
G01 Y9.5 F800.0
G01 X7.57 F800.0
G01 Y9.79 F800.0
M5
G00 X7.57 Y9.2 F1500.0
M4 S700 F1500.0
G01 F800.0
G01 X7.86 F800.0
G01 Y8.91 F800.0
G01 X7.57 F800.0
G01 Y9.2 F800.0
M5
G00 X7.27 Y9.2 F1500.0
M4 S700 F1500.0
G01 F800.0
G01 X7.57 F800.0
G01 Y8.91 F800.0
G01 X7.27 F800.0
G01 Y9.2 F800.0
M5
G00 X8.74 Y8.03 F1500.0
M4 S700 F1500.0
G01 F800.0
G01 X9.03 F800.0
G01 Y7.74 F800.0
G01 X8.74 F800.0
G01 Y8.03 F800.0
M5
G00 X7.86 Y5.98 F1500.0
M4 S700 F1500.0
G01 F800.0
G01 X8.15 F800.0
G01 Y5.69 F800.0
G01 X7.86 F800.0
G01 Y5.98 F800.0
M5
G00 X7.86 Y5.69 F1500.0
M4 S700 F1500.0
G01 F800.0
G01 X8.15 F800.0
G01 Y5.4 F800.0
G01 X7.86 F800.0
G01 Y5.69 F800.0
M5
G00 X7.86 Y5.4 F1500.0
M4 S700 F1500.0
G01 F800.0
G01 X8.15 F800.0
G01 Y5.11 F800.0
G01 X7.86 F800.0
G01 Y5.4 F800.0
M5
G00 X7.57 Y5.4 F1500.0
M4 S700 F1500.0
G01 F800.0
G01 X7.86 F800.0
G01 Y5.11 F800.0
G01 X7.57 F800.0
G01 Y5.4 F800.0
M5
G00 X7.57 Y5.11 F1500.0
M4 S700 F1500.0
G01 F800.0
G01 X7.86 F800.0
G01 Y4.81 F800.0
G01 X7.57 F800.0
G01 Y5.11 F800.0
M5
G00 X7.57 Y4.52 F1500.0
M4 S700 F1500.0
G01 F800.0
G01 X7.86 F800.0
G01 Y4.23 F800.0
G01 X7.57 F800.0
G01 Y4.52 F800.0
M5
G00 X7.27 Y4.52 F1500.0
M4 S700 F1500.0
G01 F800.0
G01 X7.57 F800.0
G01 Y4.23 F800.0
G01 X7.27 F800.0
G01 Y4.52 F800.0
M5
G00 X7.27 Y4.23 F1500.0
M4 S700 F1500.0
G01 F800.0
G01 X7.57 F800.0
G01 Y3.93 F800.0
G01 X7.27 F800.0
G01 Y4.23 F800.0
M5
G00 X6.98 Y4.23 F1500.0
M4 S700 F1500.0
G01 F800.0
G01 X7.27 F800.0
G01 Y3.93 F800.0
G01 X6.98 F800.0
G01 Y4.23 F800.0
M5
G00 X6.98 Y3.93 F1500.0
M4 S700 F1500.0
G01 F800.0
G01 X7.27 F800.0
G01 Y3.64 F800.0
G01 X6.98 F800.0
G01 Y3.93 F800.0
M5
G00 X7.27 Y3.93 F1500.0
M4 S700 F1500.0
G01 F800.0
G01 X7.57 F800.0
G01 Y3.64 F800.0
G01 X7.27 F800.0
G01 Y3.93 F800.0
M5
G00 X6.69 Y4.52 F1500.0
M4 S700 F1500.0
G01 F800.0
G01 X6.98 F800.0
G01 Y4.23 F800.0
G01 X6.69 F800.0
G01 Y4.52 F800.0
M5
G00 X6.69 Y4.81 F1500.0
M4 S700 F1500.0
G01 F800.0
G01 X6.98 F800.0
G01 Y4.52 F800.0
G01 X6.69 F800.0
G01 Y4.81 F800.0
M5
G00 X6.39 Y4.81 F1500.0
M4 S700 F1500.0
G01 F800.0
G01 X6.69 F800.0
G01 Y4.52 F800.0
G01 X6.39 F800.0
G01 Y4.81 F800.0
M5
G00 X6.39 Y4.52 F1500.0
M4 S700 F1500.0
G01 F800.0
G01 X6.69 F800.0
G01 Y4.23 F800.0
G01 X6.39 F800.0
G01 Y4.52 F800.0
M5
G00 X6.39 Y4.23 F1500.0
M4 S700 F1500.0
G01 F800.0
G01 X6.69 F800.0
G01 Y3.93 F800.0
G01 X6.39 F800.0
G01 Y4.23 F800.0
M5
G00 X6.39 Y3.93 F1500.0
M4 S700 F1500.0
G01 F800.0
G01 X6.69 F800.0
G01 Y3.64 F800.0
G01 X6.39 F800.0
G01 Y3.93 F800.0
M5
G00 X5.81 Y3.93 F1500.0
M4 S700 F1500.0
G01 F800.0
G01 X6.1 F800.0
G01 Y3.64 F800.0
G01 X5.81 F800.0
G01 Y3.93 F800.0
M5
G00 X5.52 Y3.93 F1500.0
M4 S700 F1500.0
G01 F800.0
G01 X5.81 F800.0
G01 Y3.64 F800.0
G01 X5.52 F800.0
G01 Y3.93 F800.0
M5
G00 X5.22 Y3.93 F1500.0
M4 S700 F1500.0
G01 F800.0
G01 X5.52 F800.0
G01 Y3.64 F800.0
G01 X5.22 F800.0
G01 Y3.93 F800.0
M5
G00 X4.93 Y3.93 F1500.0
M4 S700 F1500.0
G01 F800.0
G01 X5.22 F800.0
G01 Y3.64 F800.0
G01 X4.93 F800.0
G01 Y3.93 F800.0
M5
G00 X4.64 Y3.93 F1500.0
M4 S700 F1500.0
G01 F800.0
G01 X4.93 F800.0
G01 Y3.64 F800.0
G01 X4.64 F800.0
G01 Y3.93 F800.0
M5
G00 X4.35 Y3.93 F1500.0
M4 S700 F1500.0
G01 F800.0
G01 X4.64 F800.0
G01 Y3.64 F800.0
G01 X4.35 F800.0
G01 Y3.93 F800.0
M5
G00 X4.05 Y3.93 F1500.0
M4 S700 F1500.0
G01 F800.0
G01 X4.35 F800.0
G01 Y3.64 F800.0
G01 X4.05 F800.0
G01 Y3.93 F800.0
M5
G00 X4.05 Y4.23 F1500.0
M4 S700 F1500.0
G01 F800.0
G01 X4.35 F800.0
G01 Y3.93 F800.0
G01 X4.05 F800.0
G01 Y4.23 F800.0
M5
G00 X4.05 Y4.52 F1500.0
M4 S700 F1500.0
G01 F800.0
G01 X4.35 F800.0
G01 Y4.23 F800.0
G01 X4.05 F800.0
G01 Y4.52 F800.0
M5
G00 X4.05 Y4.81 F1500.0
M4 S700 F1500.0
G01 F800.0
G01 X4.35 F800.0
G01 Y4.52 F800.0
G01 X4.05 F800.0
G01 Y4.81 F800.0
M5
G00 X4.05 Y5.11 F1500.0
M4 S700 F1500.0
G01 F800.0
G01 X4.35 F800.0
G01 Y4.81 F800.0
G01 X4.05 F800.0
G01 Y5.11 F800.0
M5
G00 X4.05 Y5.4 F1500.0
M4 S700 F1500.0
G01 F800.0
G01 X4.35 F800.0
G01 Y5.11 F800.0
G01 X4.05 F800.0
G01 Y5.4 F800.0
M5
G00 X4.05 Y5.69 F1500.0
M4 S700 F1500.0
G01 F800.0
G01 X4.35 F800.0
G01 Y5.4 F800.0
G01 X4.05 F800.0
G01 Y5.69 F800.0
M5
G00 X4.35 Y5.69 F1500.0
M4 S700 F1500.0
G01 F800.0
G01 X4.64 F800.0
G01 Y5.4 F800.0
G01 X4.35 F800.0
G01 Y5.69 F800.0
M5
G00 X4.64 Y5.69 F1500.0
M4 S700 F1500.0
G01 F800.0
G01 X4.93 F800.0
G01 Y5.4 F800.0
G01 X4.64 F800.0
G01 Y5.69 F800.0
M5
G00 X4.93 Y5.69 F1500.0
M4 S700 F1500.0
G01 F800.0
G01 X5.22 F800.0
G01 Y5.4 F800.0
G01 X4.93 F800.0
G01 Y5.69 F800.0
M5
G00 X5.22 Y5.69 F1500.0
M4 S700 F1500.0
G01 F800.0
G01 X5.52 F800.0
G01 Y5.4 F800.0
G01 X5.22 F800.0
G01 Y5.69 F800.0
M5
G00 X5.52 Y5.69 F1500.0
M4 S700 F1500.0
G01 F800.0
G01 X5.81 F800.0
G01 Y5.4 F800.0
G01 X5.52 F800.0
G01 Y5.69 F800.0
M5
G00 X5.81 Y5.69 F1500.0
M4 S700 F1500.0
G01 F800.0
G01 X6.1 F800.0
G01 Y5.4 F800.0
G01 X5.81 F800.0
G01 Y5.69 F800.0
M5
G00 X5.81 Y5.4 F1500.0
M4 S700 F1500.0
G01 F800.0
G01 X6.1 F800.0
G01 Y5.11 F800.0
G01 X5.81 F800.0
G01 Y5.4 F800.0
M5
G00 X5.81 Y5.11 F1500.0
M4 S700 F1500.0
G01 F800.0
G01 X6.1 F800.0
G01 Y4.81 F800.0
G01 X5.81 F800.0
G01 Y5.11 F800.0
M5
G00 X5.81 Y4.81 F1500.0
M4 S700 F1500.0
G01 F800.0
G01 X6.1 F800.0
G01 Y4.52 F800.0
G01 X5.81 F800.0
G01 Y4.81 F800.0
M5
G00 X5.81 Y4.52 F1500.0
M4 S700 F1500.0
G01 F800.0
G01 X6.1 F800.0
G01 Y4.23 F800.0
G01 X5.81 F800.0
G01 Y4.52 F800.0
M5
G00 X5.81 Y4.23 F1500.0
M4 S700 F1500.0
G01 F800.0
G01 X6.1 F800.0
G01 Y3.93 F800.0
G01 X5.81 F800.0
G01 Y4.23 F800.0
M5
G00 X5.22 Y4.52 F1500.0
M4 S700 F1500.0
G01 F800.0
G01 X5.52 F800.0
G01 Y4.23 F800.0
G01 X5.22 F800.0
G01 Y4.52 F800.0
M5
G00 X5.22 Y4.81 F1500.0
M4 S700 F1500.0
G01 F800.0
G01 X5.52 F800.0
G01 Y4.52 F800.0
G01 X5.22 F800.0
G01 Y4.81 F800.0
M5
G00 X4.93 Y4.81 F1500.0
M4 S700 F1500.0
G01 F800.0
G01 X5.22 F800.0
G01 Y4.52 F800.0
G01 X4.93 F800.0
G01 Y4.81 F800.0
M5
G00 X4.93 Y4.52 F1500.0
M4 S700 F1500.0
G01 F800.0
G01 X5.22 F800.0
G01 Y4.23 F800.0
G01 X4.93 F800.0
G01 Y4.52 F800.0
M5
G00 X4.64 Y4.52 F1500.0
M4 S700 F1500.0
G01 F800.0
G01 X4.93 F800.0
G01 Y4.23 F800.0
G01 X4.64 F800.0
G01 Y4.52 F800.0
M5
G00 X4.64 Y4.81 F1500.0
M4 S700 F1500.0
G01 F800.0
G01 X4.93 F800.0
G01 Y4.52 F800.0
G01 X4.64 F800.0
G01 Y4.81 F800.0
M5
G00 X4.64 Y5.11 F1500.0
M4 S700 F1500.0
G01 F800.0
G01 X4.93 F800.0
G01 Y4.81 F800.0
G01 X4.64 F800.0
G01 Y5.11 F800.0
M5
G00 X4.93 Y5.11 F1500.0
M4 S700 F1500.0
G01 F800.0
G01 X5.22 F800.0
G01 Y4.81 F800.0
G01 X4.93 F800.0
G01 Y5.11 F800.0
M5
G00 X5.22 Y5.11 F1500.0
M4 S700 F1500.0
G01 F800.0
G01 X5.52 F800.0
G01 Y4.81 F800.0
G01 X5.22 F800.0
G01 Y5.11 F800.0
M5
G00 X6.39 Y5.11 F1500.0
M4 S700 F1500.0
G01 F800.0
G01 X6.69 F800.0
G01 Y4.81 F800.0
G01 X6.39 F800.0
G01 Y5.11 F800.0
M5
G00 X6.69 Y5.4 F1500.0
M4 S700 F1500.0
G01 F800.0
G01 X6.98 F800.0
G01 Y5.11 F800.0
G01 X6.69 F800.0
G01 Y5.4 F800.0
M5
G00 X6.98 Y5.4 F1500.0
M4 S700 F1500.0
G01 F800.0
G01 X7.27 F800.0
G01 Y5.11 F800.0
G01 X6.98 F800.0
G01 Y5.4 F800.0
M5
G00 X7.57 Y5.98 F1500.0
M4 S700 F1500.0
G01 F800.0
G01 X7.86 F800.0
G01 Y5.69 F800.0
G01 X7.57 F800.0
G01 Y5.98 F800.0
M5
G00 X8.15 Y5.11 F1500.0
M4 S700 F1500.0
G01 F800.0
G01 X8.44 F800.0
G01 Y4.81 F800.0
G01 X8.15 F800.0
G01 Y5.11 F800.0
M5
G00 X8.44 Y5.11 F1500.0
M4 S700 F1500.0
G01 F800.0
G01 X8.74 F800.0
G01 Y4.81 F800.0
G01 X8.44 F800.0
G01 Y5.11 F800.0
M5
G00 X8.74 Y5.11 F1500.0
M4 S700 F1500.0
G01 F800.0
G01 X9.03 F800.0
G01 Y4.81 F800.0
G01 X8.74 F800.0
G01 Y5.11 F800.0
M5
G00 X9.03 Y5.11 F1500.0
M4 S700 F1500.0
G01 F800.0
G01 X9.32 F800.0
G01 Y4.81 F800.0
G01 X9.03 F800.0
G01 Y5.11 F800.0
M5
G00 X9.03 Y4.81 F1500.0
M4 S700 F1500.0
G01 F800.0
G01 X9.32 F800.0
G01 Y4.52 F800.0
G01 X9.03 F800.0
G01 Y4.81 F800.0
M5
G00 X9.32 Y4.81 F1500.0
M4 S700 F1500.0
G01 F800.0
G01 X9.62 F800.0
G01 Y4.52 F800.0
G01 X9.32 F800.0
G01 Y4.81 F800.0
M5
G00 X9.62 Y4.81 F1500.0
M4 S700 F1500.0
G01 F800.0
G01 X9.91 F800.0
G01 Y4.52 F800.0
G01 X9.62 F800.0
G01 Y4.81 F800.0
M5
G00 X9.91 Y4.81 F1500.0
M4 S700 F1500.0
G01 F800.0
G01 X10.2 F800.0
G01 Y4.52 F800.0
G01 X9.91 F800.0
G01 Y4.81 F800.0
M5
G00 X9.62 Y5.11 F1500.0
M4 S700 F1500.0
G01 F800.0
G01 X9.91 F800.0
G01 Y4.81 F800.0
G01 X9.62 F800.0
G01 Y5.11 F800.0
M5
G00 X9.62 Y5.4 F1500.0
M4 S700 F1500.0
G01 F800.0
G01 X9.91 F800.0
G01 Y5.11 F800.0
G01 X9.62 F800.0
G01 Y5.4 F800.0
M5
G00 X9.32 Y5.69 F1500.0
M4 S700 F1500.0
G01 F800.0
G01 X9.62 F800.0
G01 Y5.4 F800.0
G01 X9.32 F800.0
G01 Y5.69 F800.0
M5
G00 X8.74 Y4.81 F1500.0
M4 S700 F1500.0
G01 F800.0
G01 X9.03 F800.0
G01 Y4.52 F800.0
G01 X8.74 F800.0
G01 Y4.81 F800.0
M5
G00 X8.74 Y4.52 F1500.0
M4 S700 F1500.0
G01 F800.0
G01 X9.03 F800.0
G01 Y4.23 F800.0
G01 X8.74 F800.0
G01 Y4.52 F800.0
M5
G00 X8.74 Y4.23 F1500.0
M4 S700 F1500.0
G01 F800.0
G01 X9.03 F800.0
G01 Y3.93 F800.0
G01 X8.74 F800.0
G01 Y4.23 F800.0
M5
G00 X8.44 Y4.52 F1500.0
M4 S700 F1500.0
G01 F800.0
G01 X8.74 F800.0
G01 Y4.23 F800.0
G01 X8.44 F800.0
G01 Y4.52 F800.0
M5
G00 X8.44 Y4.81 F1500.0
M4 S700 F1500.0
G01 F800.0
G01 X8.74 F800.0
G01 Y4.52 F800.0
G01 X8.44 F800.0
G01 Y4.81 F800.0
M5
G00 X8.15 Y4.23 F1500.0
M4 S700 F1500.0
G01 F800.0
G01 X8.44 F800.0
G01 Y3.93 F800.0
G01 X8.15 F800.0
G01 Y4.23 F800.0
M5
G00 X9.03 Y4.52 F1500.0
M4 S700 F1500.0
G01 F800.0
G01 X9.32 F800.0
G01 Y4.23 F800.0
G01 X9.03 F800.0
G01 Y4.52 F800.0
M5
G00 X9.32 Y4.23 F1500.0
M4 S700 F1500.0
G01 F800.0
G01 X9.62 F800.0
G01 Y3.93 F800.0
G01 X9.32 F800.0
G01 Y4.23 F800.0
M5
G00 X9.32 Y3.93 F1500.0
M4 S700 F1500.0
G01 F800.0
G01 X9.62 F800.0
G01 Y3.64 F800.0
G01 X9.32 F800.0
G01 Y3.93 F800.0
M5
G00 X9.03 Y3.93 F1500.0
M4 S700 F1500.0
G01 F800.0
G01 X9.32 F800.0
G01 Y3.64 F800.0
G01 X9.03 F800.0
G01 Y3.93 F800.0
M5
G00 X5.81 Y6.28 F1500.0
M4 S700 F1500.0
G01 F800.0
G01 X6.1 F800.0
G01 Y5.98 F800.0
G01 X5.81 F800.0
G01 Y6.28 F800.0
M5
G00 X4.93 Y9.79 F1500.0
M4 S700 F1500.0
G01 F800.0
G01 X5.22 F800.0
G01 Y9.5 F800.0
G01 X4.93 F800.0
G01 Y9.79 F800.0
M5
G00 X4.05 Y10.08 F1500.0
M4 S700 F1500.0
G01 F800.0
G01 X4.35 F800.0
G01 Y9.79 F800.0
G01 X4.05 F800.0
G01 Y10.08 F800.0
M5
G00 X6.39 Y11.54 F1500.0
M4 S700 F1500.0
G01 F800.0
G01 X6.69 F800.0
G01 Y11.25 F800.0
G01 X6.39 F800.0
G01 Y11.54 F800.0
M5
G00 X8.74 Y12.72 F1500.0
M4 S700 F1500.0
G01 F800.0
G01 X9.03 F800.0
G01 Y12.42 F800.0
G01 X8.74 F800.0
G01 Y12.72 F800.0
M5
G00 X9.32 Y12.72 F1500.0
M4 S700 F1500.0
G01 F800.0
G01 X9.62 F800.0
G01 Y12.42 F800.0
G01 X9.32 F800.0
G01 Y12.72 F800.0
M5
G00 X9.62 Y12.72 F1500.0
M4 S700 F1500.0
G01 F800.0
G01 X9.91 F800.0
G01 Y12.42 F800.0
G01 X9.62 F800.0
G01 Y12.72 F800.0
M5
G00 X10.2 Y12.72 F1500.0
M4 S700 F1500.0
G01 F800.0
G01 X10.49 F800.0
G01 Y12.42 F800.0
G01 X10.2 F800.0
G01 Y12.72 F800.0
M5
G00 X10.49 Y9.79 F1500.0
M4 S700 F1500.0
G01 F800.0
G01 X10.79 F800.0
G01 Y9.5 F800.0
G01 X10.49 F800.0
G01 Y9.79 F800.0
M5
G00 X10.79 Y9.79 F1500.0
M4 S700 F1500.0
G01 F800.0
G01 X11.08 F800.0
G01 Y9.5 F800.0
G01 X10.79 F800.0
G01 Y9.79 F800.0
M5
G00 X11.08 Y9.79 F1500.0
M4 S700 F1500.0
G01 F800.0
G01 X11.37 F800.0
G01 Y9.5 F800.0
G01 X11.08 F800.0
G01 Y9.79 F800.0
M5
G00 X11.37 Y9.79 F1500.0
M4 S700 F1500.0
G01 F800.0
G01 X11.66 F800.0
G01 Y9.5 F800.0
G01 X11.37 F800.0
G01 Y9.79 F800.0
M5
G00 X11.66 Y9.5 F1500.0
M4 S700 F1500.0
G01 F800.0
G01 X11.96 F800.0
G01 Y9.2 F800.0
G01 X11.66 F800.0
G01 Y9.5 F800.0
M5
G00 X11.96 Y9.5 F1500.0
M4 S700 F1500.0
G01 F800.0
G01 X12.25 F800.0
G01 Y9.2 F800.0
G01 X11.96 F800.0
G01 Y9.5 F800.0
M5
G00 X11.96 Y9.2 F1500.0
M4 S700 F1500.0
G01 F800.0
G01 X12.25 F800.0
G01 Y8.91 F800.0
G01 X11.96 F800.0
G01 Y9.2 F800.0
M5
G00 X11.66 Y9.2 F1500.0
M4 S700 F1500.0
G01 F800.0
G01 X11.96 F800.0
G01 Y8.91 F800.0
G01 X11.66 F800.0
G01 Y9.2 F800.0
M5
G00 X11.37 Y9.2 F1500.0
M4 S700 F1500.0
G01 F800.0
G01 X11.66 F800.0
G01 Y8.91 F800.0
G01 X11.37 F800.0
G01 Y9.2 F800.0
M5
G00 X10.79 Y9.5 F1500.0
M4 S700 F1500.0
G01 F800.0
G01 X11.08 F800.0
G01 Y9.2 F800.0
G01 X10.79 F800.0
G01 Y9.5 F800.0
M5
G00 X11.96 Y9.79 F1500.0
M4 S700 F1500.0
G01 F800.0
G01 X12.25 F800.0
G01 Y9.5 F800.0
G01 X11.96 F800.0
G01 Y9.79 F800.0
M5
G00 X12.25 Y9.2 F1500.0
M4 S700 F1500.0
G01 F800.0
G01 X12.54 F800.0
G01 Y8.91 F800.0
G01 X12.25 F800.0
G01 Y9.2 F800.0
M5
G00 X12.83 Y8.91 F1500.0
M4 S700 F1500.0
G01 F800.0
G01 X13.13 F800.0
G01 Y8.62 F800.0
G01 X12.83 F800.0
G01 Y8.91 F800.0
M5
G00 X13.13 Y8.62 F1500.0
M4 S700 F1500.0
G01 F800.0
G01 X13.42 F800.0
G01 Y8.33 F800.0
G01 X13.13 F800.0
G01 Y8.62 F800.0
M5
G00 X13.13 Y8.33 F1500.0
M4 S700 F1500.0
G01 F800.0
G01 X13.42 F800.0
G01 Y8.03 F800.0
G01 X13.13 F800.0
G01 Y8.33 F800.0
M5
G00 X13.42 Y8.33 F1500.0
M4 S700 F1500.0
G01 F800.0
G01 X13.71 F800.0
G01 Y8.03 F800.0
G01 X13.42 F800.0
G01 Y8.33 F800.0
M5
G00 X13.13 Y8.03 F1500.0
M4 S700 F1500.0
G01 F800.0
G01 X13.42 F800.0
G01 Y7.74 F800.0
G01 X13.13 F800.0
G01 Y8.03 F800.0
M5
G00 X13.13 Y9.2 F1500.0
M4 S700 F1500.0
G01 F800.0
G01 X13.42 F800.0
G01 Y8.91 F800.0
G01 X13.13 F800.0
G01 Y9.2 F800.0
M5
G00 X13.13 Y9.5 F1500.0
M4 S700 F1500.0
G01 F800.0
G01 X13.42 F800.0
G01 Y9.2 F800.0
G01 X13.13 F800.0
G01 Y9.5 F800.0
M5
G00 X13.42 Y9.5 F1500.0
M4 S700 F1500.0
G01 F800.0
G01 X13.71 F800.0
G01 Y9.2 F800.0
G01 X13.42 F800.0
G01 Y9.5 F800.0
M5
G00 X11.66 Y8.33 F1500.0
M4 S700 F1500.0
G01 F800.0
G01 X11.96 F800.0
G01 Y8.03 F800.0
G01 X11.66 F800.0
G01 Y8.33 F800.0
M5
G00 X11.66 Y8.03 F1500.0
M4 S700 F1500.0
G01 F800.0
G01 X11.96 F800.0
G01 Y7.74 F800.0
G01 X11.66 F800.0
G01 Y8.03 F800.0
M5
G00 X13.42 Y5.11 F1500.0
M4 S700 F1500.0
G01 F800.0
G01 X13.71 F800.0
G01 Y4.81 F800.0
G01 X13.42 F800.0
G01 Y5.11 F800.0
M5
G00 X2.88 Y2.97 F1500.0
M4 S700 F1500.0
G01 Y12.97 F800.0
G01 Y14.47 F800.0
G01 F800.0
G01 X3.38 F800.0
G01 X13.38 F800.0
G01 X14.88 F800.0
G01 Y13.97 F800.0
G01 Y3.97 F800.0
G01 Y2.47 F800.0
G01 X14.38 F800.0
G01 X4.38 F800.0
G01 X2.88 F800.0
G01 Y2.97 F800.0
M5
G00 X25.23 Y26.29 F1500.0
M4 S700 F1500.0
G01 X26.23 Y26.27 F800.0
G01 X27.22 Y26.26 F800.0
G01 X28.22 Y26.25 F800.0
G01 X29.22 Y26.24 F800.0
G01 X30.22 Y26.22 F800.0
G01 X31.22 Y26.21 F800.0
G01 X32.22 Y26.2 F800.0
G01 X33.22 Y26.19 F800.0
G01 X34.22 Y26.17 F800.0
G01 X35.22 Y26.16 F800.0
G01 X36.22 Y26.15 F800.0
G01 X37.22 Y26.14 F800.0
G01 X38.22 Y26.12 F800.0
G01 X39.22 Y26.11 F800.0
G01 X40.22 Y26.1 F800.0
G01 X41.22 Y26.09 F800.0
G01 X42.22 Y26.07 F800.0
G01 X43.22 Y26.06 F800.0
G01 X44.22 Y26.05 F800.0
G01 X45.38 Y26.03 F800.0
G01 F800.0
G01 X45.53 Y26.04 F800.0
G01 X46.53 Y26.07 F800.0
G01 X47.53 Y26.09 F800.0
G01 X48.53 Y26.12 F800.0
G01 X49.53 Y26.15 F800.0
G01 X50.53 Y26.18 F800.0
G01 X52.53 Y26.23 F800.0
G01 X53.52 Y26.26 F800.0
G01 X55.52 Y26.32 F800.0
G01 X56.52 Y26.34 F800.0
G01 X57.52 Y26.37 F800.0
G01 X58.52 Y26.4 F800.0
G01 X59.67 Y26.43 F800.0
G01 X59.66 Y26.59 F800.0
G01 X59.63 Y27.59 F800.0
G01 X59.59 Y28.59 F800.0
G01 X59.55 Y29.59 F800.0
G01 X59.51 Y30.59 F800.0
G01 X59.48 Y31.59 F800.0
G01 X59.44 Y32.59 F800.0
G01 X59.4 Y33.59 F800.0
G01 X59.36 Y34.59 F800.0
G01 X59.33 Y35.59 F800.0
G01 X59.29 Y36.59 F800.0
G01 X59.24 Y37.74 F800.0
G01 X59.34 Y38.19 F800.0
G01 X59.63 Y39.62 F800.0
G01 X59.58 Y40.25 F800.0
G01 X59.74 Y40.57 F800.0
G01 X59.33 Y41.08 F800.0
G01 X58.41 Y41.2 F800.0
G01 X58.38 Y41.31 F800.0
G01 X58.15 Y42.41 F800.0
G01 X58.16 Y42.45 F800.0
G01 X58.49 Y43.39 F800.0
G01 X58.84 Y44.38 F800.0
G01 X59.5 Y44.8 F800.0
G01 X59.78 Y45.58 F800.0
G01 X59.63 Y46.02 F800.0
G01 X60.02 Y46.62 F800.0
G01 X60.13 Y47.05 F800.0
G01 X60.51 Y48.44 F800.0
G01 X60.71 Y48.83 F800.0
G01 X61.35 Y50.13 F800.0
G01 X60.96 Y51.01 F800.0
G01 X60.79 Y51.09 F800.0
G01 X59.72 Y51.62 F800.0
G01 X59.67 Y51.69 F800.0
G01 X58.99 Y52.53 F800.0
G01 X58.88 F800.0
G01 X56.88 Y52.48 F800.0
G01 X55.88 Y52.45 F800.0
G01 X53.88 Y52.4 F800.0
G01 X52.88 Y52.38 F800.0
G01 X51.88 Y52.35 F800.0
G01 X50.88 Y52.32 F800.0
G01 X49.77 Y52.3 F800.0
G01 X49.05 Y51.8 F800.0
G01 X48.74 Y51.77 F800.0
G01 X47.43 Y51.64 F800.0
G01 X46.85 Y51.76 F800.0
G01 X46.51 Y51.3 F800.0
G01 X45.54 Y51.16 F800.0
G01 X45.38 Y51.1 F800.0
G01 X44.29 Y50.67 F800.0
G01 X44.09 Y50.41 F800.0
G01 X43.97 Y50.39 F800.0
G01 X42.86 Y50.2 F800.0
G01 X42.51 Y50.59 F800.0
G01 X42.15 Y50.56 F800.0
G01 X41.99 Y50.47 F800.0
G01 X40.99 Y49.85 F800.0
G01 X40.45 Y50.04 F800.0
G01 X39.88 Y49.65 F800.0
G01 X39.69 Y50.15 F800.0
G01 X38.94 Y50.31 F800.0
G01 X38.49 Y50.25 F800.0
G01 X38.12 Y50.49 F800.0
G01 X37.29 Y50.18 F800.0
G01 X36.88 Y50.31 F800.0
G01 X36.54 Y50.22 F800.0
G01 X36.27 Y49.87 F800.0
G01 X35.97 Y49.75 F800.0
G01 X34.75 Y49.25 F800.0
G01 X34.6 Y49.3 F800.0
G01 X33.65 Y49.6 F800.0
G01 X32.54 Y49.95 F800.0
G01 X32.52 Y50.29 F800.0
G01 X32.43 Y51.63 F800.0
G01 X32.39 Y51.73 F800.0
G01 X32.0 Y52.77 F800.0
G01 X31.81 Y52.9 F800.0
G01 X30.8 Y53.59 F800.0
G01 X30.75 Y53.57 F800.0
G01 X29.75 Y53.27 F800.0
G01 X29.55 Y53.56 F800.0
G01 X29.57 Y53.93 F800.0
G01 X29.31 Y54.11 F800.0
G01 X29.04 Y54.0 F800.0
G01 X28.82 Y53.54 F800.0
G01 X28.38 Y53.49 F800.0
G01 X28.15 Y53.76 F800.0
G01 X27.86 Y53.72 F800.0
G01 X27.7 Y53.49 F800.0
G01 X26.98 Y53.88 F800.0
G01 X27.02 Y53.75 F800.0
G01 X27.31 Y52.65 F800.0
G01 X27.04 Y52.18 F800.0
G01 Y52.14 F800.0
G01 X27.0 Y51.09 F800.0
G01 X27.14 Y50.43 F800.0
G01 X27.11 Y49.99 F800.0
G01 X26.93 Y48.0 F800.0
G01 X26.8 Y46.57 F800.0
G01 Y46.55 F800.0
G01 X26.66 Y45.55 F800.0
G01 X26.52 Y44.56 F800.0
G01 X26.39 Y43.57 F800.0
G01 X26.25 Y42.58 F800.0
G01 X26.11 Y41.59 F800.0
G01 X25.98 Y40.6 F800.0
G01 X25.84 Y39.61 F800.0
G01 X25.7 Y38.62 F800.0
G01 X25.56 Y37.63 F800.0
G01 X25.42 Y36.62 F800.0
G01 X25.31 Y36.3 F800.0
G01 X24.86 Y35.05 F800.0
G01 X24.4 Y34.96 F800.0
G01 X24.59 Y34.37 F800.0
G01 X24.48 Y34.09 F800.0
G01 X24.11 Y33.16 F800.0
G01 X23.64 Y31.94 F800.0
G01 X23.81 Y30.98 F800.0
G01 X24.2 Y30.68 F800.0
G01 X24.41 Y30.0 F800.0
G01 X24.15 Y29.6 F800.0
G01 X24.04 Y28.65 F800.0
G01 X24.13 Y28.32 F800.0
G01 X24.5 Y27.02 F800.0
G01 X25.07 Y26.29 F800.0
G01 X25.23 F800.0
M5
G00 X29.3 Y53.94 F1500.0
M4 S700 F1500.0
G01 F800.0
G01 X29.42 Y53.85 F800.0
G01 X29.4 Y53.51 F800.0
G01 X29.69 Y53.1 F800.0
G01 X29.75 Y53.12 F800.0
G01 X30.77 Y53.42 F800.0
G01 X30.91 Y53.33 F800.0
G01 X31.88 Y52.68 F800.0
G01 X31.9 Y52.61 F800.0
G01 X32.28 Y51.6 F800.0
G01 X32.31 Y51.22 F800.0
G01 X32.4 Y49.84 F800.0
G01 X32.62 Y49.77 F800.0
G01 X33.58 Y49.47 F800.0
G01 X34.76 Y49.09 F800.0
G01 X35.09 Y49.23 F800.0
G01 X36.36 Y49.75 F800.0
G01 X36.63 Y50.09 F800.0
G01 X36.88 Y50.16 F800.0
G01 X37.29 Y50.02 F800.0
G01 X38.1 Y50.33 F800.0
G01 X38.46 Y50.1 F800.0
G01 X38.93 Y50.16 F800.0
G01 X39.58 Y50.02 F800.0
G01 X39.81 Y49.42 F800.0
G01 X40.47 Y49.88 F800.0
G01 X41.01 Y49.69 F800.0
G01 X41.17 Y49.79 F800.0
G01 X42.2 Y50.42 F800.0
G01 X42.45 Y50.44 F800.0
G01 X42.8 Y50.04 F800.0
G01 X42.99 Y50.07 F800.0
G01 X44.17 Y50.27 F800.0
G01 X44.38 Y50.55 F800.0
G01 X44.52 Y50.6 F800.0
G01 X45.58 Y51.02 F800.0
G01 X45.59 F800.0
G01 X46.6 Y51.16 F800.0
G01 X46.91 Y51.6 F800.0
G01 X47.43 Y51.49 F800.0
G01 X47.76 Y51.52 F800.0
G01 X49.1 Y51.65 F800.0
G01 X49.82 Y52.15 F800.0
G01 X49.87 F800.0
G01 X50.87 Y52.18 F800.0
G01 X51.87 Y52.2 F800.0
G01 X52.87 Y52.23 F800.0
G01 X53.87 Y52.25 F800.0
G01 X54.87 Y52.28 F800.0
G01 X55.87 Y52.3 F800.0
G01 X56.87 Y52.33 F800.0
G01 X57.87 Y52.35 F800.0
G01 X58.92 Y52.38 F800.0
G01 X58.96 Y52.33 F800.0
G01 X59.62 Y51.51 F800.0
G01 X59.79 Y51.42 F800.0
G01 X60.84 Y50.9 F800.0
G01 X61.18 Y50.13 F800.0
G01 X61.0 Y49.76 F800.0
G01 X60.38 Y48.49 F800.0
G01 X60.26 Y48.07 F800.0
G01 X59.88 Y46.68 F800.0
G01 X59.47 Y46.05 F800.0
G01 X59.62 Y45.58 F800.0
G01 X59.38 Y44.89 F800.0
G01 X58.72 Y44.47 F800.0
G01 X58.69 Y44.39 F800.0
G01 X58.36 Y43.45 F800.0
G01 X57.99 Y42.42 F800.0
G01 X58.03 Y42.23 F800.0
G01 X58.29 Y41.06 F800.0
G01 X59.25 Y40.94 F800.0
G01 X59.57 Y40.55 F800.0
G01 X59.43 Y40.28 F800.0
G01 X59.48 Y39.63 F800.0
G01 X59.39 Y39.18 F800.0
G01 X59.1 Y37.76 F800.0
G01 Y37.66 F800.0
G01 X59.17 Y35.66 F800.0
G01 X59.21 Y34.66 F800.0
G01 X59.29 Y32.67 F800.0
G01 X59.33 Y31.67 F800.0
G01 X59.36 Y30.67 F800.0
G01 X59.44 Y28.67 F800.0
G01 X59.48 Y27.67 F800.0
G01 X59.52 Y26.58 F800.0
G01 X59.45 Y26.57 F800.0
G01 X58.45 Y26.55 F800.0
G01 X57.45 Y26.52 F800.0
G01 X56.45 Y26.49 F800.0
G01 X54.45 Y26.44 F800.0
G01 X53.45 Y26.41 F800.0
G01 X52.45 Y26.38 F800.0
G01 X51.45 Y26.35 F800.0
G01 X49.45 Y26.3 F800.0
G01 X48.45 Y26.27 F800.0
G01 X47.45 Y26.24 F800.0
G01 X46.45 Y26.21 F800.0
G01 X45.38 Y26.18 F800.0
G01 X45.26 F800.0
G01 X44.26 Y26.2 F800.0
G01 X43.26 Y26.21 F800.0
G01 X42.26 Y26.22 F800.0
G01 X41.26 Y26.23 F800.0
G01 X40.26 Y26.25 F800.0
G01 X39.26 Y26.26 F800.0
G01 X38.26 Y26.27 F800.0
G01 X37.26 Y26.28 F800.0
G01 X35.26 Y26.31 F800.0
G01 X34.26 Y26.32 F800.0
G01 X33.26 Y26.33 F800.0
G01 X32.26 Y26.35 F800.0
G01 X31.26 Y26.36 F800.0
G01 X30.26 Y26.37 F800.0
G01 X29.26 Y26.38 F800.0
G01 X28.26 Y26.4 F800.0
G01 X27.26 Y26.41 F800.0
G01 X26.26 Y26.42 F800.0
G01 X25.14 Y26.44 F800.0
G01 X24.64 Y27.09 F800.0
G01 X24.55 Y27.4 F800.0
G01 X24.19 Y28.66 F800.0
G01 X24.29 Y29.55 F800.0
G01 X24.57 Y29.98 F800.0
G01 X24.32 Y30.77 F800.0
G01 X23.95 Y31.06 F800.0
G01 X23.8 Y31.93 F800.0
G01 X23.91 Y32.21 F800.0
G01 X24.27 Y33.15 F800.0
G01 X24.74 Y34.36 F800.0
G01 X24.59 Y34.85 F800.0
G01 X24.97 Y34.93 F800.0
G01 X25.1 Y35.28 F800.0
G01 X25.57 Y36.58 F800.0
G01 Y36.61 F800.0
G01 X25.71 Y37.6 F800.0
G01 X25.85 Y38.59 F800.0
G01 X25.98 Y39.58 F800.0
G01 X26.12 Y40.58 F800.0
G01 X26.26 Y41.56 F800.0
G01 X26.53 Y43.55 F800.0
G01 X26.67 Y44.54 F800.0
G01 X26.81 Y45.53 F800.0
G01 X26.95 Y46.55 F800.0
G01 X26.99 Y47.0 F800.0
G01 X27.08 Y48.0 F800.0
G01 X27.16 Y48.99 F800.0
G01 X27.29 Y50.44 F800.0
G01 X27.14 Y51.11 F800.0
G01 Y51.12 F800.0
G01 X27.19 Y52.14 F800.0
G01 X27.47 Y52.63 F800.0
G01 X27.22 Y53.58 F800.0
G01 X27.75 Y53.3 F800.0
G01 X27.94 Y53.58 F800.0
G01 X28.09 Y53.6 F800.0
G01 X28.31 Y53.33 F800.0
G01 X28.92 Y53.41 F800.0
G01 X29.14 Y53.88 F800.0
G01 X29.3 Y53.94 F800.0
G01 F800.0
M5
G00 X29.33 Y54.27 F1500.0
M4 S700 F1500.0
G01 F800.0
G01 X28.93 Y54.12 F800.0
G01 X28.72 Y53.68 F800.0
G01 X28.44 Y53.64 F800.0
G01 X28.21 Y53.92 F800.0
G01 X27.77 Y53.85 F800.0
G01 X27.66 Y53.68 F800.0
G01 X27.64 Y53.69 F800.0
G01 X26.75 Y54.17 F800.0
G01 X26.83 Y53.91 F800.0
G01 X27.16 Y52.67 F800.0
G01 X26.9 Y52.22 F800.0
G01 X26.89 Y52.15 F800.0
G01 X26.85 Y51.08 F800.0
G01 X26.99 Y50.42 F800.0
G01 X26.96 Y50.0 F800.0
G01 X26.87 Y49.0 F800.0
G01 X26.78 Y48.01 F800.0
G01 X26.65 Y46.59 F800.0
G01 Y46.57 F800.0
G01 X26.51 Y45.58 F800.0
G01 X26.38 Y44.59 F800.0
G01 X26.24 Y43.6 F800.0
G01 X26.1 Y42.61 F800.0
G01 X25.97 Y41.62 F800.0
G01 X25.83 Y40.63 F800.0
G01 X25.55 Y38.65 F800.0
G01 X25.42 Y37.66 F800.0
G01 X25.28 Y36.65 F800.0
G01 X25.18 Y36.39 F800.0
G01 X24.75 Y35.18 F800.0
G01 X24.2 Y35.07 F800.0
G01 X24.43 Y34.37 F800.0
G01 X24.32 Y34.1 F800.0
G01 X23.96 Y33.16 F800.0
G01 X23.49 Y31.96 F800.0
G01 X23.5 Y31.92 F800.0
G01 X23.67 Y30.89 F800.0
G01 X24.07 Y30.59 F800.0
G01 X24.25 Y30.02 F800.0
G01 X24.01 Y29.65 F800.0
G01 X24.0 Y29.64 F800.0
G01 X23.89 Y28.63 F800.0
G01 X23.99 Y28.28 F800.0
G01 X24.37 Y26.96 F800.0
G01 X24.38 Y26.95 F800.0
G01 X24.99 Y26.14 F800.0
G01 X25.19 F800.0
G01 X26.19 Y26.13 F800.0
G01 X27.19 Y26.11 F800.0
G01 X28.19 Y26.1 F800.0
G01 X29.19 Y26.09 F800.0
G01 X30.19 Y26.08 F800.0
G01 X31.19 Y26.06 F800.0
G01 X33.19 Y26.04 F800.0
G01 X34.19 Y26.03 F800.0
G01 X35.19 Y26.01 F800.0
G01 X36.19 Y26.0 F800.0
G01 X37.19 Y25.99 F800.0
G01 X38.19 Y25.98 F800.0
G01 X39.19 Y25.96 F800.0
G01 X40.19 Y25.95 F800.0
G01 X41.19 Y25.94 F800.0
G01 X42.19 Y25.93 F800.0
G01 X44.19 Y25.9 F800.0
G01 X45.38 Y25.89 F800.0
G01 F800.0
G01 X45.61 F800.0
G01 X46.61 Y25.92 F800.0
G01 X47.61 Y25.95 F800.0
G01 X48.61 Y25.98 F800.0
G01 X49.61 Y26.0 F800.0
G01 X50.6 Y26.03 F800.0
G01 X52.6 Y26.09 F800.0
G01 X53.6 Y26.12 F800.0
G01 X54.6 Y26.14 F800.0
G01 X55.6 Y26.17 F800.0
G01 X57.6 Y26.23 F800.0
G01 X58.6 Y26.26 F800.0
G01 X59.82 Y26.29 F800.0
G01 Y26.51 F800.0
G01 X59.74 Y28.51 F800.0
G01 X59.7 Y29.51 F800.0
G01 X59.63 Y31.51 F800.0
G01 X59.59 Y32.51 F800.0
G01 X59.55 Y33.51 F800.0
G01 X59.48 Y35.51 F800.0
G01 X59.44 Y36.51 F800.0
G01 X59.39 Y37.73 F800.0
G01 X59.48 Y38.18 F800.0
G01 X59.78 Y39.61 F800.0
G01 X59.73 Y40.23 F800.0
G01 X59.92 Y40.59 F800.0
G01 X59.41 Y41.21 F800.0
G01 X58.53 Y41.33 F800.0
G01 X58.52 Y41.38 F800.0
G01 X58.3 Y42.4 F800.0
G01 X58.47 Y42.87 F800.0
G01 X58.97 Y44.28 F800.0
G01 X59.62 Y44.7 F800.0
G01 X59.94 Y45.57 F800.0
G01 X59.79 Y46.0 F800.0
G01 X60.16 Y46.56 F800.0
G01 X60.27 Y46.99 F800.0
G01 X60.65 Y48.39 F800.0
G01 X60.86 Y48.81 F800.0
G01 X61.51 Y50.13 F800.0
G01 X61.49 Y50.16 F800.0
G01 X61.07 Y51.11 F800.0
G01 X60.89 Y51.21 F800.0
G01 X59.81 Y51.74 F800.0
G01 X59.75 Y51.82 F800.0
G01 X59.06 Y52.68 F800.0
G01 X58.89 Y52.67 F800.0
G01 X57.89 Y52.65 F800.0
G01 X55.89 Y52.6 F800.0
G01 X54.89 Y52.57 F800.0
G01 X53.89 Y52.55 F800.0
G01 X52.89 Y52.52 F800.0
G01 X51.89 Y52.5 F800.0
G01 X50.89 Y52.47 F800.0
G01 X49.72 Y52.44 F800.0
G01 X48.99 Y51.94 F800.0
G01 X48.71 Y51.91 F800.0
G01 X47.44 Y51.79 F800.0
G01 X46.79 Y51.92 F800.0
G01 X46.43 Y51.44 F800.0
G01 X45.5 Y51.31 F800.0
G01 X45.32 Y51.23 F800.0
G01 X44.2 Y50.8 F800.0
G01 X44.01 Y50.54 F800.0
G01 X43.95 Y50.53 F800.0
G01 X42.91 Y50.36 F800.0
G01 X42.57 Y50.75 F800.0
G01 X42.1 Y50.7 F800.0
G01 X41.96 Y50.62 F800.0
G01 X40.97 Y50.02 F800.0
G01 X40.43 Y50.21 F800.0
G01 X39.95 Y49.88 F800.0
G01 X39.8 Y50.27 F800.0
G01 X38.94 Y50.46 F800.0
G01 X38.53 Y50.41 F800.0
G01 X38.14 Y50.66 F800.0
G01 X37.28 Y50.33 F800.0
G01 X36.89 Y50.47 F800.0
G01 X36.45 Y50.35 F800.0
G01 X36.18 Y50.0 F800.0
G01 X35.92 Y49.89 F800.0
G01 X34.74 Y49.41 F800.0
G01 X34.67 Y49.43 F800.0
G01 X33.71 Y49.73 F800.0
G01 X32.68 Y50.06 F800.0
G01 X32.66 Y50.36 F800.0
G01 X32.57 Y51.66 F800.0
G01 X32.52 Y51.8 F800.0
G01 X32.12 Y52.87 F800.0
G01 X31.89 Y53.03 F800.0
G01 X30.83 Y53.75 F800.0
G01 X30.8 Y53.74 F800.0
G01 X29.81 Y53.45 F800.0
G01 X29.7 Y53.6 F800.0
G01 X29.73 Y54.01 F800.0
G01 X29.33 Y54.27 F800.0
G01 F800.0
M5
;END perimeter

G00 X0 Y0

M5  ;Deactivate laser and set power to 0 (CUSTOM)
M2 ;End of program
