
;Inkscape Lasertools G-code
;https://github.com/ChrisWag91/Inkscape-Lasertools-Plugin

G90	;Absolute programming
G21	;Programming in millimeters (mm)
M03 S1 ;Activate laser and set power to 0 (CUSTOM)

; START infill strategy
G01 F800.0
G00 X69.69 Y8.8 F1500.0
M4 S500
G01 Y8.22 F800.0
M5
G00 X69.89 Y8.74 F1500.0
M4 S500
G01 Y9.01 F800.0
M5
G00 X70.09 Y8.9 F1500.0
M4 S500
G01 Y9.13 F800.0
M5
G00 X70.29 Y9.19 F1500.0
M4 S500
G01 Y8.99 F800.0
M5
G00 X70.49 Y9.01 F1500.0
M4 S500
G01 Y9.21 F800.0
M5
G00 X70.69 Y9.21 F1500.0
M4 S500
G01 Y9.01 F800.0
M5
G00 X70.89 Y9.01 F1500.0
M4 S500
G01 Y9.21 F800.0
M5
G00 X71.09 Y9.21 F1500.0
M4 S500
G01 Y9.01 F800.0
M5
G00 X71.29 Y9.01 F1500.0
M4 S500
G01 Y9.21 F800.0
M5
G00 X71.49 Y9.21 F1500.0
M4 S500
G01 Y9.01 F800.0
M5
G00 X71.69 Y9.01 F1500.0
M4 S500
G01 Y9.21 F800.0
M5
G00 X71.89 Y9.21 F1500.0
M4 S500
G01 Y9.01 F800.0
M5
G00 X72.09 Y9.01 F1500.0
M4 S500
G01 Y9.21 F800.0
M5
G00 X72.29 Y9.21 F1500.0
M4 S500
G01 Y9.01 F800.0
M5
G00 X72.49 Y9.01 F1500.0
M4 S500
G01 Y9.21 F800.0
M5
G00 X72.69 Y9.21 F1500.0
M4 S500
G01 Y9.01 F800.0
M5
G00 X72.89 Y9.01 F1500.0
M4 S500
G01 Y9.21 F800.0
M5
G00 X73.09 Y9.21 F1500.0
M4 S500
G01 Y9.01 F800.0
M5
G00 X73.29 Y9.01 F1500.0
M4 S500
G01 Y9.21 F800.0
M5
G00 X73.49 Y9.21 F1500.0
M4 S500
G01 Y9.01 F800.0
M5
G00 X73.69 Y9.01 F1500.0
M4 S500
G01 Y9.21 F800.0
M5
G00 X73.89 Y9.21 F1500.0
M4 S500
G01 Y9.01 F800.0
M5
G00 X74.09 Y9.01 F1500.0
M4 S500
G01 Y9.21 F800.0
M5
G00 X74.29 Y9.21 F1500.0
M4 S500
G01 Y9.01 F800.0
M5
G00 X74.49 Y9.01 F1500.0
M4 S500
G01 Y9.21 F800.0
M5
G00 X74.69 Y9.21 F1500.0
M4 S500
G01 Y9.01 F800.0
M5
G00 X74.89 Y9.01 F1500.0
M4 S500
G01 Y9.21 F800.0
M5
G00 X75.09 Y9.21 F1500.0
M4 S500
G01 Y9.01 F800.0
M5
G00 X75.29 Y9.01 F1500.0
M4 S500
G01 Y9.21 F800.0
M5
G00 X75.49 Y9.21 F1500.0
M4 S500
G01 Y9.01 F800.0
M5
G00 X75.69 Y9.01 F1500.0
M4 S500
G01 Y9.21 F800.0
M5
G00 X75.89 Y9.21 F1500.0
M4 S500
G01 Y9.01 F800.0
M5
G00 X76.09 Y9.01 F1500.0
M4 S500
G01 Y9.21 F800.0
M5
G00 X76.29 Y9.21 F1500.0
M4 S500
G01 Y9.01 F800.0
M5
G00 X76.49 Y9.01 F1500.0
M4 S500
G01 Y9.21 F800.0
M5
G00 X76.69 Y9.21 F1500.0
M4 S500
G01 Y9.01 F800.0
M5
G00 X76.89 Y9.01 F1500.0
M4 S500
G01 Y9.21 F800.0
M5
G00 X77.09 Y9.21 F1500.0
M4 S500
G01 Y9.01 F800.0
M5
G00 X77.29 Y9.01 F1500.0
M4 S500
G01 Y9.21 F800.0
M5
G00 X77.49 Y9.21 F1500.0
M4 S500
G01 Y9.01 F800.0
M5
G00 X77.69 Y9.01 F1500.0
M4 S500
G01 Y9.21 F800.0
M5
G00 X77.89 Y9.21 F1500.0
M4 S500
G01 Y9.01 F800.0
M5
G00 X78.09 Y9.01 F1500.0
M4 S500
G01 Y9.21 F800.0
M5
G00 X78.29 Y9.21 F1500.0
M4 S500
G01 Y9.01 F800.0
M5
G00 X78.49 Y9.01 F1500.0
M4 S500
G01 Y9.21 F800.0
M5
G00 X78.69 Y9.21 F1500.0
M4 S500
G01 Y9.01 F800.0
M5
G00 X78.89 Y9.01 F1500.0
M4 S500
G01 Y9.21 F800.0
M5
G00 X79.09 Y9.21 F1500.0
M4 S500
G01 Y9.01 F800.0
M5
G00 X79.29 Y9.01 F1500.0
M4 S500
G01 Y9.21 F800.0
M5
G00 X79.49 Y9.21 F1500.0
M4 S500
G01 Y9.01 F800.0
M5
G00 X79.69 Y9.01 F1500.0
M4 S500
G01 Y9.21 F800.0
M5
G00 X79.89 Y9.21 F1500.0
M4 S500
G01 Y9.01 F800.0
M5
G00 X80.09 Y9.01 F1500.0
M4 S500
G01 Y9.21 F800.0
M5
G00 X80.29 Y9.21 F1500.0
M4 S500
G01 Y9.01 F800.0
M5
G00 X80.49 Y9.01 F1500.0
M4 S500
G01 Y9.21 F800.0
M5
G00 X80.69 Y9.19 F1500.0
M4 S500
G01 Y8.99 F800.0
M5
G00 X80.89 Y8.9 F1500.0
M4 S500
G01 Y9.13 F800.0
M5
G00 X81.09 Y9.01 F1500.0
M4 S500
G01 Y8.73 F800.0
M5
G00 X81.29 Y8.8 F1500.0
M4 S500
G01 Y3.41 F800.0
M5
G00 X81.09 Y3.48 F1500.0
M4 S500
G01 Y3.2 F800.0
M5
G00 X80.89 Y3.31 F1500.0
M4 S500
G01 Y3.08 F800.0
M5
G00 X80.69 Y3.02 F1500.0
M4 S500
G01 Y3.22 F800.0
M5
G00 X70.29 Y3.22 F1500.0
M4 S500
G01 Y3.02 F800.0
M5
G00 X70.09 Y3.08 F1500.0
M4 S500
G01 Y3.3 F800.0
M5
G00 X69.89 Y3.2 F1500.0
M4 S500
G01 Y3.48 F800.0
M5
G00 X69.69 Y3.41 F1500.0
M4 S500
G01 Y3.99 F800.0
M5
M5
;END infill

; START infill strategy
G01 F800.0
G00 X79.64 Y4.92 F1500.0
M4 S500
G01 Y4.41 F800.0
M5
G00 X80.84 Y4.26 F1500.0
M4 S500
G01 Y3.82 F800.0
M5
M5
;END infill

; START infill strategy
G01 F800.0
G00 X77.85 Y5.07 F1500.0
M4 S500
G01 Y3.61 F800.0
M5
G00 X78.85 Y3.77 F1500.0
M4 S500
G01 Y4.01 F800.0
M5
G00 X78.65 Y4. F1500.0
M4 S500
G01 Y4.24 F800.0
M5
G00 X78.45 Y4.22 F1500.0
M4 S500
G01 Y4.47 F800.0
M5
G00 X78.25 Y4.45 F1500.0
M4 S500
G01 Y4.7 F800.0
M5
G00 X78.05 Y4.68 F1500.0
M4 S500
G01 Y4.94 F800.0
M5
G00 X79.05 Y5.07 F1500.0
M4 S500
G01 Y3.61 F800.0
M5
M5
;END infill

; START infill strategy
G01 F800.0
G00 X75.95 Y4.83 F1500.0
M4 S500
G01 Y4.45 F800.0
M5
G00 X75.95 Y4.22 F1500.0
M4 S500
G01 Y3.84 F800.0
M5
G00 X77.15 Y3.72 F1500.0
M4 S500
G01 Y4.32 F800.0
M5
M5
;END infill

; START infill strategy
G01 F800.0
G00 X75.35 Y5.07 F1500.0
M4 S500
G01 Y3.61 F800.0
M5
M5
;END infill

; START infill strategy
G01 F800.0
G00 X73.61 Y4.92 F1500.0
M4 S500
G01 Y4.41 F800.0
M5
G00 X74.81 Y4.26 F1500.0
M4 S500
G01 Y3.82 F800.0
M5
M5
;END infill

; START infill strategy
G01 F800.0
G00 X72.09 Y5.07 F1500.0
M4 S500
G01 Y3.61 F800.0
M5
M5
;END infill

; START infill strategy
G01 F800.0
G00 X70.26 Y5.07 F1500.0
M4 S500
G01 Y3.61 F800.0
M5
G00 X71.46 Y3.88 F1500.0
M4 S500
G01 Y4.8 F800.0
M5
M5
;END infill

; START infill strategy
G01 F800.0
G00 X77.61 Y8.67 F1500.0
M4 S500
G01 Y5.49 F800.0
M5
G00 X77.81 Y5.49 F1500.0
M4 S500
G01 Y8.67 F800.0
M5
G00 X78.01 Y8.67 F1500.0
M4 S500
G01 Y5.49 F800.0
M5
G00 X78.21 Y5.49 F1500.0
M4 S500
G01 Y8.67 F800.0
M5
G00 X78.41 Y7.4 F1500.0
M4 S500
G01 Y6.88 F800.0
M5
G00 X78.61 Y6.88 F1500.0
M4 S500
G01 Y7.4 F800.0
M5
G00 X78.81 Y7.4 F1500.0
M4 S500
G01 Y6.88 F800.0
M5
G00 X79.01 Y6.88 F1500.0
M4 S500
G01 Y7.4 F800.0
M5
G00 X79.21 Y7.4 F1500.0
M4 S500
G01 Y6.88 F800.0
M5
G00 X79.41 Y6.88 F1500.0
M4 S500
G01 Y7.4 F800.0
M5
G00 X79.61 Y7.4 F1500.0
M4 S500
G01 Y6.88 F800.0
M5
G00 X79.81 Y6.88 F1500.0
M4 S500
G01 Y7.4 F800.0
M5
G00 X80.01 Y7.4 F1500.0
M4 S500
G01 Y6.88 F800.0
M5
G00 X80.21 Y5.49 F1500.0
M4 S500
G01 Y8.67 F800.0
M5
G00 X80.41 Y8.67 F1500.0
M4 S500
G01 Y5.49 F800.0
M5
G00 X80.61 Y5.49 F1500.0
M4 S500
G01 Y8.67 F800.0
M5
M5
;END infill

; START infill strategy
G01 F800.0
G00 X74.25 Y8.67 F1500.0
M4 S500
G01 Y5.49 F800.0
M5
G00 X74.45 Y5.49 F1500.0
M4 S500
G01 Y8.67 F800.0
M5
G00 X74.65 Y8.67 F1500.0
M4 S500
G01 Y5.49 F800.0
M5
G00 X74.85 Y5.49 F1500.0
M4 S500
G01 Y8.67 F800.0
M5
G00 X75.05 Y6.02 F1500.0
M4 S500
G01 Y5.49 F800.0
M5
G00 X75.25 Y5.49 F1500.0
M4 S500
G01 Y6.02 F800.0
M5
G00 X75.45 Y6.02 F1500.0
M4 S500
G01 Y5.49 F800.0
M5
G00 X75.65 Y5.49 F1500.0
M4 S500
G01 Y6.02 F800.0
M5
G00 X75.85 Y6.02 F1500.0
M4 S500
G01 Y5.49 F800.0
M5
G00 X76.05 Y5.49 F1500.0
M4 S500
G01 Y6.02 F800.0
M5
G00 X76.25 Y6.02 F1500.0
M4 S500
G01 Y5.49 F800.0
M5
G00 X76.45 Y5.49 F1500.0
M4 S500
G01 Y6.02 F800.0
M5
G00 X76.65 Y6.02 F1500.0
M4 S500
G01 Y5.49 F800.0
M5
G00 X76.85 Y5.49 F1500.0
M4 S500
G01 Y6.02 F800.0
M5
G00 X77.05 Y6.17 F1500.0
M4 S500
G01 Y5.35 F800.0
M5
M5
;END infill

; START infill strategy
G01 F800.0
G00 X70.26 Y8.67 F1500.0
M4 S500
G01 Y5.49 F800.0
M5
G00 X70.46 Y5.49 F1500.0
M4 S500
G01 Y8.67 F800.0
M5
G00 X70.66 Y8.67 F1500.0
M4 S500
G01 Y5.49 F800.0
M5
G00 X70.86 Y5.49 F1500.0
M4 S500
G01 Y8.67 F800.0
M5
G00 X71.06 Y8.67 F1500.0
M4 S500
G01 Y8.15 F800.0
M5
G00 X71.26 Y8.15 F1500.0
M4 S500
G01 Y8.67 F800.0
M5
G00 X71.46 Y8.67 F1500.0
M4 S500
G01 Y8.15 F800.0
M5
G00 X71.66 Y8.15 F1500.0
M4 S500
G01 Y8.67 F800.0
M5
G00 X71.86 Y8.67 F1500.0
M4 S500
G01 Y8.14 F800.0
M5
G00 X72.06 Y8.13 F1500.0
M4 S500
G01 Y8.65 F800.0
M5
G00 X72.26 Y8.64 F1500.0
M4 S500
G01 Y8.08 F800.0
M5
G00 X72.46 Y7.99 F1500.0
M4 S500
G01 Y8.6 F800.0
M5
G00 X72.66 Y8.55 F1500.0
M4 S500
G01 Y7.78 F800.0
M5
G00 X72.86 Y8.46 F1500.0
M4 S500
G01 Y5.71 F800.0
M5
G00 X72.66 Y5.62 F1500.0
M4 S500
G01 Y6.39 F800.0
M5
G00 X72.46 Y6.18 F1500.0
M4 S500
G01 Y5.56 F800.0
M5
G00 X72.26 Y5.52 F1500.0
M4 S500
G01 Y6.09 F800.0
M5
G00 X72.06 Y6.04 F1500.0
M4 S500
G01 Y5.51 F800.0
M5
G00 X71.86 Y5.5 F1500.0
M4 S500
G01 Y6.02 F800.0
M5
G00 X71.66 Y6.02 F1500.0
M4 S500
G01 Y5.49 F800.0
M5
G00 X71.46 Y5.49 F1500.0
M4 S500
G01 Y6.02 F800.0
M5
G00 X71.26 Y6.02 F1500.0
M4 S500
G01 Y5.49 F800.0
M5
G00 X71.06 Y5.49 F1500.0
M4 S500
G01 Y6.02 F800.0
M5
G00 X73.06 Y5.85 F1500.0
M4 S500
G01 Y8.32 F800.0
M5
G00 X73.26 Y8.1 F1500.0
M4 S500
G01 Y6.07 F800.0
M5
G00 X73.46 Y6.5 F1500.0
M4 S500
G01 Y7.65 F800.0
M5
M5
;END infill

; START infill strategy
G01 F800.0
G00 X60.87 Y58.54 F1500.0
M4 S500
G01 Y58.31 F800.0
M5
G00 X61.27 Y58.31 F1500.0
M4 S500
G01 Y58.54 F800.0
M5
G00 X61.47 Y58.54 F1500.0
M4 S500
G01 Y58.31 F800.0
M5
G00 X61.47 Y57.44 F1500.0
M4 S500
G01 Y57.21 F800.0
M5
G00 X61.27 Y57.21 F1500.0
M4 S500
G01 Y57.44 F800.0
M5
G00 X61.07 Y57.27 F1500.0
M4 S500
G01 Y58.92 F800.0
M5
G00 X61.67 Y57.62 F1500.0
M4 S500
G01 Y57.27 F800.0
M5
M5
;END infill

; START infill strategy
G01 F800.0
G00 X59.23 Y58.54 F1500.0
M4 S500
G01 Y58.31 F800.0
M5
G00 X59.63 Y58.31 F1500.0
M4 S500
G01 Y58.54 F800.0
M5
G00 X59.63 Y58.78 F1500.0
M4 S500
G01 Y59.03 F800.0
M5
G00 X59.83 Y59.04 F1500.0
M4 S500
G01 Y58.81 F800.0
M5
G00 X59.43 Y58.95 F1500.0
M4 S500
G01 Y57.23 F800.0
M5
M5
;END infill

; START infill strategy
G01 F800.0
G00 X55.76 Y59.04 F1500.0
M4 S500
G01 Y57.21 F800.0
M5
G00 X55.96 Y57.21 F1500.0
M4 S500
G01 Y57.44 F800.0
M5
G00 X56.16 Y57.44 F1500.0
M4 S500
G01 Y57.21 F800.0
M5
G00 X56.36 Y57.21 F1500.0
M4 S500
G01 Y57.44 F800.0
M5
G00 X56.36 Y57.81 F1500.0
M4 S500
G01 Y58.04 F800.0
M5
G00 X56.16 Y58.04 F1500.0
M4 S500
G01 Y57.81 F800.0
M5
G00 X55.96 Y57.81 F1500.0
M4 S500
G01 Y58.04 F800.0
M5
G00 X56.56 Y58.04 F1500.0
M4 S500
G01 Y57.21 F800.0
M5
M5
;END infill

; START infill strategy
G01 F800.0
G00 X54.04 Y59.04 F1500.0
M4 S500
G01 Y58.81 F800.0
M5
G00 X54.24 Y58.81 F1500.0
M4 S500
G01 Y59.04 F800.0
M5
G00 X54.44 Y59.04 F1500.0
M4 S500
G01 Y58.81 F800.0
M5
G00 X54.64 Y58.81 F1500.0
M4 S500
G01 Y59.04 F800.0
M5
G00 X54.84 Y59.03 F1500.0
M4 S500
G01 Y57.22 F800.0
M5
G00 X54.64 Y57.21 F1500.0
M4 S500
G01 Y57.44 F800.0
M5
G00 X54.44 Y57.44 F1500.0
M4 S500
G01 Y57.21 F800.0
M5
G00 X54.24 Y57.21 F1500.0
M4 S500
G01 Y57.44 F800.0
M5
G00 X54.04 Y57.44 F1500.0
M4 S500
G01 Y57.21 F800.0
M5
G00 X54.24 Y58.01 F1500.0
M4 S500
G01 Y58.25 F800.0
M5
G00 X54.44 Y58.25 F1500.0
M4 S500
G01 Y58.01 F800.0
M5
G00 X54.64 Y58.01 F1500.0
M4 S500
G01 Y58.25 F800.0
M5
M5
;END infill

; START infill strategy
G01 F800.0
G00 X52.41 Y59. F1500.0
M4 S500
G01 Y57.81 F800.0
M5
G00 X52.61 Y57.81 F1500.0
M4 S500
G01 Y58.04 F800.0
M5
G00 X52.81 Y58.04 F1500.0
M4 S500
G01 Y57.81 F800.0
M5
G00 X53.01 Y57.22 F1500.0
M4 S500
G01 Y58.84 F800.0
M5
M5
;END infill

; START infill strategy
G01 F800.0
G00 X50.64 Y59.04 F1500.0
M4 S500
G01 Y57.21 F800.0
M5
G00 X50.84 Y57.21 F1500.0
M4 S500
G01 Y57.44 F800.0
M5
G00 X51.04 Y57.44 F1500.0
M4 S500
G01 Y57.21 F800.0
M5
G00 X51.24 Y57.21 F1500.0
M4 S500
G01 Y57.44 F800.0
M5
G00 X51.24 Y57.81 F1500.0
M4 S500
G01 Y58.04 F800.0
M5
G00 X51.04 Y58.04 F1500.0
M4 S500
G01 Y57.81 F800.0
M5
G00 X50.84 Y57.81 F1500.0
M4 S500
G01 Y58.04 F800.0
M5
G00 X51.44 Y58.04 F1500.0
M4 S500
G01 Y57.21 F800.0
M5
M5
;END infill

; START infill strategy
G01 F800.0
G00 X47.38 Y58.42 F1500.0
M4 S500
G01 Y58.63 F800.0
M5
G00 X47.58 Y58.74 F1500.0
M4 S500
G01 Y58.31 F800.0
M5
G00 X47.78 Y58.33 F1500.0
M4 S500
G01 Y58.72 F800.0
M5
G00 X47.78 Y57.92 F1500.0
M4 S500
G01 Y57.53 F800.0
M5
G00 X47.58 Y57.51 F1500.0
M4 S500
G01 Y57.94 F800.0
M5
M5
;END infill

; START infill strategy
G01 F800.0
G00 X45.53 Y58.5 F1500.0
M4 S500
G01 Y57.25 F800.0
M5
G00 X46.33 Y57.23 F1500.0
M4 S500
G01 Y58.46 F800.0
M5
G00 X46.13 Y58.54 F1500.0
M4 S500
G01 Y58.3 F800.0
M5
G00 X45.93 Y58.29 F1500.0
M4 S500
G01 Y58.53 F800.0
M5
G00 X45.73 Y58.45 F1500.0
M4 S500
G01 Y58.18 F800.0
M5
M5
;END infill

; START infill strategy
G01 F800.0
G00 X43.82 Y58.45 F1500.0
M4 S500
G01 Y57.31 F800.0
M5
G00 X44.02 Y57.22 F1500.0
M4 S500
G01 Y57.46 F800.0
M5
G00 X44.22 Y57.44 F1500.0
M4 S500
G01 Y57.21 F800.0
M5
G00 X44.42 Y57.23 F1500.0
M4 S500
G01 Y57.48 F800.0
M5
G00 X44.62 Y57.33 F1500.0
M4 S500
G01 Y58.43 F800.0
M5
G00 X44.42 Y58.53 F1500.0
M4 S500
G01 Y58.28 F800.0
M5
G00 X44.22 Y58.31 F1500.0
M4 S500
G01 Y58.54 F800.0
M5
G00 X44.02 Y58.53 F1500.0
M4 S500
G01 Y58.29 F800.0
M5
M5
;END infill

; START infill strategy
G01 F800.0
G00 X42.23 Y58.54 F1500.0
M4 S500
G01 Y58.31 F800.0
M5
G00 X42.43 Y58.54 F1500.0
M4 S500
G01 Y57.21 F800.0
M5
G00 X42.23 Y57.21 F1500.0
M4 S500
G01 Y57.44 F800.0
M5
G00 X42.63 Y57.44 F1500.0
M4 S500
G01 Y57.21 F800.0
M5
G00 X42.83 Y57.21 F1500.0
M4 S500
G01 Y57.44 F800.0
M5
G00 X42.43 Y58.81 F1500.0
M4 S500
G01 Y59.14 F800.0
M5
M5
;END infill

; START infill strategy
G01 F800.0
G00 X40.41 Y58.54 F1500.0
M4 S500
G01 Y58.31 F800.0
M5
G00 X40.81 Y58.31 F1500.0
M4 S500
G01 Y58.54 F800.0
M5
G00 X41.01 Y58.54 F1500.0
M4 S500
G01 Y58.31 F800.0
M5
G00 X41.01 Y57.44 F1500.0
M4 S500
G01 Y57.21 F800.0
M5
G00 X40.81 Y57.21 F1500.0
M4 S500
G01 Y57.44 F800.0
M5
G00 X40.61 Y57.27 F1500.0
M4 S500
G01 Y58.92 F800.0
M5
G00 X41.21 Y57.62 F1500.0
M4 S500
G01 Y57.27 F800.0
M5
M5
;END infill

; START infill strategy
G01 F800.0
G00 X38.7 Y58.01 F1500.0
M4 S500
G01 Y57.24 F800.0
M5
G00 X38.9 Y57.21 F1500.0
M4 S500
G01 Y57.45 F800.0
M5
G00 X39.1 Y57.45 F1500.0
M4 S500
G01 Y57.21 F800.0
M5
G00 X39.3 Y57.24 F1500.0
M4 S500
G01 Y57.52 F800.0
M5
G00 X39.3 Y57.81 F1500.0
M4 S500
G01 Y58.04 F800.0
M5
G00 X39.1 Y58.04 F1500.0
M4 S500
G01 Y57.81 F800.0
M5
G00 X38.9 Y57.81 F1500.0
M4 S500
G01 Y58.04 F800.0
M5
G00 X38.9 Y58.31 F1500.0
M4 S500
G01 Y58.54 F800.0
M5
G00 X39.1 Y58.54 F1500.0
M4 S500
G01 Y58.31 F800.0
M5
G00 X39.3 Y58.3 F1500.0
M4 S500
G01 Y58.54 F800.0
M5
G00 X39.5 Y58.46 F1500.0
M4 S500
G01 Y57.23 F800.0
M5
M5
;END infill

; START infill strategy
G01 F800.0
G00 X37. Y58.5 F1500.0
M4 S500
G01 Y57.74 F800.0
M5
G00 X37.2 Y57.86 F1500.0
M4 S500
G01 Y57.29 F800.0
M5
G00 X37.4 Y57.21 F1500.0
M4 S500
G01 Y57.49 F800.0
M5
G00 X37.6 Y57.37 F1500.0
M4 S500
G01 Y57.95 F800.0
M5
G00 X37.8 Y57.82 F1500.0
M4 S500
G01 Y58.52 F800.0
M5
M5
;END infill

; START infill strategy
G01 F800.0
G00 X35.3 Y58.45 F1500.0
M4 S500
G01 Y57.3 F800.0
M5
G00 X35.5 Y57.22 F1500.0
M4 S500
G01 Y57.46 F800.0
M5
G00 X35.7 Y57.44 F1500.0
M4 S500
G01 Y57.21 F800.0
M5
G00 X35.9 Y57.21 F1500.0
M4 S500
G01 Y57.44 F800.0
M5
G00 X36.1 Y57.44 F1500.0
M4 S500
G01 Y57.21 F800.0
M5
G00 X36.1 Y57.71 F1500.0
M4 S500
G01 Y58.42 F800.0
M5
G00 X35.9 Y58.53 F1500.0
M4 S500
G01 Y58.28 F800.0
M5
G00 X35.7 Y58.31 F1500.0
M4 S500
G01 Y58.54 F800.0
M5
G00 X35.5 Y58.53 F1500.0
M4 S500
G01 Y58.29 F800.0
M5
G00 X35.5 Y57.94 F1500.0
M4 S500
G01 Y57.71 F800.0
M5
G00 X35.7 Y57.71 F1500.0
M4 S500
G01 Y57.94 F800.0
M5
G00 X35.9 Y57.94 F1500.0
M4 S500
G01 Y57.71 F800.0
M5
M5
;END infill

; START infill strategy
G01 F800.0
G00 X33.71 Y59.04 F1500.0
M4 S500
G01 Y58.81 F800.0
M5
G00 X33.91 Y59.04 F1500.0
M4 S500
G01 Y57.21 F800.0
M5
G00 X34.11 Y57.21 F1500.0
M4 S500
G01 Y57.44 F800.0
M5
G00 X34.31 Y57.44 F1500.0
M4 S500
G01 Y57.21 F800.0
M5
G00 X33.71 Y57.21 F1500.0
M4 S500
G01 Y57.44 F800.0
M5
M5
;END infill

; START infill strategy
G01 F800.0
G00 X31.69 Y57.21 F1500.0
M4 S500
G01 Y59.04 F800.0
M5
G00 X31.89 Y59.04 F1500.0
M4 S500
G01 Y57.21 F800.0
M5
G00 X32.09 Y57.21 F1500.0
M4 S500
G01 Y57.44 F800.0
M5
G00 X32.29 Y57.44 F1500.0
M4 S500
G01 Y57.21 F800.0
M5
G00 X32.49 Y57.21 F1500.0
M4 S500
G01 Y57.44 F800.0
M5
G00 X32.69 Y57.44 F1500.0
M4 S500
G01 Y57.21 F800.0
M5
G00 X32.29 Y58.02 F1500.0
M4 S500
G01 Y58.24 F800.0
M5
G00 X32.09 Y58.24 F1500.0
M4 S500
G01 Y58.01 F800.0
M5
G00 X32.09 Y58.81 F1500.0
M4 S500
G01 Y59.04 F800.0
M5
G00 X32.29 Y59.04 F1500.0
M4 S500
G01 Y58.81 F800.0
M5
G00 X32.49 Y58.81 F1500.0
M4 S500
G01 Y59.04 F800.0
M5
G00 X32.69 Y59.04 F1500.0
M4 S500
G01 Y58.81 F800.0
M5
M5
;END infill

; START infill strategy
G01 F800.0
G00 X28.48 Y59. F1500.0
M4 S500
G01 Y57.25 F800.0
M5
G00 X28.68 Y57.74 F1500.0
M4 S500
G01 Y58.12 F800.0
M5
G00 X28.88 Y57.98 F1500.0
M4 S500
G01 Y58.29 F800.0
M5
G00 X29.08 Y58.15 F1500.0
M4 S500
G01 Y58.46 F800.0
M5
G00 X29.08 Y57.7 F1500.0
M4 S500
G01 Y57.39 F800.0
M5
G00 X29.28 Y57.52 F1500.0
M4 S500
G01 Y57.23 F800.0
M5
G00 X28.88 Y57.56 F1500.0
M4 S500
G01 Y57.87 F800.0
M5
M5
;END infill

; START infill strategy
G01 F800.0
G00 X26.77 Y58.01 F1500.0
M4 S500
G01 Y57.24 F800.0
M5
G00 X26.97 Y57.21 F1500.0
M4 S500
G01 Y57.45 F800.0
M5
G00 X27.17 Y57.45 F1500.0
M4 S500
G01 Y57.21 F800.0
M5
G00 X27.37 Y57.24 F1500.0
M4 S500
G01 Y57.52 F800.0
M5
G00 X27.37 Y57.81 F1500.0
M4 S500
G01 Y58.04 F800.0
M5
G00 X27.17 Y58.04 F1500.0
M4 S500
G01 Y57.81 F800.0
M5
G00 X26.97 Y57.81 F1500.0
M4 S500
G01 Y58.04 F800.0
M5
G00 X26.97 Y58.31 F1500.0
M4 S500
G01 Y58.54 F800.0
M5
G00 X27.17 Y58.54 F1500.0
M4 S500
G01 Y58.31 F800.0
M5
G00 X27.37 Y58.3 F1500.0
M4 S500
G01 Y58.54 F800.0
M5
G00 X27.57 Y58.46 F1500.0
M4 S500
G01 Y57.23 F800.0
M5
M5
;END infill

; START infill strategy
G01 F800.0
G00 X25.07 Y58.45 F1500.0
M4 S500
G01 Y57.3 F800.0
M5
G00 X25.27 Y57.22 F1500.0
M4 S500
G01 Y57.46 F800.0
M5
G00 X25.47 Y57.44 F1500.0
M4 S500
G01 Y57.21 F800.0
M5
G00 X25.67 Y57.21 F1500.0
M4 S500
G01 Y57.44 F800.0
M5
G00 X25.87 Y57.44 F1500.0
M4 S500
G01 Y57.21 F800.0
M5
G00 X25.87 Y57.71 F1500.0
M4 S500
G01 Y58.42 F800.0
M5
G00 X25.67 Y58.53 F1500.0
M4 S500
G01 Y58.28 F800.0
M5
G00 X25.47 Y58.31 F1500.0
M4 S500
G01 Y58.54 F800.0
M5
G00 X25.27 Y58.53 F1500.0
M4 S500
G01 Y58.29 F800.0
M5
G00 X25.27 Y57.94 F1500.0
M4 S500
G01 Y57.71 F800.0
M5
G00 X25.47 Y57.71 F1500.0
M4 S500
G01 Y57.94 F800.0
M5
G00 X25.67 Y57.94 F1500.0
M4 S500
G01 Y57.71 F800.0
M5
M5
;END infill

; START infill strategy
G01 F800.0
G00 X23.37 Y59.04 F1500.0
M4 S500
G01 Y57.25 F800.0
M5
G00 X23.57 Y57.91 F1500.0
M4 S500
G01 Y58.14 F800.0
M5
G00 X23.77 Y58.14 F1500.0
M4 S500
G01 Y57.91 F800.0
M5
G00 X23.97 Y57.91 F1500.0
M4 S500
G01 Y58.14 F800.0
M5
G00 X24.17 Y57.97 F1500.0
M4 S500
G01 Y58.98 F800.0
M5
G00 X23.97 Y59.04 F1500.0
M4 S500
G01 Y58.81 F800.0
M5
G00 X23.77 Y58.81 F1500.0
M4 S500
G01 Y59.04 F800.0
M5
G00 X23.57 Y59.04 F1500.0
M4 S500
G01 Y58.81 F800.0
M5
M5
;END infill

; START infill strategy
G01 F800.0
G00 X57.51 Y20.75 F1500.0
M4 S500
G01 Y20.53 F800.0
M5
G00 X57.71 Y20.55 F1500.0
M4 S500
G01 Y21.44 F800.0
M5
G00 X58.11 Y21.9 F1500.0
M4 S500
G01 Y20.62 F800.0
M5
M5
;END infill

; START infill strategy
G01 F800.0
G00 X54.95 Y21.91 F1500.0
M4 S500
G01 Y21.29 F800.0
M5
G00 X55.35 Y21.43 F1500.0
M4 S500
G01 Y21.91 F800.0
M5
G00 X55.55 Y21.91 F1500.0
M4 S500
G01 Y21.42 F800.0
M5
M5
;END infill

; START infill strategy
G01 F800.0
G00 X53.67 Y21.88 F1500.0
M4 S500
G01 Y21.14 F800.0
M5
G00 X54.07 Y21.14 F1500.0
M4 S500
G01 Y21.91 F800.0
M5
G00 X54.27 Y21.27 F1500.0
M4 S500
G01 Y20.58 F800.0
M5
M5
;END infill

; START infill strategy
G01 F800.0
G00 X52.99 Y20.57 F1500.0
M4 S500
G01 Y21.87 F800.0
M5
M5
;END infill

; START infill strategy
G01 F800.0
G00 X50.1 Y21.91 F1500.0
M4 S500
G01 Y21.29 F800.0
M5
M5
;END infill

; START infill strategy
G01 F800.0
G00 X48.55 Y21.88 F1500.0
M4 S500
G01 Y21.14 F800.0
M5
G00 X48.95 Y21.14 F1500.0
M4 S500
G01 Y21.91 F800.0
M5
G00 X49.15 Y21.27 F1500.0
M4 S500
G01 Y20.58 F800.0
M5
M5
;END infill

; START infill strategy
G01 F800.0
G00 X47.88 Y20.57 F1500.0
M4 S500
G01 Y21.87 F800.0
M5
M5
;END infill

; START infill strategy
G01 F800.0
G00 X44.77 Y21.87 F1500.0
M4 S500
G01 Y21.64 F800.0
M5
G00 X44.77 Y21.39 F1500.0
M4 S500
G01 Y21.16 F800.0
M5
G00 X45.17 Y21.17 F1500.0
M4 S500
G01 Y21.41 F800.0
M5
G00 X45.17 Y21.62 F1500.0
M4 S500
G01 Y21.86 F800.0
M5
M5
;END infill

; START infill strategy
G01 F800.0
G00 X43.64 Y20.54 F1500.0
M4 S500
G01 Y21.91 F800.0
M5
G00 X44.04 Y21.15 F1500.0
M4 S500
G01 Y20.54 F800.0
M5
M5
;END infill

; START infill strategy
G01 F800.0
G00 X42.76 Y21.17 F1500.0
M4 S500
G01 Y21.87 F800.0
M5
M5
;END infill

; START infill strategy
G01 F800.0
G00 X41.08 Y20.54 F1500.0
M4 S500
G01 Y21.91 F800.0
M5
G00 X41.48 Y21.15 F1500.0
M4 S500
G01 Y20.54 F800.0
M5
M5
;END infill

; START infill strategy
G01 F800.0
G00 X38.6 Y21.68 F1500.0
M4 S500
G01 Y21.36 F800.0
M5
G00 X38.6 Y21.08 F1500.0
M4 S500
G01 Y20.76 F800.0
M5
M5
;END infill

; START infill strategy
G01 F800.0
G00 X37.05 Y21.49 F1500.0
M4 S500
G01 Y21.26 F800.0
M5
G00 X37.05 Y20.81 F1500.0
M4 S500
G01 Y20.57 F800.0
M5
G00 X37.65 Y20.91 F1500.0
M4 S500
G01 Y21.4 F800.0
M5
M5
;END infill

; START infill strategy
G01 F800.0
G00 X35.77 Y21.49 F1500.0
M4 S500
G01 Y21.27 F800.0
M5
G00 X36.17 Y21.27 F1500.0
M4 S500
G01 Y21.49 F800.0
M5
G00 X36.37 Y21.9 F1500.0
M4 S500
G01 Y20.54 F800.0
M5
G00 X36.17 Y20.58 F1500.0
M4 S500
G01 Y20.8 F800.0
M5
G00 X35.77 Y20.8 F1500.0
M4 S500
G01 Y20.57 F800.0
M5
M5
;END infill

; START infill strategy
G01 F800.0
G00 X34.5 Y20.79 F1500.0
M4 S500
G01 Y20.55 F800.0
M5
G00 X34.9 Y20.62 F1500.0
M4 S500
G01 Y20.83 F800.0
M5
G00 X35.1 Y20.54 F1500.0
M4 S500
G01 Y21.53 F800.0
M5
M5
;END infill

; START infill strategy
G01 F800.0
G00 X33.22 Y21.8 F1500.0
M4 S500
G01 Y20.69 F800.0
M5
G00 X33.82 Y20.61 F1500.0
M4 S500
G01 Y20.85 F800.0
M5
M5
;END infill

; START infill strategy
G01 F800.0
G00 X32.23 Y20.54 F1500.0
M4 S500
G01 Y21.51 F800.0
M5
G00 X32.23 Y21.75 F1500.0
M4 S500
G01 Y21.96 F800.0
M5
M5
;END infill

; START infill strategy
G01 F800.0
G00 X30.66 Y21.5 F1500.0
M4 S500
G01 Y21.28 F800.0
M5
G00 X30.66 Y20.87 F1500.0
M4 S500
G01 Y20.65 F800.0
M5
G00 X31.06 Y20.66 F1500.0
M4 S500
G01 Y20.88 F800.0
M5
G00 X31.06 Y21.26 F1500.0
M4 S500
G01 Y21.49 F800.0
M5
G00 X31.26 Y21.52 F1500.0
M4 S500
G01 Y20.3 F800.0
M5
M5
;END infill

; START infill strategy
G01 F800.0
G00 X29.38 Y21.4 F1500.0
M4 S500
G01 Y21.19 F800.0
M5
G00 X29.98 Y21.42 F1500.0
M4 S500
G01 Y20.54 F800.0
M5
M5
;END infill

; START infill strategy
G01 F800.0
G00 X28.1 Y21.5 F1500.0
M4 S500
G01 Y21.27 F800.0
M5
G00 X28.1 Y20.8 F1500.0
M4 S500
G01 Y20.57 F800.0
M5
G00 X28.7 Y20.68 F1500.0
M4 S500
G01 Y21.39 F800.0
M5
M5
;END infill

; START infill strategy
G01 F800.0
G00 X26.63 Y20.53 F1500.0
M4 S500
G01 Y21.82 F800.0
M5
M5
;END infill

; START infill strategy
G01 F800.0
G00 X57.51 Y24.55 F1500.0
M4 S500
G01 Y24.18 F800.0
M5
G00 X57.71 Y24.17 F1500.0
M4 S500
G01 Y23.73 F800.0
M5
G00 X57.91 Y23.71 F1500.0
M4 S500
G01 Y23.27 F800.0
M5
G00 X58.11 Y23.18 F1500.0
M4 S500
G01 Y24.55 F800.0
M5
M5
;END infill

; START infill strategy
G01 F800.0
G00 X54.95 Y24.56 F1500.0
M4 S500
G01 Y23.94 F800.0
M5
G00 X55.35 Y24.07 F1500.0
M4 S500
G01 Y24.56 F800.0
M5
G00 X55.55 Y24.56 F1500.0
M4 S500
G01 Y24.07 F800.0
M5
M5
;END infill

; START infill strategy
G01 F800.0
G00 X54.28 Y23.19 F1500.0
M4 S500
G01 Y24.55 F800.0
M5
M5
;END infill

; START infill strategy
G01 F800.0
G00 X52.42 Y24.55 F1500.0
M4 S500
G01 Y23.78 F800.0
M5
G00 X53.02 Y23.91 F1500.0
M4 S500
G01 Y23.22 F800.0
M5
M5
;END infill

; START infill strategy
G01 F800.0
G00 X50.1 Y24.55 F1500.0
M4 S500
G01 Y23.94 F800.0
M5
M5
;END infill

; START infill strategy
G01 F800.0
G00 X49.15 Y23.22 F1500.0
M4 S500
G01 Y24.51 F800.0
M5
M5
;END infill

; START infill strategy
G01 F800.0
G00 X47.87 Y23.82 F1500.0
M4 S500
G01 Y24.51 F800.0
M5
M5
;END infill

; START infill strategy
G01 F800.0
G00 X44.77 Y24.52 F1500.0
M4 S500
G01 Y24.29 F800.0
M5
G00 X44.77 Y24.04 F1500.0
M4 S500
G01 Y23.81 F800.0
M5
G00 X45.17 Y23.81 F1500.0
M4 S500
G01 Y24.05 F800.0
M5
G00 X45.17 Y24.27 F1500.0
M4 S500
G01 Y24.51 F800.0
M5
M5
;END infill

; START infill strategy
G01 F800.0
G00 X43.89 Y24.4 F1500.0
M4 S500
G01 Y23.19 F800.0
M5
M5
;END infill

; START infill strategy
G01 F800.0
G00 X42.61 Y24.4 F1500.0
M4 S500
G01 Y23.19 F800.0
M5
M5
;END infill

; START infill strategy
G01 F800.0
G00 X38.6 Y24.33 F1500.0
M4 S500
G01 Y24.0 F800.0
M5
G00 X38.6 Y23.73 F1500.0
M4 S500
G01 Y23.4 F800.0
M5
M5
;END infill

; START infill strategy
G01 F800.0
G00 X35.77 Y24.13 F1500.0
M4 S500
G01 Y23.91 F800.0
M5
G00 X35.77 Y23.45 F1500.0
M4 S500
G01 Y23.22 F800.0
M5
G00 X36.37 Y23.56 F1500.0
M4 S500
G01 Y24.04 F800.0
M5
M5
;END infill

; START infill strategy
G01 F800.0
G00 X34.49 Y24.14 F1500.0
M4 S500
G01 Y23.91 F800.0
M5
G00 X34.89 Y23.91 F1500.0
M4 S500
G01 Y24.13 F800.0
M5
G00 X35.09 Y24.55 F1500.0
M4 S500
G01 Y23.18 F800.0
M5
G00 X34.89 Y23.23 F1500.0
M4 S500
G01 Y23.44 F800.0
M5
G00 X34.49 Y23.45 F1500.0
M4 S500
G01 Y23.22 F800.0
M5
M5
;END infill

; START infill strategy
G01 F800.0
G00 X33.22 Y23.44 F1500.0
M4 S500
G01 Y23.2 F800.0
M5
G00 X33.62 Y23.27 F1500.0
M4 S500
G01 Y23.48 F800.0
M5
G00 X33.82 Y23.19 F1500.0
M4 S500
G01 Y24.17 F800.0
M5
M5
;END infill

; START infill strategy
G01 F800.0
G00 X31.94 Y24.45 F1500.0
M4 S500
G01 Y23.33 F800.0
M5
G00 X32.54 Y23.26 F1500.0
M4 S500
G01 Y23.5 F800.0
M5
M5
;END infill

; START infill strategy
G01 F800.0
G00 X30.95 Y23.18 F1500.0
M4 S500
G01 Y24.16 F800.0
M5
G00 X30.95 Y24.4 F1500.0
M4 S500
G01 Y24.61 F800.0
M5
M5
;END infill

; START infill strategy
G01 F800.0
G00 X29.38 Y24.45 F1500.0
M4 S500
G01 Y23.33 F800.0
M5
G00 X29.98 Y23.26 F1500.0
M4 S500
G01 Y23.5 F800.0
M5
M5
;END infill

; START infill strategy
G01 F800.0
G00 X28.5 Y23.41 F1500.0
M4 S500
G01 Y23.21 F800.0
M5
G00 X28.7 Y23.18 F1500.0
M4 S500
G01 Y24.07 F800.0
M5
M5
;END infill

; START infill strategy
G01 F800.0
G00 X26.63 Y23.18 F1500.0
M4 S500
G01 Y24.47 F800.0
M5
M5
;END infill

; START infill strategy
G01 F800.0
M5
;END infill

; START infill strategy
G01 F800.0
G00 X37.62 Y41.92 F1500.0
M4 S500
G01 Y41.7 F800.0
M5
G00 X37.82 Y41.5 F1500.0
M4 S500
G01 Y41.95 F800.0
M5
G00 X38.02 Y41.98 F1500.0
M4 S500
G01 Y40.87 F800.0
M5
G00 X38.22 Y40.97 F1500.0
M4 S500
G01 Y42.25 F800.0
M5
G00 X38.62 Y42.15 F1500.0
M4 S500
G01 Y40.95 F800.0
M5
G00 X38.42 Y41.05 F1500.0
M4 S500
G01 Y42.56 F800.0
M5
G00 X38.82 Y41.98 F1500.0
M4 S500
G01 Y40.84 F800.0
M5
G00 X39.02 Y41.55 F1500.0
M4 S500
G01 Y41.95 F800.0
M5
M5
;END infill

; START infill strategy
G01 F800.0
G00 X64.02 Y64.28 F1500.0
M4 S500
G01 Y62.35 F800.0
M5
G00 X64.22 Y62.03 F1500.0
M4 S500
G01 Y64.64 F800.0
M5
G00 X64.42 Y64.88 F1500.0
M4 S500
G01 Y61.8 F800.0
M5
G00 X64.62 Y61.64 F1500.0
M4 S500
G01 Y65.05 F800.0
M5
G00 X64.82 Y65.2 F1500.0
M4 S500
G01 Y64.35 F800.0
M5
G00 X65.02 Y64.74 F1500.0
M4 S500
G01 Y65.3 F800.0
M5
G00 X65.22 Y65.38 F1500.0
M4 S500
G01 Y64.91 F800.0
M5
G00 X65.42 Y64.99 F1500.0
M4 S500
G01 Y65.44 F800.0
M5
G00 X65.62 Y65.47 F1500.0
M4 S500
G01 Y65.02 F800.0
M5
G00 X65.82 Y65. F1500.0
M4 S500
G01 Y65.49 F800.0
M5
G00 X66.02 Y65.49 F1500.0
M4 S500
G01 Y64.95 F800.0
M5
G00 X66.22 Y64.82 F1500.0
M4 S500
G01 Y65.46 F800.0
M5
G00 X66.42 Y65.41 F1500.0
M4 S500
G01 Y64.57 F800.0
M5
G00 X66.42 Y64.14 F1500.0
M4 S500
G01 Y63.6 F800.0
M5
G00 X66.62 Y63.66 F1500.0
M4 S500
G01 Y65.32 F800.0
M5
G00 X66.82 Y65.2 F1500.0
M4 S500
G01 Y63.72 F800.0
M5
G00 X67.02 Y63.78 F1500.0
M4 S500
G01 Y65.05 F800.0
M5
G00 X67.22 Y64.83 F1500.0
M4 S500
G01 Y63.84 F800.0
M5
G00 X67.42 Y63.92 F1500.0
M4 S500
G01 Y64.47 F800.0
M5
G00 X67.62 Y64.32 F1500.0
M4 S500
G01 Y64.07 F800.0
M5
G00 X66.22 Y63.99 F1500.0
M4 S500
G01 Y63.54 F800.0
M5
G00 X66.02 Y63.48 F1500.0
M4 S500
G01 Y63.92 F800.0
M5
G00 X65.82 Y63.86 F1500.0
M4 S500
G01 Y63.42 F800.0
M5
G00 X65.62 Y63.37 F1500.0
M4 S500
G01 Y63.8 F800.0
M5
G00 X65.42 Y63.74 F1500.0
M4 S500
G01 Y63.31 F800.0
M5
G00 X65.22 Y63.25 F1500.0
M4 S500
G01 Y63.68 F800.0
M5
G00 X65.02 Y63.62 F1500.0
M4 S500
G01 Y63.19 F800.0
M5
G00 X64.82 Y63.13 F1500.0
M4 S500
G01 Y63.56 F800.0
M5
G00 X64.82 Y62.95 F1500.0
M4 S500
G01 Y61.53 F800.0
M5
G00 X65.02 Y61.43 F1500.0
M4 S500
G01 Y62.45 F800.0
M5
G00 X65.22 Y62.19 F1500.0
M4 S500
G01 Y61.38 F800.0
M5
G00 X65.42 Y61.34 F1500.0
M4 S500
G01 Y62.04 F800.0
M5
G00 X65.62 Y61.95 F1500.0
M4 S500
G01 Y61.32 F800.0
M5
G00 X65.82 Y61.33 F1500.0
M4 S500
G01 Y61.9 F800.0
M5
G00 X66.02 Y61.89 F1500.0
M4 S500
G01 Y61.34 F800.0
M5
G00 X66.22 Y61.37 F1500.0
M4 S500
G01 Y61.9 F800.0
M5
G00 X66.42 Y61.93 F1500.0
M4 S500
G01 Y61.41 F800.0
M5
G00 X66.62 Y61.48 F1500.0
M4 S500
G01 Y61.98 F800.0
M5
G00 X66.82 Y62.05 F1500.0
M4 S500
G01 Y61.55 F800.0
M5
G00 X67.02 Y61.65 F1500.0
M4 S500
G01 Y62.13 F800.0
M5
G00 X67.22 Y62.23 F1500.0
M4 S500
G01 Y61.76 F800.0
M5
G00 X67.42 Y61.89 F1500.0
M4 S500
G01 Y62.33 F800.0
M5
G00 X67.62 Y62.39 F1500.0
M4 S500
G01 Y62.07 F800.0
M5
M5
;END infill

; START infill strategy
G01 F800.0
G00 X60.42 Y65.36 F1500.0
M4 S500
G01 Y64.9 F800.0
M5
G00 X60.62 Y64.81 F1500.0
M4 S500
G01 Y65.5 F800.0
M5
G00 X60.82 Y65.68 F1500.0
M4 S500
G01 Y61.91 F800.0
M5
G00 X61.02 Y61.57 F1500.0
M4 S500
G01 Y65.91 F800.0
M5
G00 X61.22 Y66.21 F1500.0
M4 S500
G01 Y61.42 F800.0
M5
G00 X61.42 Y61.34 F1500.0
M4 S500
G01 Y66.32 F800.0
M5
G00 X61.62 Y65.52 F1500.0
M4 S500
G01 Y64.81 F800.0
M5
G00 X61.82 Y64.85 F1500.0
M4 S500
G01 Y65.39 F800.0
M5
G00 X62.02 Y65.39 F1500.0
M4 S500
G01 Y64.85 F800.0
M5
G00 X62.22 Y64.85 F1500.0
M4 S500
G01 Y65.39 F800.0
M5
G00 X62.42 Y65.39 F1500.0
M4 S500
G01 Y64.85 F800.0
M5
G00 X62.62 Y64.85 F1500.0
M4 S500
G01 Y65.39 F800.0
M5
G00 X62.82 Y65.39 F1500.0
M4 S500
G01 Y64.94 F800.0
M5
G00 X62.82 Y61.88 F1500.0
M4 S500
G01 Y61.5 F800.0
M5
G00 X62.62 Y61.42 F1500.0
M4 S500
G01 Y61.85 F800.0
M5
G00 X62.42 Y61.82 F1500.0
M4 S500
G01 Y61.36 F800.0
M5
G00 X62.22 Y61.31 F1500.0
M4 S500
G01 Y61.82 F800.0
M5
G00 X62.02 Y61.84 F1500.0
M4 S500
G01 Y61.29 F800.0
M5
G00 X61.82 Y61.28 F1500.0
M4 S500
G01 Y61.91 F800.0
M5
G00 X61.62 Y62.11 F1500.0
M4 S500
G01 Y61.29 F800.0
M5
G00 X63.02 Y61.63 F1500.0
M4 S500
G01 Y61.92 F800.0
M5
M5
;END infill

; START infill strategy
G01 F800.0
G00 X56.86 Y65.36 F1500.0
M4 S500
G01 Y64.9 F800.0
M5
G00 X57.06 Y64.81 F1500.0
M4 S500
G01 Y65.5 F800.0
M5
G00 X57.26 Y65.68 F1500.0
M4 S500
G01 Y61.91 F800.0
M5
G00 X57.46 Y61.57 F1500.0
M4 S500
G01 Y65.91 F800.0
M5
G00 X57.66 Y66.21 F1500.0
M4 S500
G01 Y61.42 F800.0
M5
G00 X57.86 Y61.34 F1500.0
M4 S500
G01 Y66.32 F800.0
M5
G00 X58.06 Y65.52 F1500.0
M4 S500
G01 Y64.81 F800.0
M5
G00 X58.26 Y64.85 F1500.0
M4 S500
G01 Y65.39 F800.0
M5
G00 X58.46 Y65.39 F1500.0
M4 S500
G01 Y64.85 F800.0
M5
G00 X58.66 Y64.85 F1500.0
M4 S500
G01 Y65.39 F800.0
M5
G00 X58.86 Y65.39 F1500.0
M4 S500
G01 Y64.85 F800.0
M5
G00 X59.06 Y64.85 F1500.0
M4 S500
G01 Y65.39 F800.0
M5
G00 X59.26 Y65.39 F1500.0
M4 S500
G01 Y64.94 F800.0
M5
G00 X59.26 Y61.88 F1500.0
M4 S500
G01 Y61.5 F800.0
M5
G00 X59.06 Y61.42 F1500.0
M4 S500
G01 Y61.85 F800.0
M5
G00 X58.86 Y61.82 F1500.0
M4 S500
G01 Y61.36 F800.0
M5
G00 X58.66 Y61.31 F1500.0
M4 S500
G01 Y61.82 F800.0
M5
G00 X58.46 Y61.84 F1500.0
M4 S500
G01 Y61.29 F800.0
M5
G00 X58.26 Y61.28 F1500.0
M4 S500
G01 Y61.91 F800.0
M5
G00 X58.06 Y62.11 F1500.0
M4 S500
G01 Y61.29 F800.0
M5
G00 X59.46 Y61.63 F1500.0
M4 S500
G01 Y61.92 F800.0
M5
M5
;END infill

; START infill strategy
G01 F800.0
G00 X51.17 Y65.06 F1500.0
M4 S500
G01 Y64.72 F800.0
M5
G00 X51.37 Y64.62 F1500.0
M4 S500
G01 Y65.14 F800.0
M5
G00 X51.57 Y65.22 F1500.0
M4 S500
G01 Y64.42 F800.0
M5
G00 X51.77 Y65.3 F1500.0
M4 S500
G01 Y62.0 F800.0
M5
G00 X51.97 Y61.66 F1500.0
M4 S500
G01 Y65.38 F800.0
M5
G00 X52.17 Y65.45 F1500.0
M4 S500
G01 Y61.5 F800.0
M5
G00 X52.37 Y61.43 F1500.0
M4 S500
G01 Y65.47 F800.0
M5
G00 X53.97 Y65.06 F1500.0
M4 S500
G01 Y64.66 F800.0
M5
G00 X54.17 Y64.59 F1500.0
M4 S500
G01 Y65.13 F800.0
M5
G00 X54.37 Y65.2 F1500.0
M4 S500
G01 Y64.35 F800.0
M5
G00 X54.57 Y65.27 F1500.0
M4 S500
G01 Y61.72 F800.0
M5
G00 X54.37 Y61.74 F1500.0
M4 S500
G01 Y62.48 F800.0
M5
G00 X54.17 Y62.17 F1500.0
M4 S500
G01 Y61.66 F800.0
M5
G00 X53.97 Y61.58 F1500.0
M4 S500
G01 Y62.04 F800.0
M5
G00 X53.77 Y61.99 F1500.0
M4 S500
G01 Y61.5 F800.0
M5
G00 X53.57 Y61.43 F1500.0
M4 S500
G01 Y61.97 F800.0
M5
G00 X53.37 Y61.97 F1500.0
M4 S500
G01 Y61.38 F800.0
M5
G00 X53.17 Y61.35 F1500.0
M4 S500
G01 Y61.99 F800.0
M5
G00 X52.97 Y62.03 F1500.0
M4 S500
G01 Y61.34 F800.0
M5
G00 X52.77 Y61.35 F1500.0
M4 S500
G01 Y62.13 F800.0
M5
G00 X52.57 Y62.39 F1500.0
M4 S500
G01 Y61.38 F800.0
M5
G00 X54.77 Y61.53 F1500.0
M4 S500
G01 Y65.34 F800.0
M5
G00 X54.97 Y65.4 F1500.0
M4 S500
G01 Y61.35 F800.0
M5
G00 X55.17 Y61.36 F1500.0
M4 S500
G01 Y65.39 F800.0
M5
G00 X55.37 Y62.06 F1500.0
M4 S500
G01 Y61.45 F800.0
M5
G00 X55.57 Y61.54 F1500.0
M4 S500
G01 Y61.98 F800.0
M5
G00 X55.77 Y61.94 F1500.0
M4 S500
G01 Y61.65 F800.0
M5
M5
;END infill

; START infill strategy
G01 F800.0
G00 X44.74 Y68.14 F1500.0
M4 S500
G01 Y67.8 F800.0
M5
G00 X44.94 Y67.73 F1500.0
M4 S500
G01 Y68.13 F800.0
M5
G00 X45.14 Y68.12 F1500.0
M4 S500
G01 Y67.64 F800.0
M5
G00 X45.34 Y67.42 F1500.0
M4 S500
G01 Y68.11 F800.0
M5
G00 X45.54 Y68.11 F1500.0
M4 S500
G01 Y61.38 F800.0
M5
G00 X45.74 Y61.39 F1500.0
M4 S500
G01 Y68.11 F800.0
M5
G00 X45.94 Y68.11 F1500.0
M4 S500
G01 Y61.38 F800.0
M5
G00 X46.14 Y61.37 F1500.0
M4 S500
G01 Y68.11 F800.0
M5
G00 X46.34 Y68.12 F1500.0
M4 S500
G01 Y67.63 F800.0
M5
G00 X46.54 Y67.73 F1500.0
M4 S500
G01 Y68.12 F800.0
M5
G00 X46.74 Y68.12 F1500.0
M4 S500
G01 Y67.75 F800.0
M5
G00 X46.94 Y67.77 F1500.0
M4 S500
G01 Y68.13 F800.0
M5
G00 X47.14 Y68.13 F1500.0
M4 S500
G01 Y67.76 F800.0
M5
G00 X47.34 Y67.75 F1500.0
M4 S500
G01 Y68.13 F800.0
M5
G00 X47.54 Y68.12 F1500.0
M4 S500
G01 Y67.71 F800.0
M5
G00 X47.74 Y67.65 F1500.0
M4 S500
G01 Y68.11 F800.0
M5
G00 X47.94 Y68.08 F1500.0
M4 S500
G01 Y67.55 F800.0
M5
G00 X48.14 Y67.37 F1500.0
M4 S500
G01 Y68.05 F800.0
M5
G00 X48.34 Y67.99 F1500.0
M4 S500
G01 Y66.96 F800.0
M5
G00 X48.34 Y66.06 F1500.0
M4 S500
G01 Y65.18 F800.0
M5
G00 X48.34 Y65.01 F1500.0
M4 S500
G01 Y64.46 F800.0
M5
G00 X48.14 Y64.58 F1500.0
M4 S500
G01 Y65.06 F800.0
M5
G00 X48.14 Y65.1 F1500.0
M4 S500
G01 Y65.67 F800.0
M5
G00 X47.94 Y65.5 F1500.0
M4 S500
G01 Y64.67 F800.0
M5
G00 X47.74 Y64.75 F1500.0
M4 S500
G01 Y65.39 F800.0
M5
G00 X47.54 Y65.33 F1500.0
M4 S500
G01 Y64.79 F800.0
M5
G00 X47.34 Y64.81 F1500.0
M4 S500
G01 Y65.29 F800.0
M5
G00 X47.14 Y65.26 F1500.0
M4 S500
G01 Y64.83 F800.0
M5
G00 X46.94 Y64.83 F1500.0
M4 S500
G01 Y65.25 F800.0
M5
G00 X46.74 Y65.24 F1500.0
M4 S500
G01 Y64.82 F800.0
M5
G00 X46.54 Y64.8 F1500.0
M4 S500
G01 Y65.24 F800.0
M5
G00 X46.34 Y65.24 F1500.0
M4 S500
G01 Y64.78 F800.0
M5
G00 X48.54 Y64.96 F1500.0
M4 S500
G01 Y64.26 F800.0
M5
G00 X48.74 Y63.96 F1500.0
M4 S500
G01 Y64.9 F800.0
M5
G00 X48.94 Y64.83 F1500.0
M4 S500
G01 Y61.65 F800.0
M5
G00 X48.74 Y61.56 F1500.0
M4 S500
G01 Y62.39 F800.0
M5
G00 X48.54 Y62.11 F1500.0
M4 S500
G01 Y61.5 F800.0
M5
G00 X48.34 Y61.44 F1500.0
M4 S500
G01 Y61.96 F800.0
M5
G00 X48.14 Y61.86 F1500.0
M4 S500
G01 Y61.41 F800.0
M5
G00 X47.94 Y61.37 F1500.0
M4 S500
G01 Y61.79 F800.0
M5
G00 X47.74 Y61.75 F1500.0
M4 S500
G01 Y61.35 F800.0
M5
G00 X47.54 Y61.34 F1500.0
M4 S500
G01 Y61.73 F800.0
M5
G00 X47.34 Y61.72 F1500.0
M4 S500
G01 Y61.33 F800.0
M5
G00 X47.14 Y61.33 F1500.0
M4 S500
G01 Y61.73 F800.0
M5
G00 X46.94 Y61.75 F1500.0
M4 S500
G01 Y61.34 F800.0
M5
G00 X46.74 Y61.35 F1500.0
M4 S500
G01 Y61.79 F800.0
M5
G00 X46.54 Y61.86 F1500.0
M4 S500
G01 Y61.36 F800.0
M5
G00 X46.34 Y61.37 F1500.0
M4 S500
G01 Y62.06 F800.0
M5
G00 X45.34 Y62.02 F1500.0
M4 S500
G01 Y61.38 F800.0
M5
G00 X45.14 Y61.36 F1500.0
M4 S500
G01 Y61.79 F800.0
M5
G00 X44.94 Y61.69 F1500.0
M4 S500
G01 Y61.33 F800.0
M5
G00 X44.74 Y61.33 F1500.0
M4 S500
G01 Y61.57 F800.0
M5
G00 X49.14 Y61.76 F1500.0
M4 S500
G01 Y64.72 F800.0
M5
G00 X49.34 Y64.59 F1500.0
M4 S500
G01 Y61.9 F800.0
M5
G00 X49.54 Y62.07 F1500.0
M4 S500
G01 Y64.43 F800.0
M5
G00 X49.74 Y64.17 F1500.0
M4 S500
G01 Y62.36 F800.0
M5
G00 X49.94 Y62.99 F1500.0
M4 S500
G01 Y63.64 F800.0
M5
G00 X49.14 Y65.7 F1500.0
M4 S500
G01 Y67.49 F800.0
M5
G00 X48.94 Y67.68 F1500.0
M4 S500
G01 Y65.51 F800.0
M5
G00 X48.74 Y65.37 F1500.0
M4 S500
G01 Y67.82 F800.0
M5
G00 X48.54 Y67.92 F1500.0
M4 S500
G01 Y65.26 F800.0
M5
G00 X49.34 Y66.03 F1500.0
M4 S500
G01 Y67.14 F800.0
M5
M5
;END infill

; START infill strategy
G01 F800.0
G00 X36.17 Y68.21 F1500.0
M4 S500
G01 Y67.83 F800.0
M5
G00 X36.37 Y67.73 F1500.0
M4 S500
G01 Y68.3 F800.0
M5
G00 X36.57 Y68.38 F1500.0
M4 S500
G01 Y67.58 F800.0
M5
G00 X36.77 Y68.49 F1500.0
M4 S500
G01 Y61.34 F800.0
M5
G00 X36.57 Y61.33 F1500.0
M4 S500
G01 Y61.86 F800.0
M5
G00 X36.37 Y61.72 F1500.0
M4 S500
G01 Y61.32 F800.0
M5
G00 X36.17 Y61.34 F1500.0
M4 S500
G01 Y61.63 F800.0
M5
G00 X36.97 Y61.35 F1500.0
M4 S500
G01 Y68.61 F800.0
M5
G00 X37.17 Y68.73 F1500.0
M4 S500
G01 Y61.36 F800.0
M5
G00 X37.37 Y61.37 F1500.0
M4 S500
G01 Y68.77 F800.0
M5
G00 X38.57 Y65.38 F1500.0
M4 S500
G01 Y65.04 F800.0
M5
G00 X38.77 Y64.99 F1500.0
M4 S500
G01 Y65.37 F800.0
M5
G00 X38.97 Y65.36 F1500.0
M4 S500
G01 Y64.91 F800.0
M5
G00 X38.97 Y64.74 F1500.0
M4 S500
G01 Y64.15 F800.0
M5
G00 X39.17 Y64.33 F1500.0
M4 S500
G01 Y65.35 F800.0
M5
G00 X39.37 Y65.34 F1500.0
M4 S500
G01 Y64.49 F800.0
M5
G00 X39.57 Y64.63 F1500.0
M4 S500
G01 Y65.34 F800.0
M5
G00 X39.77 Y65.33 F1500.0
M4 S500
G01 Y64.74 F800.0
M5
G00 X39.97 Y64.82 F1500.0
M4 S500
G01 Y65.33 F800.0
M5
G00 X40.17 Y65.33 F1500.0
M4 S500
G01 Y64.89 F800.0
M5
G00 X40.37 Y64.92 F1500.0
M4 S500
G01 Y65.33 F800.0
M5
G00 X40.57 Y65.33 F1500.0
M4 S500
G01 Y64.94 F800.0
M5
G00 X40.77 Y65.01 F1500.0
M4 S500
G01 Y65.28 F800.0
M5
G00 X38.77 Y64.54 F1500.0
M4 S500
G01 Y63.97 F800.0
M5
G00 X38.77 Y63.8 F1500.0
M4 S500
G01 Y62.34 F800.0
M5
G00 X38.97 Y62.08 F1500.0
M4 S500
G01 Y63.48 F800.0
M5
G00 X39.17 Y63.2 F1500.0
M4 S500
G01 Y61.83 F800.0
M5
G00 X39.37 Y61.6 F1500.0
M4 S500
G01 Y62.93 F800.0
M5
G00 X39.57 Y62.66 F1500.0
M4 S500
G01 Y61.38 F800.0
M5
G00 X39.77 Y61.3 F1500.0
M4 S500
G01 Y62.43 F800.0
M5
G00 X39.97 Y62.23 F1500.0
M4 S500
G01 Y61.31 F800.0
M5
G00 X40.17 Y61.32 F1500.0
M4 S500
G01 Y62.05 F800.0
M5
G00 X40.37 Y61.92 F1500.0
M4 S500
G01 Y61.33 F800.0
M5
G00 X40.57 Y61.34 F1500.0
M4 S500
G01 Y61.81 F800.0
M5
G00 X40.77 Y61.77 F1500.0
M4 S500
G01 Y61.35 F800.0
M5
G00 X40.97 Y61.37 F1500.0
M4 S500
G01 Y61.74 F800.0
M5
G00 X38.37 Y61.65 F1500.0
M4 S500
G01 Y61.38 F800.0
M5
G00 X38.17 Y61.37 F1500.0
M4 S500
G01 Y61.71 F800.0
M5
G00 X37.97 Y61.74 F1500.0
M4 S500
G01 Y61.37 F800.0
M5
G00 X37.77 Y61.38 F1500.0
M4 S500
G01 Y61.8 F800.0
M5
G00 X37.57 Y61.99 F1500.0
M4 S500
G01 Y61.38 F800.0
M5
G00 X37.57 Y62.97 F1500.0
M4 S500
G01 Y63.63 F800.0
M5
G00 X37.77 Y63.71 F1500.0
M4 S500
G01 Y63.16 F800.0
M5
G00 X37.97 Y63.27 F1500.0
M4 S500
G01 Y63.87 F800.0
M5
G00 X38.17 Y64.04 F1500.0
M4 S500
G01 Y63.23 F800.0
M5
G00 X38.37 Y62.92 F1500.0
M4 S500
G01 Y64.21 F800.0
M5
G00 X38.57 Y64.37 F1500.0
M4 S500
G01 Y62.62 F800.0
M5
M5
;END infill

; START infill strategy
G01 F800.0
G00 X31.82 Y64.14 F1500.0
M4 S500
G01 Y62.29 F800.0
M5
G00 X32.02 Y61.98 F1500.0
M4 S500
G01 Y64.49 F800.0
M5
G00 X32.22 Y64.72 F1500.0
M4 S500
G01 Y61.76 F800.0
M5
G00 X32.42 Y61.61 F1500.0
M4 S500
G01 Y64.91 F800.0
M5
G00 X32.62 Y65.07 F1500.0
M4 S500
G01 Y64.17 F800.0
M5
G00 X32.82 Y64.56 F1500.0
M4 S500
G01 Y65.17 F800.0
M5
G00 X33.02 Y65.27 F1500.0
M4 S500
G01 Y64.77 F800.0
M5
G00 X33.22 Y64.89 F1500.0
M4 S500
G01 Y65.33 F800.0
M5
G00 X33.42 Y65.39 F1500.0
M4 S500
G01 Y64.95 F800.0
M5
G00 X33.62 Y64.97 F1500.0
M4 S500
G01 Y65.41 F800.0
M5
G00 X33.82 Y65.42 F1500.0
M4 S500
G01 Y64.92 F800.0
M5
G00 X34.02 Y64.83 F1500.0
M4 S500
G01 Y65.42 F800.0
M5
G00 X34.22 Y65.41 F1500.0
M4 S500
G01 Y64.7 F800.0
M5
G00 X34.42 Y64.56 F1500.0
M4 S500
G01 Y65.39 F800.0
M5
G00 X34.62 Y65.34 F1500.0
M4 S500
G01 Y64.42 F800.0
M5
G00 X34.82 Y64.34 F1500.0
M4 S500
G01 Y65.29 F800.0
M5
G00 X35.02 Y65.21 F1500.0
M4 S500
G01 Y64.48 F800.0
M5
G00 X35.22 Y64.74 F1500.0
M4 S500
G01 Y65.09 F800.0
M5
G00 X35.22 Y62.17 F1500.0
M4 S500
G01 Y61.87 F800.0
M5
G00 X35.02 Y61.72 F1500.0
M4 S500
G01 Y62.11 F800.0
M5
G00 X34.82 Y62. F1500.0
M4 S500
G01 Y61.6 F800.0
M5
G00 X34.62 Y61.5 F1500.0
M4 S500
G01 Y61.93 F800.0
M5
G00 X34.42 Y61.88 F1500.0
M4 S500
G01 Y61.42 F800.0
M5
G00 X34.22 Y61.35 F1500.0
M4 S500
G01 Y61.84 F800.0
M5
G00 X34.02 Y61.83 F1500.0
M4 S500
G01 Y61.31 F800.0
M5
G00 X33.82 Y61.29 F1500.0
M4 S500
G01 Y61.84 F800.0
M5
G00 X33.62 Y61.88 F1500.0
M4 S500
G01 Y61.28 F800.0
M5
G00 X33.42 Y61.29 F1500.0
M4 S500
G01 Y61.95 F800.0
M5
G00 X33.22 Y62.07 F1500.0
M4 S500
G01 Y61.31 F800.0
M5
G00 X33.02 Y61.36 F1500.0
M4 S500
G01 Y62.24 F800.0
M5
G00 X32.82 Y62.49 F1500.0
M4 S500
G01 Y61.41 F800.0
M5
G00 X32.62 Y61.5 F1500.0
M4 S500
G01 Y62.96 F800.0
M5
M5
;END infill

; START infill strategy
G01 F800.0
G00 X27.21 Y62.78 F1500.0
M4 S500
G01 Y61.65 F800.0
M5
G00 X27.41 Y61.47 F1500.0
M4 S500
G01 Y62.96 F800.0
M5
G00 X27.61 Y63.09 F1500.0
M4 S500
G01 Y61.36 F800.0
M5
G00 X27.81 Y61.31 F1500.0
M4 S500
G01 Y63.2 F800.0
M5
G00 X28.01 Y63.28 F1500.0
M4 S500
G01 Y62.71 F800.0
M5
G00 X28.21 Y62.9 F1500.0
M4 S500
G01 Y63.35 F800.0
M5
G00 X28.41 Y63.41 F1500.0
M4 S500
G01 Y63.0 F800.0
M5
G00 X28.61 Y63.09 F1500.0
M4 S500
G01 Y63.46 F800.0
M5
G00 X28.81 Y63.51 F1500.0
M4 S500
G01 Y63.14 F800.0
M5
G00 X29.01 Y63.19 F1500.0
M4 S500
G01 Y63.55 F800.0
M5
G00 X29.21 Y63.6 F1500.0
M4 S500
G01 Y63.23 F800.0
M5
G00 X29.41 Y63.14 F1500.0
M4 S500
G01 Y63.84 F800.0
M5
G00 X29.41 Y64.3 F1500.0
M4 S500
G01 Y65.46 F800.0
M5
G00 X29.21 Y65.47 F1500.0
M4 S500
G01 Y64.85 F800.0
M5
G00 X29.01 Y64.97 F1500.0
M4 S500
G01 Y65.47 F800.0
M5
G00 X28.81 Y65.45 F1500.0
M4 S500
G01 Y65.01 F800.0
M5
G00 X28.61 Y65.01 F1500.0
M4 S500
G01 Y65.41 F800.0
M5
G00 X28.41 Y65.35 F1500.0
M4 S500
G01 Y64.87 F800.0
M5
G00 X28.21 Y64.56 F1500.0
M4 S500
G01 Y65.28 F800.0
M5
G00 X28.01 Y65.19 F1500.0
M4 S500
G01 Y64.32 F800.0
M5
G00 X27.81 Y64.22 F1500.0
M4 S500
G01 Y65.09 F800.0
M5
G00 X27.61 Y64.97 F1500.0
M4 S500
G01 Y64.2 F800.0
M5
G00 X27.41 Y64.24 F1500.0
M4 S500
G01 Y64.82 F800.0
M5
G00 X29.61 Y65.42 F1500.0
M4 S500
G01 Y61.54 F800.0
M5
G00 X29.81 Y61.36 F1500.0
M4 S500
G01 Y65.33 F800.0
M5
G00 X30.01 Y65.15 F1500.0
M4 S500
G01 Y61.32 F800.0
M5
G00 X30.21 Y61.36 F1500.0
M4 S500
G01 Y62.17 F800.0
M5
G00 X30.41 Y62.02 F1500.0
M4 S500
G01 Y61.44 F800.0
M5
G00 X30.61 Y61.53 F1500.0
M4 S500
G01 Y62.03 F800.0
M5
G00 X30.81 Y62.06 F1500.0
M4 S500
G01 Y61.66 F800.0
M5
G00 X29.41 Y61.71 F1500.0
M4 S500
G01 Y62.19 F800.0
M5
G00 X29.21 Y61.98 F1500.0
M4 S500
G01 Y61.62 F800.0
M5
G00 X29.01 Y61.54 F1500.0
M4 S500
G01 Y61.9 F800.0
M5
G00 X28.81 Y61.85 F1500.0
M4 S500
G01 Y61.46 F800.0
M5
G00 X28.61 Y61.39 F1500.0
M4 S500
G01 Y61.83 F800.0
M5
G00 X28.41 Y61.84 F1500.0
M4 S500
G01 Y61.33 F800.0
M5
G00 X28.21 Y61.31 F1500.0
M4 S500
G01 Y61.9 F800.0
M5
G00 X28.01 Y62.07 F1500.0
M4 S500
G01 Y61.29 F800.0
M5
M5
;END infill

; START infill strategy
G01 F800.0
G00 X24.05 Y68.19 F1500.0
M4 S500
G01 Y67.79 F800.0
M5
G00 X24.25 Y67.69 F1500.0
M4 S500
G01 Y68.27 F800.0
M5
G00 X24.45 Y68.36 F1500.0
M4 S500
G01 Y67.46 F800.0
M5
G00 X24.65 Y68.47 F1500.0
M4 S500
G01 Y61.34 F800.0
M5
G00 X24.85 Y61.35 F1500.0
M4 S500
G01 Y68.58 F800.0
M5
G00 X25.05 Y68.69 F1500.0
M4 S500
G01 Y61.36 F800.0
M5
G00 X25.25 Y61.37 F1500.0
M4 S500
G01 Y68.73 F800.0
M5
G00 X25.45 Y62.02 F1500.0
M4 S500
G01 Y61.36 F800.0
M5
G00 X25.65 Y61.35 F1500.0
M4 S500
G01 Y61.82 F800.0
M5
G00 X25.85 Y61.74 F1500.0
M4 S500
G01 Y61.35 F800.0
M5
G00 X26.05 Y61.34 F1500.0
M4 S500
G01 Y61.7 F800.0
M5
G00 X26.25 Y61.63 F1500.0
M4 S500
G01 Y61.38 F800.0
M5
G00 X24.45 Y61.32 F1500.0
M4 S500
G01 Y61.83 F800.0
M5
G00 X24.25 Y61.7 F1500.0
M4 S500
G01 Y61.32 F800.0
M5
G00 X24.05 Y61.33 F1500.0
M4 S500
G01 Y61.6 F800.0
M5
M5
;END infill

; START infill strategy
G01 F800.0
G00 X17.5 Y68.14 F1500.0
M4 S500
G01 Y67.8 F800.0
M5
G00 X17.7 Y67.73 F1500.0
M4 S500
G01 Y68.13 F800.0
M5
G00 X17.9 Y68.12 F1500.0
M4 S500
G01 Y67.64 F800.0
M5
G00 X18.1 Y67.42 F1500.0
M4 S500
G01 Y68.11 F800.0
M5
G00 X18.3 Y68.11 F1500.0
M4 S500
G01 Y61.38 F800.0
M5
G00 X18.5 Y61.39 F1500.0
M4 S500
G01 Y68.11 F800.0
M5
G00 X18.7 Y68.11 F1500.0
M4 S500
G01 Y61.38 F800.0
M5
G00 X18.9 Y61.37 F1500.0
M4 S500
G01 Y68.11 F800.0
M5
G00 X19.1 Y68.12 F1500.0
M4 S500
G01 Y67.63 F800.0
M5
G00 X19.3 Y67.73 F1500.0
M4 S500
G01 Y68.12 F800.0
M5
G00 X19.5 Y68.12 F1500.0
M4 S500
G01 Y67.75 F800.0
M5
G00 X19.7 Y67.77 F1500.0
M4 S500
G01 Y68.13 F800.0
M5
G00 X19.9 Y68.13 F1500.0
M4 S500
G01 Y67.76 F800.0
M5
G00 X20.1 Y67.75 F1500.0
M4 S500
G01 Y68.13 F800.0
M5
G00 X20.3 Y68.12 F1500.0
M4 S500
G01 Y67.71 F800.0
M5
G00 X20.5 Y67.65 F1500.0
M4 S500
G01 Y68.11 F800.0
M5
G00 X20.7 Y68.08 F1500.0
M4 S500
G01 Y67.55 F800.0
M5
G00 X20.9 Y67.37 F1500.0
M4 S500
G01 Y68.05 F800.0
M5
G00 X21.1 Y67.99 F1500.0
M4 S500
G01 Y66.96 F800.0
M5
G00 X21.1 Y66.06 F1500.0
M4 S500
G01 Y65.18 F800.0
M5
G00 X21.1 Y65.01 F1500.0
M4 S500
G01 Y64.46 F800.0
M5
G00 X20.9 Y64.58 F1500.0
M4 S500
G01 Y65.06 F800.0
M5
G00 X20.9 Y65.1 F1500.0
M4 S500
G01 Y65.67 F800.0
M5
G00 X20.7 Y65.5 F1500.0
M4 S500
G01 Y64.67 F800.0
M5
G00 X20.5 Y64.75 F1500.0
M4 S500
G01 Y65.39 F800.0
M5
G00 X20.3 Y65.33 F1500.0
M4 S500
G01 Y64.79 F800.0
M5
G00 X20.1 Y64.81 F1500.0
M4 S500
G01 Y65.29 F800.0
M5
G00 X19.9 Y65.26 F1500.0
M4 S500
G01 Y64.83 F800.0
M5
G00 X19.7 Y64.83 F1500.0
M4 S500
G01 Y65.25 F800.0
M5
G00 X19.5 Y65.24 F1500.0
M4 S500
G01 Y64.82 F800.0
M5
G00 X19.3 Y64.8 F1500.0
M4 S500
G01 Y65.24 F800.0
M5
G00 X19.1 Y65.24 F1500.0
M4 S500
G01 Y64.78 F800.0
M5
G00 X21.3 Y64.96 F1500.0
M4 S500
G01 Y64.26 F800.0
M5
G00 X21.5 Y63.96 F1500.0
M4 S500
G01 Y64.9 F800.0
M5
G00 X21.7 Y64.83 F1500.0
M4 S500
G01 Y61.65 F800.0
M5
G00 X21.5 Y61.56 F1500.0
M4 S500
G01 Y62.39 F800.0
M5
G00 X21.3 Y62.11 F1500.0
M4 S500
G01 Y61.5 F800.0
M5
G00 X21.1 Y61.44 F1500.0
M4 S500
G01 Y61.96 F800.0
M5
G00 X20.9 Y61.86 F1500.0
M4 S500
G01 Y61.41 F800.0
M5
G00 X20.7 Y61.37 F1500.0
M4 S500
G01 Y61.79 F800.0
M5
G00 X20.5 Y61.75 F1500.0
M4 S500
G01 Y61.35 F800.0
M5
G00 X20.3 Y61.34 F1500.0
M4 S500
G01 Y61.73 F800.0
M5
G00 X20.1 Y61.72 F1500.0
M4 S500
G01 Y61.33 F800.0
M5
G00 X19.9 Y61.33 F1500.0
M4 S500
G01 Y61.73 F800.0
M5
G00 X19.7 Y61.75 F1500.0
M4 S500
G01 Y61.34 F800.0
M5
G00 X19.5 Y61.35 F1500.0
M4 S500
G01 Y61.79 F800.0
M5
G00 X19.3 Y61.86 F1500.0
M4 S500
G01 Y61.36 F800.0
M5
G00 X19.1 Y61.37 F1500.0
M4 S500
G01 Y62.06 F800.0
M5
G00 X18.1 Y62.02 F1500.0
M4 S500
G01 Y61.38 F800.0
M5
G00 X17.9 Y61.36 F1500.0
M4 S500
G01 Y61.79 F800.0
M5
G00 X17.7 Y61.69 F1500.0
M4 S500
G01 Y61.33 F800.0
M5
G00 X17.5 Y61.33 F1500.0
M4 S500
G01 Y61.57 F800.0
M5
G00 X21.9 Y61.76 F1500.0
M4 S500
G01 Y64.72 F800.0
M5
G00 X22.1 Y64.59 F1500.0
M4 S500
G01 Y61.9 F800.0
M5
G00 X22.3 Y62.07 F1500.0
M4 S500
G01 Y64.43 F800.0
M5
G00 X22.5 Y64.17 F1500.0
M4 S500
G01 Y62.36 F800.0
M5
G00 X22.7 Y62.99 F1500.0
M4 S500
G01 Y63.64 F800.0
M5
G00 X21.9 Y65.7 F1500.0
M4 S500
G01 Y67.49 F800.0
M5
G00 X21.7 Y67.68 F1500.0
M4 S500
G01 Y65.51 F800.0
M5
G00 X21.5 Y65.37 F1500.0
M4 S500
G01 Y67.82 F800.0
M5
G00 X21.3 Y67.92 F1500.0
M4 S500
G01 Y65.27 F800.0
M5
G00 X22.1 Y66.03 F1500.0
M4 S500
G01 Y67.14 F800.0
M5
M5
;END infill

; START perimeter strategy
G01 F800.0
M5
G00 X70.47 Y9.21 F1500.0
M4 S700 F1500.0
G01 F800.0
G01 X70.27 Y9.19 F800.0
G01 X70.09 Y9.13 F800.0
G01 X69.92 Y9.04 F800.0
G01 X69.78 Y8.91 F800.0
G01 X69.66 Y8.76 F800.0
G01 X69.57 Y8.58 F800.0
G01 X69.51 Y8.39 F800.0
G01 X69.49 Y8.19 F800.0
G01 Y8.11 F800.0
G01 Y5.11 F800.0
G01 Y4.03 F800.0
G01 X69.51 Y3.82 F800.0
G01 X69.57 Y3.63 F800.0
G01 X69.66 Y3.45 F800.0
G01 X69.78 Y3.3 F800.0
G01 X69.92 Y3.18 F800.0
G01 X70.09 Y3.08 F800.0
G01 X70.27 Y3.02 F800.0
G01 X70.47 Y3.0 F800.0
G01 X70.49 F800.0
G01 X79.49 F800.0
G01 X80.51 F800.0
G01 X80.71 Y3.02 F800.0
G01 X80.89 Y3.08 F800.0
G01 X81.06 Y3.18 F800.0
G01 X81.21 Y3.3 F800.0
G01 X81.33 Y3.45 F800.0
G01 X81.42 Y3.63 F800.0
G01 X81.47 Y3.82 F800.0
G01 X81.49 Y4.03 F800.0
G01 Y4.11 F800.0
G01 Y7.11 F800.0
G01 Y8.19 F800.0
G01 X81.47 Y8.39 F800.0
G01 X81.42 Y8.58 F800.0
G01 X81.33 Y8.76 F800.0
G01 X81.21 Y8.91 F800.0
G01 X81.06 Y9.04 F800.0
G01 X80.89 Y9.13 F800.0
G01 X80.71 Y9.19 F800.0
G01 X80.51 Y9.21 F800.0
G01 X80.49 F800.0
G01 X71.49 F800.0
G01 X70.47 F800.0
G01 F800.0
M5
G00 X70.47 Y9.01 F1500.0
M4 S700 F1500.0
G01 F800.0
G01 X70.49 F800.0
G01 X79.49 F800.0
G01 X80.51 F800.0
G01 X80.67 Y8.99 F800.0
G01 X80.82 Y8.95 F800.0
G01 X80.95 Y8.87 F800.0
G01 X81.06 Y8.77 F800.0
G01 X81.16 Y8.65 F800.0
G01 X81.23 Y8.51 F800.0
G01 X81.28 Y8.35 F800.0
G01 X81.29 Y8.19 F800.0
G01 Y8.11 F800.0
G01 Y5.11 F800.0
G01 Y4.03 F800.0
G01 X81.28 Y3.86 F800.0
G01 X81.23 Y3.7 F800.0
G01 X81.06 Y3.44 F800.0
G01 X80.95 Y3.34 F800.0
G01 X80.82 Y3.26 F800.0
G01 X80.67 Y3.21 F800.0
G01 X80.51 Y3.2 F800.0
G01 X80.49 F800.0
G01 X71.49 F800.0
G01 X70.47 F800.0
G01 X70.31 Y3.21 F800.0
G01 X70.17 Y3.26 F800.0
G01 X70.03 Y3.34 F800.0
G01 X69.92 Y3.44 F800.0
G01 X69.75 Y3.7 F800.0
G01 X69.71 Y3.86 F800.0
G01 X69.69 Y4.03 F800.0
G01 Y4.11 F800.0
G01 Y7.11 F800.0
G01 Y8.19 F800.0
G01 X69.71 Y8.35 F800.0
G01 X69.75 Y8.51 F800.0
G01 X69.82 Y8.65 F800.0
G01 X69.92 Y8.77 F800.0
G01 X70.03 Y8.87 F800.0
G01 X70.17 Y8.95 F800.0
G01 X70.31 Y8.99 F800.0
G01 X70.47 Y9.01 F800.0
G01 F800.0
M5
G00 X70.9 Y8.08 F1500.0
M4 S700 F1500.0
G01 Y7.08 F800.0
G01 Y6.02 F800.0
G01 F800.0
G01 X71.77 F800.0
G01 X72.14 Y6.05 F800.0
G01 X72.39 Y6.13 F800.0
G01 X72.59 Y6.28 F800.0
G01 X72.73 Y6.49 F800.0
G01 X72.82 Y6.76 F800.0
G01 X72.84 Y7.08 F800.0
G01 X72.83 Y7.32 F800.0
G01 X72.78 Y7.53 F800.0
G01 X72.71 Y7.72 F800.0
G01 X72.6 Y7.87 F800.0
G01 X72.45 Y8.0 F800.0
G01 X72.28 Y8.08 F800.0
G01 X72.06 Y8.13 F800.0
G01 X71.77 Y8.14 F800.0
G01 X70.9 F800.0
G01 Y8.08 F800.0
M5
G00 X70.21 Y5.74 F1500.0
M4 S700 F1500.0
G01 F800.0
G01 Y6.08 F800.0
G01 Y7.08 F800.0
G01 Y8.42 F800.0
G01 X70.18 Y8.53 F800.0
G01 X70.06 Y8.59 F800.0
G01 Y8.67 F800.0
G01 X70.45 F800.0
G01 X71.83 F800.0
G01 X72.34 Y8.64 F800.0
G01 X72.72 Y8.54 F800.0
G01 X72.93 Y8.42 F800.0
G01 X73.11 Y8.28 F800.0
G01 X73.26 Y8.11 F800.0
G01 X73.38 Y7.9 F800.0
G01 X73.51 Y7.52 F800.0
G01 X73.55 Y7.08 F800.0
G01 X73.52 Y6.7 F800.0
G01 X73.42 Y6.36 F800.0
G01 X73.27 Y6.07 F800.0
G01 X73.05 Y5.83 F800.0
G01 X72.82 Y5.67 F800.0
G01 X72.55 Y5.57 F800.0
G01 X72.23 Y5.51 F800.0
G01 X71.83 Y5.49 F800.0
G01 X71.45 F800.0
G01 X70.06 F800.0
G01 Y5.57 F800.0
G01 X70.18 Y5.63 F800.0
G01 X70.21 Y5.74 F800.0
G01 F800.0
M5
G00 X70.3 Y4.84 F1500.0
M4 S700 F1500.0
G01 Y3.75 F800.0
G01 F800.0
G01 X70.84 F800.0
G01 X71.04 Y3.77 F800.0
G01 X71.19 Y3.82 F800.0
G01 X71.3 Y3.93 F800.0
G01 X71.38 Y4.08 F800.0
G01 X71.42 Y4.34 F800.0
G01 X71.39 Y4.57 F800.0
G01 X71.29 Y4.76 F800.0
G01 X71.21 Y4.84 F800.0
G01 X71.12 Y4.89 F800.0
G01 X70.84 Y4.93 F800.0
G01 X70.3 F800.0
G01 Y4.84 F800.0
M5
G00 X70.13 Y3.72 F1500.0
M4 S700 F1500.0
G01 F800.0
G01 Y3.84 F800.0
G01 Y4.95 F800.0
G01 X70.12 Y5.0 F800.0
G01 X70.06 Y5.03 F800.0
G01 Y5.07 F800.0
G01 X70.84 F800.0
G01 X71.08 Y5.05 F800.0
G01 X71.25 Y4.99 F800.0
G01 X71.41 Y4.88 F800.0
G01 X71.52 Y4.71 F800.0
G01 X71.58 Y4.54 F800.0
G01 X71.6 Y4.34 F800.0
G01 X71.57 Y4.11 F800.0
G01 X71.49 Y3.91 F800.0
G01 X71.38 Y3.77 F800.0
G01 X71.24 Y3.68 F800.0
G01 X71.07 Y3.63 F800.0
G01 X70.84 Y3.61 F800.0
G01 X70.06 F800.0
G01 Y3.64 F800.0
G01 X70.12 Y3.67 F800.0
G01 X70.13 Y3.72 F800.0
G01 F800.0
M5
G00 X72.13 Y4.29 F1500.0
M4 S700 F1500.0
G01 F800.0
G01 Y3.75 F800.0
G01 X73.08 F800.0
G01 X73.14 Y3.76 F800.0
G01 X73.17 Y3.82 F800.0
G01 X73.2 F800.0
G01 Y3.54 F800.0
G01 X73.17 F800.0
G01 X73.14 Y3.6 F800.0
G01 X73.08 Y3.61 F800.0
G01 X72.98 F800.0
G01 X71.89 F800.0
G01 Y3.64 F800.0
G01 X71.94 Y3.67 F800.0
G01 X71.96 Y3.74 F800.0
G01 Y3.84 F800.0
G01 Y4.94 F800.0
G01 X71.94 Y5.0 F800.0
G01 X71.89 Y5.03 F800.0
G01 Y5.07 F800.0
G01 X71.98 F800.0
G01 X73.06 F800.0
G01 X73.13 Y5.08 F800.0
G01 X73.16 Y5.14 F800.0
G01 X73.19 F800.0
G01 Y4.86 F800.0
G01 X73.16 F800.0
G01 X73.13 Y4.91 F800.0
G01 X73.06 Y4.93 F800.0
G01 X72.13 F800.0
G01 Y4.43 F800.0
G01 X72.74 F800.0
G01 X72.81 Y4.44 F800.0
G01 X72.83 Y4.5 F800.0
G01 X72.87 F800.0
G01 Y4.22 F800.0
G01 X72.83 F800.0
G01 X72.81 Y4.28 F800.0
G01 X72.74 Y4.29 F800.0
G01 X72.13 F800.0
M5
G00 X74.88 Y4.98 F1500.0
M4 S700 F1500.0
G01 F800.0
G01 X74.72 Y4.7 F800.0
G01 X74.69 Y4.72 F800.0
G01 X74.71 Y4.78 F800.0
G01 X74.63 Y4.85 F800.0
G01 X74.4 Y4.92 F800.0
G01 X74.17 Y4.95 F800.0
G01 X73.98 Y4.93 F800.0
G01 X73.82 Y4.87 F800.0
G01 X73.7 Y4.78 F800.0
G01 X73.66 Y4.66 F800.0
G01 X73.69 Y4.56 F800.0
G01 X73.78 Y4.49 F800.0
G01 X73.92 Y4.45 F800.0
G01 X74.18 Y4.43 F800.0
G01 X74.53 Y4.41 F800.0
G01 X74.71 Y4.36 F800.0
G01 X74.85 Y4.23 F800.0
G01 X74.89 Y4.05 F800.0
G01 X74.85 Y3.87 F800.0
G01 X74.73 Y3.73 F800.0
G01 X74.51 Y3.62 F800.0
G01 X74.22 Y3.58 F800.0
G01 X73.89 Y3.62 F800.0
G01 X73.56 Y3.76 F800.0
G01 X73.49 Y3.78 F800.0
G01 X73.44 Y3.75 F800.0
G01 X73.41 Y3.76 F800.0
G01 X73.58 Y4.03 F800.0
G01 X73.61 Y4.02 F800.0
G01 X73.58 Y3.96 F800.0
G01 X73.72 Y3.85 F800.0
G01 X73.96 Y3.76 F800.0
G01 X74.22 Y3.73 F800.0
G01 X74.46 Y3.76 F800.0
G01 X74.63 Y3.85 F800.0
G01 X74.7 Y3.94 F800.0
G01 X74.72 Y4.04 F800.0
G01 X74.69 Y4.16 F800.0
G01 X74.56 Y4.23 F800.0
G01 X74.45 Y4.26 F800.0
G01 X74.14 Y4.27 F800.0
G01 X73.85 Y4.3 F800.0
G01 X73.66 Y4.36 F800.0
G01 X73.54 Y4.48 F800.0
G01 X73.49 Y4.65 F800.0
G01 X73.52 Y4.8 F800.0
G01 X73.61 Y4.92 F800.0
G01 X73.71 Y4.99 F800.0
G01 X73.85 Y5.04 F800.0
G01 X74.18 Y5.09 F800.0
G01 X74.46 Y5.06 F800.0
G01 X74.75 Y4.96 F800.0
G01 X74.79 Y4.95 F800.0
G01 X74.84 Y4.99 F800.0
G01 X74.88 Y4.98 F800.0
M5
G00 X75.22 Y3.74 F1500.0
M4 S700 F1500.0
G01 F800.0
G01 Y3.84 F800.0
G01 Y4.94 F800.0
G01 X75.2 Y5.0 F800.0
G01 X75.15 Y5.03 F800.0
G01 Y5.07 F800.0
G01 X75.46 F800.0
G01 Y5.03 F800.0
G01 X75.4 Y5.0 F800.0
G01 X75.39 Y4.94 F800.0
G01 Y4.84 F800.0
G01 Y3.74 F800.0
G01 X75.4 Y3.67 F800.0
G01 X75.46 Y3.64 F800.0
G01 Y3.61 F800.0
G01 X75.15 F800.0
G01 Y3.64 F800.0
G01 X75.2 Y3.67 F800.0
G01 X75.22 Y3.74 F800.0
G01 F800.0
M5
G00 X77.34 Y4.93 F1500.0
M4 S700 F1500.0
G01 F800.0
G01 X77.18 Y4.67 F800.0
G01 X77.15 Y4.69 F800.0
G01 X77.17 Y4.73 F800.0
G01 X77.05 Y4.83 F800.0
G01 X76.83 Y4.92 F800.0
G01 X76.59 Y4.95 F800.0
G01 X76.34 Y4.91 F800.0
G01 X76.14 Y4.8 F800.0
G01 X76.04 Y4.7 F800.0
G01 X75.98 Y4.6 F800.0
G01 X75.92 Y4.34 F800.0
G01 X75.97 Y4.08 F800.0
G01 X76.13 Y3.89 F800.0
G01 X76.34 Y3.77 F800.0
G01 X76.61 Y3.73 F800.0
G01 X76.9 Y3.78 F800.0
G01 X77.13 Y3.91 F800.0
G01 Y4.18 F800.0
G01 X76.78 F800.0
G01 X76.72 Y4.17 F800.0
G01 X76.69 Y4.11 F800.0
G01 X76.66 F800.0
G01 Y4.39 F800.0
G01 X76.69 F800.0
G01 X76.72 Y4.33 F800.0
G01 X76.78 Y4.32 F800.0
G01 X77.36 F800.0
G01 Y4.28 F800.0
G01 X77.31 Y4.26 F800.0
G01 X77.3 Y4.19 F800.0
G01 Y4.0 F800.0
G01 X77.31 Y3.94 F800.0
G01 X77.36 Y3.91 F800.0
G01 Y3.88 F800.0
G01 X77.13 Y3.72 F800.0
G01 X76.88 Y3.62 F800.0
G01 X76.6 Y3.58 F800.0
G01 X76.26 Y3.64 F800.0
G01 X76.12 Y3.7 F800.0
G01 X76.0 Y3.78 F800.0
G01 X75.9 Y3.89 F800.0
G01 X75.82 Y4.02 F800.0
G01 X75.76 Y4.17 F800.0
G01 X75.75 Y4.34 F800.0
G01 X75.78 Y4.57 F800.0
G01 X75.89 Y4.78 F800.0
G01 X76.05 Y4.93 F800.0
G01 X76.25 Y5.03 F800.0
G01 X76.6 Y5.09 F800.0
G01 X76.9 Y5.05 F800.0
G01 X77.2 Y4.93 F800.0
G01 X77.26 Y4.9 F800.0
G01 X77.31 Y4.94 F800.0
G01 X77.34 Y4.93 F800.0
M5
G00 X78.69 Y3.95 F1500.0
M4 S700 F1500.0
G01 X77.87 Y4.88 F800.0
G01 F800.0
G01 Y4.81 F800.0
G01 Y3.74 F800.0
G01 X77.88 Y3.67 F800.0
G01 X77.94 Y3.64 F800.0
G01 Y3.61 F800.0
G01 X77.64 F800.0
G01 Y3.64 F800.0
G01 X77.7 Y3.67 F800.0
G01 X77.72 Y3.74 F800.0
G01 Y3.84 F800.0
G01 Y4.94 F800.0
G01 X77.7 Y5.0 F800.0
G01 X77.64 Y5.03 F800.0
G01 Y5.07 F800.0
G01 X78.07 F800.0
G01 Y5.03 F800.0
G01 X78.02 Y4.98 F800.0
G01 X78.07 Y4.9 F800.0
G01 X78.19 Y4.77 F800.0
G01 X78.96 Y3.88 F800.0
G01 Y3.91 F800.0
G01 Y4.94 F800.0
G01 X78.95 Y5.0 F800.0
G01 X78.89 Y5.03 F800.0
G01 Y5.07 F800.0
G01 X79.19 F800.0
G01 Y5.03 F800.0
G01 X79.13 Y5.0 F800.0
G01 X79.12 Y4.94 F800.0
G01 Y4.84 F800.0
G01 Y3.74 F800.0
G01 X79.13 Y3.67 F800.0
G01 X79.19 Y3.64 F800.0
G01 Y3.61 F800.0
G01 X78.84 F800.0
G01 Y3.64 F800.0
G01 X78.89 Y3.69 F800.0
G01 X78.85 Y3.77 F800.0
G01 X78.69 Y3.95 F800.0
M5
G00 X80.08 Y5.81 F1500.0
M4 S700 F1500.0
G01 Y6.88 F800.0
G01 F800.0
G01 X79.67 F800.0
G01 X78.25 F800.0
G01 Y6.81 F800.0
G01 Y5.74 F800.0
G01 X78.28 Y5.63 F800.0
G01 X78.4 Y5.57 F800.0
G01 Y5.49 F800.0
G01 X77.41 F800.0
G01 Y5.57 F800.0
G01 X77.53 Y5.63 F800.0
G01 X77.56 Y5.74 F800.0
G01 Y6.08 F800.0
G01 Y7.08 F800.0
G01 Y8.43 F800.0
G01 X77.53 Y8.53 F800.0
G01 X77.41 Y8.59 F800.0
G01 Y8.67 F800.0
G01 X78.4 F800.0
G01 Y8.59 F800.0
G01 X78.28 Y8.53 F800.0
G01 X78.25 Y8.43 F800.0
G01 Y8.42 F800.0
G01 Y7.4 F800.0
G01 X78.67 F800.0
G01 X80.08 F800.0
G01 Y7.42 F800.0
G01 Y8.43 F800.0
G01 X80.05 Y8.53 F800.0
G01 X79.93 Y8.59 F800.0
G01 Y8.67 F800.0
G01 X80.92 F800.0
G01 Y8.59 F800.0
G01 X80.8 Y8.53 F800.0
G01 X80.77 Y8.43 F800.0
G01 Y8.08 F800.0
G01 Y7.08 F800.0
G01 Y5.74 F800.0
G01 X80.8 Y5.63 F800.0
G01 X80.92 Y5.57 F800.0
G01 Y5.49 F800.0
G01 X79.93 F800.0
G01 Y5.57 F800.0
G01 X80.05 Y5.63 F800.0
G01 X80.08 Y5.74 F800.0
G01 Y5.81 F800.0
M5
G00 X80.9 Y4.98 F1500.0
M4 S700 F1500.0
G01 F800.0
G01 X80.75 Y4.7 F800.0
G01 X80.71 Y4.72 F800.0
G01 X80.73 Y4.78 F800.0
G01 X80.65 Y4.85 F800.0
G01 X80.43 Y4.92 F800.0
G01 X80.19 Y4.95 F800.0
G01 X80.0 Y4.93 F800.0
G01 X79.84 Y4.87 F800.0
G01 X79.73 Y4.78 F800.0
G01 X79.69 Y4.66 F800.0
G01 X79.72 Y4.56 F800.0
G01 X79.81 Y4.49 F800.0
G01 X79.94 Y4.45 F800.0
G01 X80.2 Y4.43 F800.0
G01 X80.56 Y4.41 F800.0
G01 X80.74 Y4.36 F800.0
G01 X80.87 Y4.23 F800.0
G01 X80.92 Y4.05 F800.0
G01 X80.88 Y3.87 F800.0
G01 X80.75 Y3.73 F800.0
G01 X80.53 Y3.62 F800.0
G01 X80.24 Y3.58 F800.0
G01 X79.92 Y3.62 F800.0
G01 X79.58 Y3.76 F800.0
G01 X79.52 Y3.78 F800.0
G01 X79.47 Y3.75 F800.0
G01 X79.44 Y3.76 F800.0
G01 X79.6 Y4.03 F800.0
G01 X79.63 Y4.02 F800.0
G01 X79.61 Y3.96 F800.0
G01 X79.75 Y3.85 F800.0
G01 X79.99 Y3.76 F800.0
G01 X80.24 Y3.73 F800.0
G01 X80.48 Y3.76 F800.0
G01 X80.66 Y3.85 F800.0
G01 X80.73 Y3.94 F800.0
G01 X80.75 Y4.04 F800.0
G01 X80.71 Y4.16 F800.0
G01 X80.59 Y4.23 F800.0
G01 X80.48 Y4.26 F800.0
G01 X80.16 Y4.27 F800.0
G01 X79.87 Y4.3 F800.0
G01 X79.68 Y4.36 F800.0
G01 X79.56 Y4.48 F800.0
G01 X79.52 Y4.65 F800.0
G01 X79.55 Y4.8 F800.0
G01 X79.63 Y4.92 F800.0
G01 X79.74 Y4.99 F800.0
G01 X79.87 Y5.04 F800.0
G01 X80.21 Y5.09 F800.0
G01 X80.48 Y5.06 F800.0
G01 X80.77 Y4.96 F800.0
G01 X80.82 Y4.95 F800.0
G01 X80.87 Y4.99 F800.0
G01 X80.9 Y4.98 F800.0
M5
G00 X74.89 Y8.22 F1500.0
M4 S700 F1500.0
G01 Y7.22 F800.0
G01 Y6.02 F800.0
G01 F800.0
G01 X75.36 F800.0
G01 X76.84 F800.0
G01 X76.95 Y6.05 F800.0
G01 X77.01 Y6.17 F800.0
G01 X77.08 F800.0
G01 Y5.34 F800.0
G01 X77.01 F800.0
G01 X76.95 Y5.46 F800.0
G01 X76.84 Y5.49 F800.0
G01 X76.44 F800.0
G01 X75.44 F800.0
G01 X74.05 F800.0
G01 Y5.57 F800.0
G01 X74.17 Y5.63 F800.0
G01 X74.2 Y5.74 F800.0
G01 Y6.08 F800.0
G01 Y7.08 F800.0
G01 Y8.42 F800.0
G01 X74.17 Y8.53 F800.0
G01 X74.05 Y8.59 F800.0
G01 Y8.67 F800.0
G01 X75.04 F800.0
G01 Y8.59 F800.0
G01 X74.92 Y8.53 F800.0
G01 X74.89 Y8.42 F800.0
G01 Y8.22 F800.0
M5
G00 X57.83 Y21.37 F1500.0
M4 S700 F1500.0
G01 F800.0
G01 Y20.79 F800.0
G01 X57.88 Y20.71 F800.0
G01 X57.96 F800.0
G01 X58.01 Y20.79 F800.0
G01 Y20.81 F800.0
G01 Y21.82 F800.0
G01 X58.04 Y21.88 F800.0
G01 X58.1 Y21.91 F800.0
G01 X58.16 Y21.88 F800.0
G01 X58.19 Y21.82 F800.0
G01 Y21.79 F800.0
G01 Y20.77 F800.0
G01 X58.16 Y20.71 F800.0
G01 X58.08 Y20.58 F800.0
G01 X58.01 Y20.53 F800.0
G01 X57.84 F800.0
G01 X57.78 Y20.55 F800.0
G01 X57.75 Y20.6 F800.0
G01 X57.71 Y20.55 F800.0
G01 X57.65 Y20.53 F800.0
G01 X57.5 F800.0
G01 X57.44 Y20.55 F800.0
G01 X57.4 Y20.58 F800.0
G01 X57.33 Y20.71 F800.0
G01 X57.31 Y20.77 F800.0
G01 Y20.79 F800.0
G01 Y21.82 F800.0
G01 X57.33 Y21.88 F800.0
G01 X57.4 Y21.91 F800.0
G01 X57.45 Y21.88 F800.0
G01 X57.48 Y21.82 F800.0
G01 Y21.8 F800.0
G01 Y20.79 F800.0
G01 X57.53 Y20.71 F800.0
G01 X57.61 F800.0
G01 X57.66 Y20.79 F800.0
G01 Y21.37 F800.0
G01 X57.69 Y21.43 F800.0
G01 X57.75 Y21.46 F800.0
G01 X57.81 Y21.43 F800.0
G01 X57.83 Y21.37 F800.0
G01 F800.0
M5
G00 X58.18 Y24.46 F1500.0
M4 S700 F1500.0
G01 F800.0
G01 Y24.32 F800.0
G01 Y23.18 F800.0
G01 X57.95 F800.0
G01 X57.92 Y23.26 F800.0
G01 X57.48 Y24.25 F800.0
G01 Y23.27 F800.0
G01 X57.46 Y23.2 F800.0
G01 X57.4 Y23.18 F800.0
G01 X57.33 Y23.2 F800.0
G01 X57.31 Y23.27 F800.0
G01 Y23.41 F800.0
G01 Y24.55 F800.0
G01 X57.54 F800.0
G01 X57.57 Y24.48 F800.0
G01 X58.01 Y23.49 F800.0
G01 Y24.46 F800.0
G01 X58.03 Y24.53 F800.0
G01 X58.1 Y24.55 F800.0
G01 X58.16 Y24.53 F800.0
G01 X58.18 Y24.46 F800.0
G01 F800.0
M5
G00 X54.75 Y24.55 F1500.0
M4 S700 F1500.0
G01 F800.0
G01 X55.62 F800.0
G01 Y24.47 F800.0
G01 X55.54 Y24.01 F800.0
G01 X55.51 Y23.95 F800.0
G01 X55.45 Y23.93 F800.0
G01 X55.39 Y23.95 F800.0
G01 X55.36 Y24.01 F800.0
G01 X55.29 Y24.38 F800.0
G01 X55.09 F800.0
G01 X55.01 Y24.01 F800.0
G01 X54.98 Y23.95 F800.0
G01 X54.92 Y23.93 F800.0
G01 X54.86 Y23.95 F800.0
G01 X54.84 Y24.01 F800.0
G01 X54.75 Y24.47 F800.0
G01 Y24.55 F800.0
M5
G00 X54.18 Y24.11 F1500.0
M4 S700 F1500.0
G01 F800.0
G01 Y24.38 F800.0
G01 X53.65 F800.0
G01 Y24.11 F800.0
G01 X54.18 F800.0
M5
G00 X54.26 Y23.18 F1500.0
M4 S700 F1500.0
G01 F800.0
G01 X54.17 F800.0
G01 X54.11 Y23.21 F800.0
G01 X54.09 Y23.27 F800.0
G01 X54.11 Y23.33 F800.0
G01 X54.17 Y23.36 F800.0
G01 Y23.93 F800.0
G01 X53.56 F800.0
G01 X53.5 Y23.96 F800.0
G01 X53.48 Y24.02 F800.0
G01 Y24.47 F800.0
G01 X53.5 Y24.53 F800.0
G01 X53.56 Y24.55 F800.0
G01 X54.26 F800.0
G01 X54.32 Y24.53 F800.0
G01 X54.35 Y24.47 F800.0
G01 Y24.37 F800.0
G01 Y23.27 F800.0
G01 X54.32 Y23.21 F800.0
G01 X54.26 Y23.18 F800.0
G01 F800.0
M5
G00 X54.75 Y21.91 F1500.0
M4 S700 F1500.0
G01 F800.0
G01 X55.62 F800.0
G01 Y21.83 F800.0
G01 X55.54 Y21.36 F800.0
G01 X55.51 Y21.31 F800.0
G01 X55.45 Y21.29 F800.0
G01 X55.39 Y21.31 F800.0
G01 X55.36 Y21.36 F800.0
G01 X55.29 Y21.73 F800.0
G01 X55.09 F800.0
G01 X55.01 Y21.36 F800.0
G01 X54.98 Y21.3 F800.0
G01 X54.92 Y21.28 F800.0
G01 X54.86 Y21.3 F800.0
G01 X54.84 Y21.36 F800.0
G01 X54.75 Y21.83 F800.0
G01 Y21.91 F800.0
M5
G00 X53.82 Y21.73 F1500.0
M4 S700 F1500.0
G01 F800.0
G01 Y21.31 F800.0
G01 X54.0 F800.0
G01 Y21.73 F800.0
G01 X53.82 F800.0
M5
G00 X53.64 Y21.13 F1500.0
M4 S700 F1500.0
G01 F800.0
G01 Y20.71 F800.0
G01 X54.17 F800.0
G01 Y21.13 F800.0
G01 X53.64 F800.0
M5
G00 X53.47 Y20.71 F1500.0
M4 S700 F1500.0
G01 F800.0
G01 Y21.13 F800.0
G01 X53.52 Y21.26 F800.0
G01 X53.64 Y21.31 F800.0
G01 Y21.82 F800.0
G01 X53.67 Y21.88 F800.0
G01 X53.73 Y21.91 F800.0
G01 X54.08 F800.0
G01 X54.15 Y21.88 F800.0
G01 X54.17 Y21.82 F800.0
G01 Y21.31 F800.0
G01 X54.29 Y21.26 F800.0
G01 X54.34 Y21.13 F800.0
G01 Y20.71 F800.0
G01 X54.29 Y20.59 F800.0
G01 X54.17 Y20.54 F800.0
G01 X53.64 F800.0
G01 X53.52 Y20.59 F800.0
G01 X53.47 Y20.71 F800.0
G01 F800.0
M5
G00 X52.89 Y20.71 F1500.0
M4 S700 F1500.0
G01 F800.0
G01 Y20.72 F800.0
G01 Y21.73 F800.0
G01 X52.37 F800.0
G01 Y21.72 F800.0
G01 Y20.71 F800.0
G01 X52.89 F800.0
M5
G00 X52.19 Y20.7 F1500.0
M4 S700 F1500.0
G01 F800.0
G01 Y20.72 F800.0
G01 Y21.74 F800.0
G01 X52.24 Y21.86 F800.0
G01 X52.36 Y21.91 F800.0
G01 X52.9 F800.0
G01 X53.02 Y21.86 F800.0
G01 X53.07 Y21.74 F800.0
G01 Y21.72 F800.0
G01 Y20.7 F800.0
G01 X53.02 Y20.58 F800.0
G01 X52.9 Y20.54 F800.0
G01 X52.36 F800.0
G01 X52.24 Y20.58 F800.0
G01 X52.19 Y20.7 F800.0
G01 F800.0
M5
G00 X49.99 Y21.91 F1500.0
M4 S700 F1500.0
G01 F800.0
G01 X50.17 F800.0
G01 X50.23 Y21.88 F800.0
G01 X50.25 Y21.82 F800.0
G01 Y21.8 F800.0
G01 X50.08 Y21.2 F800.0
G01 X50.05 Y21.15 F800.0
G01 X49.99 Y21.13 F800.0
G01 X49.93 Y21.16 F800.0
G01 X49.9 Y21.23 F800.0
G01 Y21.81 F800.0
G01 X49.93 Y21.88 F800.0
G01 X49.99 Y21.91 F800.0
G01 F800.0
M5
G00 X48.7 Y21.73 F1500.0
M4 S700 F1500.0
G01 F800.0
G01 Y21.31 F800.0
G01 X48.88 F800.0
G01 Y21.73 F800.0
G01 X48.7 F800.0
M5
G00 X48.53 Y21.13 F1500.0
M4 S700 F1500.0
G01 F800.0
G01 Y20.71 F800.0
G01 X49.06 F800.0
G01 Y21.13 F800.0
G01 X48.53 F800.0
M5
G00 X48.35 Y20.71 F1500.0
M4 S700 F1500.0
G01 F800.0
G01 Y21.13 F800.0
G01 X48.41 Y21.26 F800.0
G01 X48.53 Y21.31 F800.0
G01 Y21.82 F800.0
G01 X48.55 Y21.88 F800.0
G01 X48.62 Y21.91 F800.0
G01 X48.97 F800.0
G01 X49.03 Y21.88 F800.0
G01 X49.06 Y21.82 F800.0
G01 Y21.31 F800.0
G01 X49.18 Y21.26 F800.0
G01 X49.23 Y21.13 F800.0
G01 Y20.71 F800.0
G01 X49.18 Y20.59 F800.0
G01 X49.06 Y20.54 F800.0
G01 X48.53 F800.0
G01 X48.41 Y20.59 F800.0
G01 X48.35 Y20.71 F800.0
G01 F800.0
M5
G00 X47.96 Y21.73 F1500.0
M4 S700 F1500.0
G01 F800.0
G01 Y21.41 F800.0
G01 X47.94 Y21.3 F800.0
G01 X47.89 Y21.22 F800.0
G01 X47.94 Y21.14 F800.0
G01 X47.96 Y21.05 F800.0
G01 Y20.71 F800.0
G01 X47.91 Y20.59 F800.0
G01 X47.78 Y20.54 F800.0
G01 X47.17 F800.0
G01 X47.11 Y20.56 F800.0
G01 X47.08 Y20.62 F800.0
G01 X47.11 Y20.68 F800.0
G01 X47.17 Y20.71 F800.0
G01 X47.78 F800.0
G01 Y21.05 F800.0
G01 X47.76 Y21.11 F800.0
G01 X47.69 Y21.14 F800.0
G01 X47.34 F800.0
G01 X47.28 Y21.16 F800.0
G01 X47.26 Y21.22 F800.0
G01 X47.28 Y21.28 F800.0
G01 X47.34 Y21.31 F800.0
G01 X47.7 F800.0
G01 X47.76 Y21.34 F800.0
G01 X47.78 Y21.4 F800.0
G01 Y21.73 F800.0
G01 X47.16 F800.0
G01 X47.1 Y21.76 F800.0
G01 X47.08 Y21.82 F800.0
G01 X47.1 Y21.88 F800.0
G01 X47.16 Y21.91 F800.0
G01 X47.78 F800.0
G01 X47.91 Y21.85 F800.0
G01 X47.96 Y21.73 F800.0
G01 F800.0
M5
G00 X47.87 Y23.18 F1500.0
M4 S700 F1500.0
G01 F800.0
G01 X47.08 F800.0
G01 Y23.78 F800.0
G01 X47.13 Y23.91 F800.0
G01 X47.25 Y23.96 F800.0
G01 X47.78 F800.0
G01 Y24.38 F800.0
G01 X47.16 F800.0
G01 X47.1 Y24.4 F800.0
G01 X47.07 Y24.47 F800.0
G01 X47.1 Y24.53 F800.0
G01 X47.16 Y24.55 F800.0
G01 X47.78 F800.0
G01 X47.9 Y24.5 F800.0
G01 X47.96 Y24.38 F800.0
G01 Y23.96 F800.0
G01 X47.9 Y23.83 F800.0
G01 X47.78 Y23.78 F800.0
G01 X47.25 F800.0
G01 Y23.35 F800.0
G01 X47.87 F800.0
G01 X47.93 Y23.33 F800.0
G01 X47.96 Y23.27 F800.0
G01 X47.93 Y23.21 F800.0
G01 X47.87 Y23.18 F800.0
G01 F800.0
M5
G00 X49.23 Y24.38 F1500.0
M4 S700 F1500.0
G01 F800.0
G01 Y24.05 F800.0
G01 X49.22 Y23.95 F800.0
G01 X49.16 Y23.87 F800.0
G01 X49.22 Y23.79 F800.0
G01 X49.24 Y23.69 F800.0
G01 Y23.35 F800.0
G01 X49.19 Y23.23 F800.0
G01 X49.06 Y23.18 F800.0
G01 X48.45 F800.0
G01 X48.38 Y23.21 F800.0
G01 X48.36 Y23.27 F800.0
G01 X48.38 Y23.33 F800.0
G01 X48.45 Y23.35 F800.0
G01 X49.06 F800.0
G01 Y23.69 F800.0
G01 X49.03 Y23.76 F800.0
G01 X48.97 Y23.78 F800.0
G01 X48.62 F800.0
G01 X48.56 Y23.81 F800.0
G01 X48.54 Y23.87 F800.0
G01 X48.56 Y23.93 F800.0
G01 X48.62 Y23.96 F800.0
G01 X48.97 F800.0
G01 X49.03 Y23.98 F800.0
G01 X49.06 Y24.04 F800.0
G01 Y24.38 F800.0
G01 X48.44 F800.0
G01 X48.38 Y24.4 F800.0
G01 X48.35 Y24.47 F800.0
G01 X48.38 Y24.53 F800.0
G01 X48.44 Y24.55 F800.0
G01 X49.06 F800.0
G01 X49.18 Y24.5 F800.0
G01 X49.23 Y24.38 F800.0
G01 F800.0
M5
G00 X49.99 Y24.55 F1500.0
M4 S700 F1500.0
G01 F800.0
G01 X50.17 F800.0
G01 X50.23 Y24.53 F800.0
G01 X50.25 Y24.47 F800.0
G01 Y24.44 F800.0
G01 X50.08 Y23.85 F800.0
G01 X50.05 Y23.8 F800.0
G01 X49.99 Y23.78 F800.0
G01 X49.93 Y23.81 F800.0
G01 X49.9 Y23.87 F800.0
G01 Y24.46 F800.0
G01 X49.93 Y24.52 F800.0
G01 X49.99 Y24.55 F800.0
G01 F800.0
M5
G00 X52.51 Y23.35 F1500.0
M4 S700 F1500.0
G01 F800.0
G01 X52.91 F800.0
G01 Y23.78 F800.0
G01 X52.39 F800.0
G01 Y24.55 F800.0
G01 X53.0 F800.0
G01 X53.06 Y24.53 F800.0
G01 X53.09 Y24.47 F800.0
G01 X53.06 Y24.4 F800.0
G01 X53.0 Y24.38 F800.0
G01 X52.57 F800.0
G01 Y23.95 F800.0
G01 X52.91 F800.0
G01 X53.04 Y23.9 F800.0
G01 X53.09 Y23.78 F800.0
G01 Y23.35 F800.0
G01 X53.04 Y23.23 F800.0
G01 X52.91 Y23.18 F800.0
G01 X52.51 F800.0
G01 X52.4 Y23.21 F800.0
G01 X52.27 Y23.26 F800.0
G01 X52.23 Y23.29 F800.0
G01 X52.21 Y23.34 F800.0
G01 X52.24 Y23.41 F800.0
G01 X52.3 Y23.43 F800.0
G01 X52.36 Y23.42 F800.0
G01 X52.47 Y23.37 F800.0
G01 X52.51 Y23.35 F800.0
G01 F800.0
M5
G00 X45.36 Y24.08 F1500.0
M4 S700 F1500.0
G01 F800.0
G01 X45.33 Y23.97 F800.0
G01 X45.25 Y23.87 F800.0
G01 X45.13 Y23.79 F800.0
G01 X45.02 Y23.77 F800.0
G01 X44.9 F800.0
G01 X44.78 Y23.79 F800.0
G01 X44.67 Y23.87 F800.0
G01 X44.59 Y23.97 F800.0
G01 X44.56 Y24.08 F800.0
G01 Y24.24 F800.0
G01 X44.59 Y24.35 F800.0
G01 X44.67 Y24.45 F800.0
G01 X44.78 Y24.53 F800.0
G01 X44.9 Y24.55 F800.0
G01 X45.02 F800.0
G01 X45.14 Y24.53 F800.0
G01 X45.25 Y24.45 F800.0
G01 X45.33 Y24.35 F800.0
G01 X45.36 Y24.24 F800.0
G01 Y24.08 F800.0
M5
G00 X45.18 Y24.09 F1500.0
M4 S700 F1500.0
G01 F800.0
G01 Y24.23 F800.0
G01 X45.15 Y24.31 F800.0
G01 X45.09 Y24.35 F800.0
G01 X45.02 Y24.38 F800.0
G01 X44.92 F800.0
G01 X44.83 Y24.35 F800.0
G01 X44.77 Y24.3 F800.0
G01 X44.74 Y24.23 F800.0
G01 Y24.09 F800.0
G01 X44.77 Y24.02 F800.0
G01 X44.84 Y23.96 F800.0
G01 X44.9 Y23.94 F800.0
G01 X45.02 F800.0
G01 X45.1 Y23.97 F800.0
G01 X45.15 Y24.02 F800.0
G01 X45.18 Y24.09 F800.0
G01 F800.0
M5
G00 X43.81 Y23.27 F1500.0
M4 S700 F1500.0
G01 F800.0
G01 Y23.63 F800.0
G01 X43.29 F800.0
G01 Y24.47 F800.0
G01 X43.32 Y24.53 F800.0
G01 X43.38 Y24.55 F800.0
G01 X43.44 Y24.53 F800.0
G01 X43.47 Y24.47 F800.0
G01 Y23.81 F800.0
G01 X43.81 F800.0
G01 Y24.31 F800.0
G01 X43.84 Y24.38 F800.0
G01 X43.9 Y24.4 F800.0
G01 X43.96 Y24.38 F800.0
G01 X43.99 Y24.31 F800.0
G01 Y23.81 F800.0
G01 X44.05 Y23.78 F800.0
G01 X44.07 Y23.72 F800.0
G01 X44.05 Y23.66 F800.0
G01 X43.99 Y23.63 F800.0
G01 Y23.27 F800.0
G01 X43.96 Y23.21 F800.0
G01 X43.9 Y23.18 F800.0
G01 X43.84 Y23.21 F800.0
G01 X43.81 Y23.27 F800.0
G01 F800.0
M5
G00 X42.53 Y23.27 F1500.0
M4 S700 F1500.0
G01 F800.0
G01 Y23.63 F800.0
G01 X42.01 F800.0
G01 Y24.47 F800.0
G01 X42.04 Y24.53 F800.0
G01 X42.1 Y24.55 F800.0
G01 X42.16 Y24.53 F800.0
G01 X42.19 Y24.47 F800.0
G01 Y23.81 F800.0
G01 X42.53 F800.0
G01 Y24.31 F800.0
G01 X42.56 Y24.38 F800.0
G01 X42.62 Y24.4 F800.0
G01 X42.68 Y24.38 F800.0
G01 X42.71 Y24.31 F800.0
G01 Y23.81 F800.0
G01 X42.77 Y23.78 F800.0
G01 X42.8 Y23.72 F800.0
G01 X42.77 Y23.66 F800.0
G01 X42.71 Y23.63 F800.0
G01 Y23.27 F800.0
G01 X42.68 Y23.21 F800.0
G01 X42.62 Y23.18 F800.0
G01 X42.56 Y23.21 F800.0
G01 X42.53 Y23.27 F800.0
G01 F800.0
M5
G00 X43.33 Y20.71 F1500.0
M4 S700 F1500.0
G01 F800.0
G01 X43.59 F800.0
G01 Y20.72 F800.0
G01 Y21.73 F800.0
G01 X43.33 F800.0
G01 X43.27 Y21.76 F800.0
G01 X43.24 Y21.82 F800.0
G01 X43.27 Y21.88 F800.0
G01 X43.33 Y21.91 F800.0
G01 X43.77 F800.0
G01 Y21.81 F800.0
G01 Y20.71 F800.0
G01 X43.94 F800.0
G01 Y21.07 F800.0
G01 X43.97 Y21.13 F800.0
G01 X44.03 Y21.16 F800.0
G01 X44.09 Y21.13 F800.0
G01 X44.11 Y21.07 F800.0
G01 Y20.62 F800.0
G01 X44.09 Y20.56 F800.0
G01 X44.03 Y20.54 F800.0
G01 X43.33 F800.0
G01 X43.27 Y20.56 F800.0
G01 X43.24 Y20.62 F800.0
G01 X43.27 Y20.68 F800.0
G01 X43.33 Y20.71 F800.0
G01 F800.0
M5
G00 X42.76 Y20.54 F1500.0
M4 S700 F1500.0
G01 F800.0
G01 X41.97 F800.0
G01 Y21.13 F800.0
G01 X42.02 Y21.26 F800.0
G01 X42.14 Y21.31 F800.0
G01 X42.67 F800.0
G01 Y21.73 F800.0
G01 X42.05 F800.0
G01 X41.98 Y21.76 F800.0
G01 X41.96 Y21.82 F800.0
G01 X41.98 Y21.88 F800.0
G01 X42.05 Y21.91 F800.0
G01 X42.67 F800.0
G01 X42.79 Y21.85 F800.0
G01 X42.84 Y21.73 F800.0
G01 Y21.31 F800.0
G01 X42.79 Y21.19 F800.0
G01 X42.67 Y21.13 F800.0
G01 X42.14 F800.0
G01 Y20.71 F800.0
G01 X42.76 F800.0
G01 X42.82 Y20.68 F800.0
G01 X42.84 Y20.62 F800.0
G01 X42.82 Y20.56 F800.0
G01 X42.76 Y20.54 F800.0
G01 F800.0
M5
G00 X40.77 Y20.71 F1500.0
M4 S700 F1500.0
G01 F800.0
G01 X41.04 F800.0
G01 Y20.72 F800.0
G01 Y21.73 F800.0
G01 X40.77 F800.0
G01 X40.71 Y21.76 F800.0
G01 X40.69 Y21.82 F800.0
G01 X40.71 Y21.88 F800.0
G01 X40.77 Y21.91 F800.0
G01 X41.21 F800.0
G01 Y21.81 F800.0
G01 Y20.71 F800.0
G01 X41.38 F800.0
G01 Y21.07 F800.0
G01 X41.41 Y21.13 F800.0
G01 X41.47 Y21.16 F800.0
G01 X41.53 Y21.13 F800.0
G01 X41.56 Y21.07 F800.0
G01 Y20.62 F800.0
G01 X41.53 Y20.56 F800.0
G01 X41.47 Y20.54 F800.0
G01 X40.77 F800.0
G01 X40.71 Y20.56 F800.0
G01 X40.68 Y20.62 F800.0
G01 X40.71 Y20.68 F800.0
G01 X40.77 Y20.71 F800.0
G01 F800.0
M5
G00 X38.48 Y21.08 F1500.0
M4 S700 F1500.0
G01 F800.0
G01 X38.66 F800.0
G01 X38.72 Y21.06 F800.0
G01 X38.74 Y20.99 F800.0
G01 Y20.85 F800.0
G01 X38.72 Y20.78 F800.0
G01 X38.66 Y20.76 F800.0
G01 X38.48 F800.0
G01 X38.42 Y20.78 F800.0
G01 X38.4 Y20.84 F800.0
G01 Y20.99 F800.0
G01 X38.42 Y21.06 F800.0
G01 X38.48 Y21.08 F800.0
G01 F800.0
M5
G00 X38.48 Y21.68 F1500.0
M4 S700 F1500.0
G01 F800.0
G01 X38.66 F800.0
G01 X38.72 Y21.65 F800.0
G01 X38.74 Y21.59 F800.0
G01 Y21.44 F800.0
G01 X38.72 Y21.38 F800.0
G01 X38.66 Y21.36 F800.0
G01 X38.48 F800.0
G01 X38.42 Y21.38 F800.0
G01 X38.4 Y21.44 F800.0
G01 Y21.59 F800.0
G01 X38.42 Y21.66 F800.0
G01 X38.48 Y21.68 F800.0
G01 F800.0
M5
G00 X37.73 Y21.2 F1500.0
M4 S700 F1500.0
G01 F800.0
G01 Y20.99 F800.0
G01 X37.7 Y20.93 F800.0
G01 X37.64 Y20.91 F800.0
G01 X37.03 F800.0
G01 Y20.86 F800.0
G01 X37.07 Y20.78 F800.0
G01 X37.12 Y20.74 F800.0
G01 X37.2 Y20.71 F800.0
G01 X37.64 F800.0
G01 X37.7 Y20.68 F800.0
G01 X37.73 Y20.62 F800.0
G01 X37.7 Y20.56 F800.0
G01 X37.64 Y20.53 F800.0
G01 X37.18 F800.0
G01 X37.09 Y20.55 F800.0
G01 X37.01 Y20.59 F800.0
G01 X36.94 Y20.66 F800.0
G01 X36.88 Y20.74 F800.0
G01 X36.85 Y20.84 F800.0
G01 Y21.23 F800.0
G01 X36.88 Y21.33 F800.0
G01 X36.95 Y21.42 F800.0
G01 X37.02 Y21.47 F800.0
G01 X37.17 Y21.53 F800.0
G01 X37.42 F800.0
G01 X37.51 Y21.51 F800.0
G01 X37.59 Y21.45 F800.0
G01 X37.66 Y21.39 F800.0
G01 X37.71 Y21.31 F800.0
G01 X37.73 Y21.2 F800.0
G01 F800.0
M5
G00 X37.03 Y21.22 F1500.0
M4 S700 F1500.0
G01 F800.0
G01 Y21.08 F800.0
G01 X37.56 F800.0
G01 Y21.2 F800.0
G01 X37.53 Y21.28 F800.0
G01 X37.48 Y21.32 F800.0
G01 X37.41 Y21.35 F800.0
G01 X37.19 F800.0
G01 X37.11 Y21.33 F800.0
G01 X37.06 Y21.28 F800.0
G01 X37.03 Y21.22 F800.0
G01 F800.0
M5
G00 X36.27 Y21.41 F1500.0
M4 S700 F1500.0
G01 F800.0
G01 Y21.82 F800.0
G01 X36.3 Y21.88 F800.0
G01 X36.36 Y21.91 F800.0
G01 X36.42 Y21.88 F800.0
G01 X36.45 Y21.82 F800.0
G01 Y21.72 F800.0
G01 Y20.62 F800.0
G01 X36.42 Y20.56 F800.0
G01 X36.36 Y20.53 F800.0
G01 X36.3 Y20.56 F800.0
G01 X36.27 Y20.62 F800.0
G01 Y20.66 F800.0
G01 X36.15 Y20.56 F800.0
G01 X36.04 Y20.53 F800.0
G01 X35.89 F800.0
G01 X35.8 Y20.55 F800.0
G01 X35.71 Y20.61 F800.0
G01 X35.64 Y20.67 F800.0
G01 X35.59 Y20.75 F800.0
G01 X35.57 Y20.85 F800.0
G01 Y21.21 F800.0
G01 X35.59 Y21.32 F800.0
G01 X35.65 Y21.41 F800.0
G01 X35.72 Y21.47 F800.0
G01 X35.81 Y21.52 F800.0
G01 X35.9 Y21.53 F800.0
G01 X36.03 F800.0
G01 X36.13 Y21.52 F800.0
G01 X36.21 Y21.46 F800.0
G01 X36.27 Y21.41 F800.0
M5
G00 X36.02 Y21.36 F1500.0
M4 S700 F1500.0
G01 F800.0
G01 X35.9 F800.0
G01 X35.83 Y21.33 F800.0
G01 X35.78 Y21.28 F800.0
G01 X35.75 Y21.22 F800.0
G01 Y20.85 F800.0
G01 X35.78 Y20.78 F800.0
G01 X35.84 Y20.73 F800.0
G01 X35.9 Y20.71 F800.0
G01 X36.04 F800.0
G01 X36.1 Y20.74 F800.0
G01 X36.24 Y20.85 F800.0
G01 X36.27 Y20.93 F800.0
G01 Y21.12 F800.0
G01 X36.24 Y21.21 F800.0
G01 X36.1 Y21.33 F800.0
G01 X36.02 Y21.36 F800.0
G01 F800.0
M5
G00 X34.71 Y20.71 F1500.0
M4 S700 F1500.0
G01 F800.0
G01 X35.0 Y20.9 F800.0
G01 Y21.44 F800.0
G01 X35.03 Y21.51 F800.0
G01 X35.09 Y21.53 F800.0
G01 X35.15 Y21.51 F800.0
G01 X35.17 Y21.44 F800.0
G01 Y20.62 F800.0
G01 X35.15 Y20.56 F800.0
G01 X35.09 Y20.53 F800.0
G01 X35.03 Y20.56 F800.0
G01 X35.0 Y20.62 F800.0
G01 Y20.69 F800.0
G01 X34.85 Y20.59 F800.0
G01 X34.67 Y20.53 F800.0
G01 X34.59 F800.0
G01 X34.49 Y20.55 F800.0
G01 X34.41 Y20.61 F800.0
G01 X34.35 Y20.69 F800.0
G01 X34.33 Y20.79 F800.0
G01 X34.3 Y21.44 F800.0
G01 X34.33 Y21.5 F800.0
G01 X34.39 Y21.53 F800.0
G01 X34.45 Y21.51 F800.0
G01 X34.48 Y21.44 F800.0
G01 X34.5 Y20.8 F800.0
G01 X34.53 Y20.73 F800.0
G01 X34.6 Y20.71 F800.0
G01 X34.71 F800.0
M5
G00 X33.63 Y20.53 F1500.0
M4 S700 F1500.0
G01 F800.0
G01 X33.45 F800.0
G01 X33.35 Y20.55 F800.0
G01 X33.27 Y20.61 F800.0
G01 X33.21 Y20.69 F800.0
G01 X33.19 Y20.79 F800.0
G01 Y21.36 F800.0
G01 X33.1 F800.0
G01 X33.04 Y21.38 F800.0
G01 X33.02 Y21.44 F800.0
G01 X33.04 Y21.51 F800.0
G01 X33.1 Y21.53 F800.0
G01 X33.19 F800.0
G01 Y21.74 F800.0
G01 X33.22 Y21.8 F800.0
G01 X33.28 Y21.83 F800.0
G01 X33.34 Y21.8 F800.0
G01 X33.37 Y21.74 F800.0
G01 Y21.53 F800.0
G01 X33.72 F800.0
G01 X33.78 Y21.51 F800.0
G01 X33.8 Y21.44 F800.0
G01 X33.78 Y21.38 F800.0
G01 X33.72 Y21.36 F800.0
G01 X33.37 F800.0
G01 Y20.79 F800.0
G01 X33.39 Y20.73 F800.0
G01 X33.45 Y20.71 F800.0
G01 X33.62 F800.0
G01 X33.68 Y20.73 F800.0
G01 X33.72 Y20.78 F800.0
G01 X33.75 Y20.84 F800.0
G01 X33.8 Y20.86 F800.0
G01 X33.87 Y20.83 F800.0
G01 X33.89 Y20.77 F800.0
G01 X33.87 Y20.69 F800.0
G01 X33.82 Y20.61 F800.0
G01 X33.73 Y20.55 F800.0
G01 X33.63 Y20.53 F800.0
G01 F800.0
M5
G00 X32.44 Y20.54 F1500.0
M4 S700 F1500.0
G01 F800.0
G01 X31.91 F800.0
G01 X31.85 Y20.56 F800.0
G01 X31.82 Y20.62 F800.0
G01 X31.85 Y20.68 F800.0
G01 X31.91 Y20.71 F800.0
G01 X32.09 F800.0
G01 Y21.36 F800.0
G01 X31.91 F800.0
G01 X31.85 Y21.38 F800.0
G01 X31.83 Y21.44 F800.0
G01 X31.85 Y21.51 F800.0
G01 X31.91 Y21.53 F800.0
G01 X32.18 F800.0
G01 X32.24 Y21.51 F800.0
G01 X32.27 Y21.44 F800.0
G01 Y20.71 F800.0
G01 X32.44 F800.0
G01 X32.5 Y20.68 F800.0
G01 X32.53 Y20.62 F800.0
G01 X32.5 Y20.56 F800.0
G01 X32.44 Y20.54 F800.0
G01 F800.0
M5
G00 X31.01 Y20.16 F1500.0
M4 S700 F1500.0
G01 F800.0
G01 X30.63 F800.0
G01 X30.57 Y20.19 F800.0
G01 X30.54 Y20.25 F800.0
G01 X30.57 Y20.31 F800.0
G01 X30.63 Y20.33 F800.0
G01 X31.01 F800.0
G01 X31.07 Y20.36 F800.0
G01 X31.13 Y20.41 F800.0
G01 X31.16 Y20.47 F800.0
G01 Y20.73 F800.0
G01 X31.04 Y20.64 F800.0
G01 X30.92 Y20.61 F800.0
G01 X30.79 F800.0
G01 X30.69 Y20.63 F800.0
G01 X30.6 Y20.68 F800.0
G01 X30.54 Y20.74 F800.0
G01 X30.48 Y20.82 F800.0
G01 X30.46 Y20.92 F800.0
G01 Y21.21 F800.0
G01 X30.48 Y21.32 F800.0
G01 X30.54 Y21.41 F800.0
G01 X30.61 Y21.47 F800.0
G01 X30.69 Y21.52 F800.0
G01 X30.79 Y21.53 F800.0
G01 X30.91 F800.0
G01 X31.01 Y21.52 F800.0
G01 X31.1 Y21.46 F800.0
G01 X31.16 Y21.41 F800.0
G01 Y21.44 F800.0
G01 X31.18 Y21.51 F800.0
G01 X31.25 Y21.53 F800.0
G01 X31.31 Y21.51 F800.0
G01 X31.33 Y21.44 F800.0
G01 Y20.47 F800.0
G01 X31.31 Y20.37 F800.0
G01 X31.25 Y20.28 F800.0
G01 X31.18 Y20.22 F800.0
G01 X31.1 Y20.18 F800.0
G01 X31.01 Y20.16 F800.0
G01 F800.0
M5
G00 X30.91 Y21.36 F1500.0
M4 S700 F1500.0
G01 F800.0
G01 X30.79 F800.0
G01 X30.72 Y21.33 F800.0
G01 X30.66 Y21.28 F800.0
G01 X30.63 Y21.22 F800.0
G01 Y20.92 F800.0
G01 X30.67 Y20.86 F800.0
G01 X30.72 Y20.81 F800.0
G01 X30.78 Y20.79 F800.0
G01 X30.92 F800.0
G01 X30.99 Y20.82 F800.0
G01 X31.13 Y20.93 F800.0
G01 X31.16 Y21.0 F800.0
G01 Y21.13 F800.0
G01 X31.12 Y21.21 F800.0
G01 X30.98 Y21.33 F800.0
G01 X30.91 Y21.36 F800.0
G01 F800.0
M5
G00 X29.59 Y21.33 F1500.0
M4 S700 F1500.0
G01 F800.0
G01 X29.36 Y21.17 F800.0
G01 Y20.62 F800.0
G01 X29.33 Y20.56 F800.0
G01 X29.27 Y20.53 F800.0
G01 X29.21 Y20.56 F800.0
G01 X29.18 Y20.62 F800.0
G01 Y21.44 F800.0
G01 X29.21 Y21.51 F800.0
G01 X29.27 Y21.53 F800.0
G01 X29.33 Y21.51 F800.0
G01 X29.36 Y21.44 F800.0
G01 Y21.39 F800.0
G01 X29.52 Y21.48 F800.0
G01 X29.7 Y21.53 F800.0
G01 X29.77 F800.0
G01 X29.87 Y21.52 F800.0
G01 X29.95 Y21.46 F800.0
G01 X30.01 Y21.38 F800.0
G01 X30.03 Y21.28 F800.0
G01 X30.06 Y20.62 F800.0
G01 X30.03 Y20.56 F800.0
G01 X29.97 Y20.53 F800.0
G01 X29.91 Y20.56 F800.0
G01 X29.88 Y20.62 F800.0
G01 X29.86 Y21.27 F800.0
G01 X29.83 Y21.34 F800.0
G01 X29.76 Y21.36 F800.0
G01 X29.68 F800.0
G01 X29.59 Y21.33 F800.0
G01 F800.0
M5
G00 X28.78 Y21.22 F1500.0
M4 S700 F1500.0
G01 F800.0
G01 Y20.85 F800.0
G01 X28.75 Y20.74 F800.0
G01 X28.67 Y20.63 F800.0
G01 X28.56 Y20.56 F800.0
G01 X28.44 Y20.54 F800.0
G01 X28.24 F800.0
G01 X28.12 Y20.56 F800.0
G01 X28.01 Y20.64 F800.0
G01 X27.93 Y20.74 F800.0
G01 X27.9 Y20.85 F800.0
G01 Y21.22 F800.0
G01 X27.93 Y21.33 F800.0
G01 X28.01 Y21.43 F800.0
G01 X28.12 Y21.51 F800.0
G01 X28.24 Y21.53 F800.0
G01 X28.44 F800.0
G01 X28.56 Y21.51 F800.0
G01 X28.67 Y21.44 F800.0
G01 X28.75 Y21.33 F800.0
G01 X28.78 Y21.22 F800.0
G01 F800.0
M5
G00 X28.08 Y21.21 F1500.0
M4 S700 F1500.0
G01 F800.0
G01 Y20.86 F800.0
G01 X28.11 Y20.78 F800.0
G01 X28.18 Y20.73 F800.0
G01 X28.24 Y20.71 F800.0
G01 X28.44 F800.0
G01 X28.52 Y20.74 F800.0
G01 X28.57 Y20.79 F800.0
G01 X28.61 Y20.86 F800.0
G01 Y21.21 F800.0
G01 X28.57 Y21.28 F800.0
G01 X28.51 Y21.33 F800.0
G01 X28.44 Y21.36 F800.0
G01 X28.26 F800.0
G01 X28.17 Y21.33 F800.0
G01 X28.11 Y21.28 F800.0
G01 X28.08 Y21.21 F800.0
G01 F800.0
M5
G00 X26.63 Y20.53 F1500.0
M4 S700 F1500.0
G01 F800.0
G01 Y20.68 F800.0
G01 Y21.82 F800.0
G01 X26.65 Y21.88 F800.0
G01 X26.71 Y21.91 F800.0
G01 X26.77 Y21.88 F800.0
G01 X26.8 Y21.82 F800.0
G01 Y21.76 F800.0
G01 Y20.71 F800.0
G01 X27.41 F800.0
G01 X27.48 Y20.68 F800.0
G01 X27.5 Y20.62 F800.0
G01 X27.48 Y20.56 F800.0
G01 X27.41 Y20.53 F800.0
G01 X26.63 F800.0
M5
G00 X26.63 Y23.18 F1500.0
M4 S700 F1500.0
G01 F800.0
G01 Y23.32 F800.0
G01 Y24.47 F800.0
G01 X26.65 Y24.53 F800.0
G01 X26.71 Y24.55 F800.0
G01 X26.77 Y24.53 F800.0
G01 X26.8 Y24.47 F800.0
G01 Y24.41 F800.0
G01 Y23.35 F800.0
G01 X27.41 F800.0
G01 X27.48 Y23.33 F800.0
G01 X27.5 Y23.27 F800.0
G01 X27.48 Y23.2 F800.0
G01 X27.41 Y23.18 F800.0
G01 X26.63 F800.0
M5
G00 X28.16 Y23.81 F1500.0
M4 S700 F1500.0
G01 F800.0
G01 X28.5 F800.0
G01 X28.58 Y23.79 F800.0
G01 Y23.92 F800.0
G01 X28.56 Y23.98 F800.0
G01 X28.5 Y24.0 F800.0
G01 X28.16 F800.0
G01 X28.1 Y24.03 F800.0
G01 X28.08 Y24.09 F800.0
G01 X28.1 Y24.15 F800.0
G01 X28.16 Y24.18 F800.0
G01 X28.5 F800.0
G01 X28.59 Y24.16 F800.0
G01 X28.68 Y24.1 F800.0
G01 X28.74 Y24.02 F800.0
G01 X28.76 Y23.92 F800.0
G01 X28.78 Y23.27 F800.0
G01 X28.75 Y23.2 F800.0
G01 X28.69 Y23.18 F800.0
G01 X28.63 Y23.2 F800.0
G01 X28.6 Y23.27 F800.0
G01 X28.46 Y23.18 F800.0
G01 X28.16 F800.0
G01 X28.06 Y23.2 F800.0
G01 X27.98 Y23.26 F800.0
G01 X27.92 Y23.34 F800.0
G01 X27.9 Y23.44 F800.0
G01 Y23.54 F800.0
G01 X27.92 Y23.64 F800.0
G01 X27.98 Y23.73 F800.0
G01 X28.06 Y23.79 F800.0
G01 X28.16 Y23.81 F800.0
G01 F800.0
M5
G00 X28.6 Y23.47 F1500.0
M4 S700 F1500.0
G01 F800.0
G01 X28.59 Y23.54 F800.0
G01 X28.57 Y23.6 F800.0
G01 X28.5 Y23.63 F800.0
G01 X28.16 F800.0
G01 X28.1 Y23.6 F800.0
G01 X28.08 Y23.54 F800.0
G01 Y23.44 F800.0
G01 X28.1 Y23.38 F800.0
G01 X28.16 Y23.36 F800.0
G01 X28.41 F800.0
G01 X28.6 Y23.47 F800.0
M5
G00 X29.79 Y23.18 F1500.0
M4 S700 F1500.0
G01 F800.0
G01 X29.62 F800.0
G01 X29.52 Y23.2 F800.0
G01 X29.43 Y23.26 F800.0
G01 X29.38 Y23.34 F800.0
G01 X29.36 Y23.44 F800.0
G01 Y24.0 F800.0
G01 X29.27 F800.0
G01 X29.21 Y24.03 F800.0
G01 X29.18 Y24.09 F800.0
G01 X29.21 Y24.15 F800.0
G01 X29.27 Y24.18 F800.0
G01 X29.36 F800.0
G01 Y24.39 F800.0
G01 X29.38 Y24.45 F800.0
G01 X29.45 Y24.48 F800.0
G01 X29.51 Y24.45 F800.0
G01 X29.53 Y24.39 F800.0
G01 Y24.18 F800.0
G01 X29.88 F800.0
G01 X29.94 Y24.15 F800.0
G01 X29.97 Y24.09 F800.0
G01 X29.94 Y24.03 F800.0
G01 X29.88 Y24.0 F800.0
G01 X29.53 F800.0
G01 Y23.44 F800.0
G01 X29.56 Y23.38 F800.0
G01 X29.62 Y23.35 F800.0
G01 X29.79 F800.0
G01 X29.85 Y23.37 F800.0
G01 X29.88 Y23.43 F800.0
G01 X29.91 Y23.48 F800.0
G01 X29.97 Y23.5 F800.0
G01 X30.03 Y23.48 F800.0
G01 X30.05 Y23.41 F800.0
G01 X30.04 Y23.34 F800.0
G01 X29.98 Y23.26 F800.0
G01 X29.9 Y23.2 F800.0
G01 X29.79 Y23.18 F800.0
G01 F800.0
M5
G00 X31.16 Y23.18 F1500.0
M4 S700 F1500.0
G01 F800.0
G01 X30.63 F800.0
G01 X30.57 Y23.21 F800.0
G01 X30.55 Y23.27 F800.0
G01 X30.57 Y23.33 F800.0
G01 X30.63 Y23.35 F800.0
G01 X30.81 F800.0
G01 Y24.0 F800.0
G01 X30.64 F800.0
G01 X30.57 Y24.03 F800.0
G01 X30.55 Y24.09 F800.0
G01 X30.57 Y24.15 F800.0
G01 X30.64 Y24.18 F800.0
G01 X30.9 F800.0
G01 X30.96 Y24.15 F800.0
G01 X30.99 Y24.09 F800.0
G01 Y23.35 F800.0
G01 X31.16 F800.0
G01 X31.22 Y23.33 F800.0
G01 X31.25 Y23.27 F800.0
G01 X31.22 Y23.21 F800.0
G01 X31.16 Y23.18 F800.0
G01 F800.0
M5
G00 X32.35 Y23.18 F1500.0
M4 S700 F1500.0
G01 F800.0
G01 X32.18 F800.0
G01 X32.08 Y23.2 F800.0
G01 X31.99 Y23.26 F800.0
G01 X31.93 Y23.34 F800.0
G01 X31.91 Y23.44 F800.0
G01 Y24.0 F800.0
G01 X31.82 F800.0
G01 X31.76 Y24.03 F800.0
G01 X31.74 Y24.09 F800.0
G01 X31.76 Y24.15 F800.0
G01 X31.82 Y24.18 F800.0
G01 X31.92 F800.0
G01 Y24.39 F800.0
G01 X31.94 Y24.45 F800.0
G01 X32.0 Y24.48 F800.0
G01 X32.06 Y24.45 F800.0
G01 X32.09 Y24.39 F800.0
G01 Y24.18 F800.0
G01 X32.44 F800.0
G01 X32.5 Y24.15 F800.0
G01 X32.52 Y24.09 F800.0
G01 X32.5 Y24.03 F800.0
G01 X32.44 Y24.0 F800.0
G01 X32.09 F800.0
G01 Y23.44 F800.0
G01 X32.11 Y23.38 F800.0
G01 X32.18 Y23.35 F800.0
G01 X32.35 F800.0
G01 X32.4 Y23.37 F800.0
G01 X32.44 Y23.43 F800.0
G01 X32.47 Y23.48 F800.0
G01 X32.52 Y23.5 F800.0
G01 X32.59 Y23.48 F800.0
G01 X32.61 Y23.41 F800.0
G01 X32.59 Y23.34 F800.0
G01 X32.54 Y23.26 F800.0
G01 X32.45 Y23.2 F800.0
G01 X32.35 Y23.18 F800.0
G01 F800.0
M5
G00 X33.43 Y23.35 F1500.0
M4 S700 F1500.0
G01 F800.0
G01 X33.72 Y23.54 F800.0
G01 Y24.09 F800.0
G01 X33.75 Y24.15 F800.0
G01 X33.81 Y24.18 F800.0
G01 X33.87 Y24.15 F800.0
G01 X33.9 Y24.09 F800.0
G01 Y23.27 F800.0
G01 X33.87 Y23.2 F800.0
G01 X33.81 Y23.18 F800.0
G01 X33.75 Y23.2 F800.0
G01 X33.72 Y23.27 F800.0
G01 Y23.33 F800.0
G01 X33.57 Y23.24 F800.0
G01 X33.39 Y23.18 F800.0
G01 X33.31 F800.0
G01 X33.21 Y23.2 F800.0
G01 X33.13 Y23.25 F800.0
G01 X33.07 Y23.34 F800.0
G01 X33.05 Y23.44 F800.0
G01 X33.02 Y24.09 F800.0
G01 X33.05 Y24.15 F800.0
G01 X33.11 Y24.18 F800.0
G01 X33.17 Y24.15 F800.0
G01 X33.2 Y24.09 F800.0
G01 X33.22 Y23.45 F800.0
G01 X33.25 Y23.38 F800.0
G01 X33.33 Y23.35 F800.0
G01 X33.43 F800.0
M5
G00 X34.74 Y24. F1500.0
M4 S700 F1500.0
G01 F800.0
G01 X34.62 F800.0
G01 X34.55 Y23.98 F800.0
G01 X34.5 Y23.93 F800.0
G01 X34.47 Y23.86 F800.0
G01 Y23.49 F800.0
G01 X34.5 Y23.43 F800.0
G01 X34.56 Y23.38 F800.0
G01 X34.62 Y23.35 F800.0
G01 X34.76 F800.0
G01 X34.82 Y23.39 F800.0
G01 X34.96 Y23.5 F800.0
G01 X35.0 Y23.58 F800.0
G01 Y23.76 F800.0
G01 X34.96 Y23.86 F800.0
G01 X34.82 Y23.98 F800.0
G01 X34.74 Y24.0 F800.0
G01 F800.0
M5
G00 X35. Y24.06 F1500.0
M4 S700 F1500.0
G01 F800.0
G01 Y24.47 F800.0
G01 X35.02 Y24.53 F800.0
G01 X35.08 Y24.55 F800.0
G01 X35.14 Y24.53 F800.0
G01 X35.17 Y24.47 F800.0
G01 Y24.37 F800.0
G01 Y23.27 F800.0
G01 X35.14 Y23.2 F800.0
G01 X35.08 Y23.18 F800.0
G01 X35.02 Y23.2 F800.0
G01 X35.0 Y23.27 F800.0
G01 Y23.3 F800.0
G01 X34.87 Y23.21 F800.0
G01 X34.76 Y23.18 F800.0
G01 X34.61 F800.0
G01 X34.52 Y23.2 F800.0
G01 X34.43 Y23.26 F800.0
G01 X34.36 Y23.32 F800.0
G01 X34.31 Y23.4 F800.0
G01 X34.29 Y23.5 F800.0
G01 Y23.85 F800.0
G01 X34.32 Y23.97 F800.0
G01 X34.37 Y24.05 F800.0
G01 X34.45 Y24.11 F800.0
G01 X34.53 Y24.16 F800.0
G01 X34.62 Y24.18 F800.0
G01 X34.75 F800.0
G01 X34.85 Y24.16 F800.0
G01 X34.94 Y24.11 F800.0
G01 X35.0 Y24.06 F800.0
M5
G00 X35.75 Y23.86 F1500.0
M4 S700 F1500.0
G01 F800.0
G01 Y23.73 F800.0
G01 X36.28 F800.0
G01 Y23.85 F800.0
G01 X36.25 Y23.92 F800.0
G01 X36.2 Y23.97 F800.0
G01 X36.13 Y24.0 F800.0
G01 X35.91 F800.0
G01 X35.84 Y23.97 F800.0
G01 X35.78 Y23.93 F800.0
G01 X35.75 Y23.86 F800.0
G01 F800.0
M5
G00 X36.45 Y23.85 F1500.0
M4 S700 F1500.0
G01 Y23.64 F800.0
G01 X36.42 Y23.58 F800.0
G01 X36.36 Y23.55 F800.0
G01 X35.75 F800.0
G01 Y23.5 F800.0
G01 X35.79 Y23.43 F800.0
G01 X35.84 Y23.38 F800.0
G01 X35.92 Y23.35 F800.0
G01 X36.36 F800.0
G01 X36.42 Y23.33 F800.0
G01 X36.45 Y23.27 F800.0
G01 X36.42 Y23.2 F800.0
G01 X36.36 Y23.18 F800.0
G01 X35.91 F800.0
G01 X35.81 Y23.2 F800.0
G01 X35.74 Y23.24 F800.0
G01 X35.66 Y23.31 F800.0
G01 X35.6 Y23.39 F800.0
G01 X35.57 Y23.48 F800.0
G01 Y23.88 F800.0
G01 X35.6 Y23.97 F800.0
G01 X35.67 Y24.06 F800.0
G01 X35.74 Y24.12 F800.0
G01 X35.9 Y24.18 F800.0
G01 X36.14 F800.0
G01 X36.23 Y24.16 F800.0
G01 X36.31 Y24.1 F800.0
G01 X36.38 Y24.04 F800.0
G01 X36.43 Y23.96 F800.0
G01 X36.45 Y23.85 F800.0
M5
G00 X38.48 Y23.73 F1500.0
M4 S700 F1500.0
G01 F800.0
G01 X38.66 F800.0
G01 X38.72 Y23.7 F800.0
G01 X38.74 Y23.64 F800.0
G01 Y23.49 F800.0
G01 X38.72 Y23.43 F800.0
G01 X38.66 Y23.4 F800.0
G01 X38.48 F800.0
G01 X38.42 Y23.43 F800.0
G01 X38.4 Y23.49 F800.0
G01 Y23.64 F800.0
G01 X38.42 Y23.7 F800.0
G01 X38.48 Y23.73 F800.0
G01 F800.0
M5
G00 X38.48 Y24.33 F1500.0
M4 S700 F1500.0
G01 F800.0
G01 X38.66 F800.0
G01 X38.72 Y24.3 F800.0
G01 X38.74 Y24.24 F800.0
G01 Y24.09 F800.0
G01 X38.72 Y24.03 F800.0
G01 X38.66 Y24.0 F800.0
G01 X38.48 F800.0
G01 X38.42 Y24.03 F800.0
G01 X38.4 Y24.09 F800.0
G01 Y24.24 F800.0
G01 X38.42 Y24.3 F800.0
G01 X38.48 Y24.33 F800.0
G01 F800.0
M5
G00 X32.09 Y21.98 F1500.0
M4 S700 F1500.0
G01 F800.0
G01 X32.18 F800.0
G01 X32.24 Y21.96 F800.0
G01 X32.27 Y21.9 F800.0
G01 Y21.82 F800.0
G01 X32.24 Y21.76 F800.0
G01 X32.18 Y21.73 F800.0
G01 X32.09 F800.0
G01 X32.02 Y21.76 F800.0
G01 X32.0 Y21.82 F800.0
G01 Y21.9 F800.0
G01 X32.02 Y21.96 F800.0
G01 X32.09 Y21.98 F800.0
G01 F800.0
M5
G00 X30.81 Y24.63 F1500.0
M4 S700 F1500.0
G01 F800.0
G01 X30.9 F800.0
G01 X30.96 Y24.6 F800.0
G01 X30.99 Y24.54 F800.0
G01 Y24.47 F800.0
G01 X30.96 Y24.41 F800.0
G01 X30.9 Y24.38 F800.0
G01 X30.81 F800.0
G01 X30.74 Y24.41 F800.0
G01 X30.72 Y24.47 F800.0
G01 Y24.54 F800.0
G01 X30.75 Y24.6 F800.0
G01 X30.81 Y24.63 F800.0
G01 F800.0
M5
G00 X45.18 Y21.44 F1500.0
M4 S700 F1500.0
G01 F800.0
G01 Y21.58 F800.0
G01 X45.15 Y21.66 F800.0
G01 X45.09 Y21.71 F800.0
G01 X45.02 Y21.73 F800.0
G01 X44.92 F800.0
G01 X44.83 Y21.71 F800.0
G01 X44.77 Y21.66 F800.0
G01 X44.74 Y21.59 F800.0
G01 Y21.45 F800.0
G01 X44.77 Y21.37 F800.0
G01 X44.84 Y21.31 F800.0
G01 X44.9 Y21.3 F800.0
G01 X45.02 F800.0
G01 X45.1 Y21.33 F800.0
G01 X45.15 Y21.37 F800.0
G01 X45.18 Y21.44 F800.0
G01 F800.0
M5
G00 X45.36 Y21.44 F1500.0
M4 S700 F1500.0
G01 F800.0
G01 X45.33 Y21.33 F800.0
G01 X45.25 Y21.22 F800.0
G01 X45.13 Y21.15 F800.0
G01 X45.02 Y21.12 F800.0
G01 X44.9 F800.0
G01 X44.78 Y21.15 F800.0
G01 X44.67 Y21.22 F800.0
G01 X44.59 Y21.33 F800.0
G01 X44.56 Y21.44 F800.0
G01 Y21.59 F800.0
G01 X44.59 Y21.7 F800.0
G01 X44.67 Y21.81 F800.0
G01 X44.78 Y21.88 F800.0
G01 X44.9 Y21.91 F800.0
G01 X45.02 F800.0
G01 X45.14 Y21.88 F800.0
G01 X45.25 Y21.81 F800.0
G01 X45.33 Y21.71 F800.0
G01 X45.36 Y21.59 F800.0
G01 Y21.44 F800.0
M5
G00 X39. Y40.75 F1500.0
M4 S700 F1500.0
G01 F800.0
G01 X38.4 Y41.06 F800.0
G01 X37.8 Y40.75 F800.0
G01 X37.91 Y41.42 F800.0
G01 X37.42 Y41.9 F800.0
G01 X38.1 Y41.99 F800.0
G01 X38.4 Y42.6 F800.0
G01 X38.7 Y41.99 F800.0
G01 X39.38 Y41.9 F800.0
G01 X38.89 Y41.42 F800.0
G01 X39.0 Y40.75 F800.0
M5
G00 X38.4 Y42.55 F1500.0
M4 S700 F1500.0
G01 F800.0
G01 X38.68 Y41.98 F800.0
G01 X38.7 Y41.97 F800.0
G01 X39.33 Y41.88 F800.0
G01 X38.87 Y41.44 F800.0
G01 X38.86 Y41.41 F800.0
G01 X38.97 Y40.79 F800.0
G01 X38.41 Y41.09 F800.0
G01 X38.39 F800.0
G01 X37.83 Y40.79 F800.0
G01 X37.93 Y41.42 F800.0
G01 Y41.44 F800.0
G01 X37.47 Y41.88 F800.0
G01 X38.1 Y41.97 F800.0
G01 X38.12 Y41.98 F800.0
G01 X38.4 Y42.55 F800.0
G01 F800.0
M5
G00 X38.4 Y42.63 F1500.0
M4 S700 F1500.0
G01 F800.0
G01 X38.38 Y42.62 F800.0
G01 X38.08 Y42.02 F800.0
G01 X37.42 Y41.92 F800.0
G01 X37.4 Y41.9 F800.0
G01 X37.41 Y41.88 F800.0
G01 X37.89 Y41.41 F800.0
G01 X37.77 Y40.75 F800.0
G01 X37.78 Y40.73 F800.0
G01 X37.81 F800.0
G01 X38.4 Y41.04 F800.0
G01 X38.99 Y40.73 F800.0
G01 X39.02 F800.0
G01 Y40.75 F800.0
G01 X38.91 Y41.41 F800.0
G01 X39.39 Y41.88 F800.0
G01 X39.4 Y41.9 F800.0
G01 X39.38 Y41.92 F800.0
G01 X38.72 Y42.01 F800.0
G01 X38.42 Y42.62 F800.0
G01 X38.4 Y42.63 F800.0
G01 F800.0
M5
G00 X41.03 Y57.21 F1500.0
M4 S700 F1500.0
G01 F800.0
G01 X40.8 F800.0
G01 X40.66 Y57.23 F800.0
G01 X40.55 Y57.31 F800.0
G01 X40.47 Y57.42 F800.0
G01 X40.45 Y57.56 F800.0
G01 Y58.31 F800.0
G01 X40.33 F800.0
G01 X40.24 Y58.34 F800.0
G01 X40.21 Y58.42 F800.0
G01 X40.24 Y58.5 F800.0
G01 X40.33 Y58.54 F800.0
G01 X40.45 F800.0
G01 Y58.82 F800.0
G01 X40.48 Y58.9 F800.0
G01 X40.56 Y58.94 F800.0
G01 X40.64 Y58.9 F800.0
G01 X40.68 Y58.82 F800.0
G01 Y58.54 F800.0
G01 X41.15 F800.0
G01 X41.23 Y58.5 F800.0
G01 X41.26 Y58.42 F800.0
G01 X41.23 Y58.34 F800.0
G01 X41.15 Y58.31 F800.0
G01 X40.68 F800.0
G01 Y57.56 F800.0
G01 X40.71 Y57.48 F800.0
G01 X40.8 Y57.44 F800.0
G01 X41.02 F800.0
G01 X41.1 Y57.47 F800.0
G01 X41.14 Y57.54 F800.0
G01 X41.19 Y57.62 F800.0
G01 X41.26 Y57.64 F800.0
G01 X41.34 Y57.61 F800.0
G01 X41.38 Y57.52 F800.0
G01 X41.35 Y57.42 F800.0
G01 X41.28 Y57.31 F800.0
G01 X41.17 Y57.23 F800.0
G01 X41.03 Y57.21 F800.0
G01 F800.0
M5
G00 X39.43 Y57.59 F1500.0
M4 S700 F1500.0
G01 F800.0
G01 Y57.69 F800.0
G01 X39.39 Y57.77 F800.0
G01 X39.31 Y57.81 F800.0
G01 X38.85 F800.0
G01 X38.77 Y57.77 F800.0
G01 X38.74 Y57.69 F800.0
G01 Y57.56 F800.0
G01 X38.77 Y57.48 F800.0
G01 X38.85 Y57.45 F800.0
G01 X39.18 F800.0
G01 X39.43 Y57.59 F800.0
M5
G00 X38.85 Y58.04 F1500.0
M4 S700 F1500.0
G01 F800.0
G01 X39.31 F800.0
G01 X39.41 Y58.03 F800.0
G01 Y58.19 F800.0
G01 X39.38 Y58.27 F800.0
G01 X39.3 Y58.31 F800.0
G01 X38.86 F800.0
G01 X38.77 Y58.34 F800.0
G01 X38.74 Y58.42 F800.0
G01 X38.77 Y58.5 F800.0
G01 X38.86 Y58.54 F800.0
G01 X39.3 F800.0
G01 X39.43 Y58.51 F800.0
G01 X39.54 Y58.44 F800.0
G01 X39.62 Y58.33 F800.0
G01 X39.65 Y58.19 F800.0
G01 X39.67 Y57.33 F800.0
G01 X39.64 Y57.24 F800.0
G01 X39.56 Y57.21 F800.0
G01 X39.48 Y57.24 F800.0
G01 X39.44 Y57.33 F800.0
G01 X39.24 Y57.21 F800.0
G01 X38.85 F800.0
G01 X38.72 Y57.23 F800.0
G01 X38.61 Y57.31 F800.0
G01 X38.53 Y57.42 F800.0
G01 X38.5 Y57.56 F800.0
G01 Y57.7 F800.0
G01 X38.53 Y57.83 F800.0
G01 X38.61 Y57.94 F800.0
G01 X38.72 Y58.02 F800.0
G01 X38.85 Y58.04 F800.0
G01 F800.0
M5
G00 X37.97 Y58.42 F1500.0
M4 S700 F1500.0
G01 F800.0
G01 Y58.2 F800.0
G01 X37.57 Y57.29 F800.0
G01 X37.52 Y57.23 F800.0
G01 X37.47 Y57.21 F800.0
G01 X37.32 F800.0
G01 X37.25 Y57.23 F800.0
G01 X37.2 Y57.29 F800.0
G01 X36.8 Y58.2 F800.0
G01 Y58.42 F800.0
G01 X36.84 Y58.5 F800.0
G01 X36.92 Y58.54 F800.0
G01 X37.0 Y58.5 F800.0
G01 X37.03 Y58.42 F800.0
G01 Y58.25 F800.0
G01 X37.39 Y57.45 F800.0
G01 X37.74 Y58.25 F800.0
G01 Y58.42 F800.0
G01 X37.77 Y58.5 F800.0
G01 X37.85 Y58.54 F800.0
G01 X37.94 Y58.5 F800.0
G01 X37.97 Y58.42 F800.0
G01 F800.0
M5
G00 X36.27 Y58.1 F1500.0
M4 S700 F1500.0
G01 F800.0
G01 Y57.82 F800.0
G01 X36.23 Y57.74 F800.0
G01 X36.15 Y57.71 F800.0
G01 X35.33 F800.0
G01 Y57.64 F800.0
G01 X35.38 Y57.54 F800.0
G01 X35.45 Y57.48 F800.0
G01 X35.55 Y57.44 F800.0
G01 X36.15 F800.0
G01 X36.23 Y57.41 F800.0
G01 X36.27 Y57.33 F800.0
G01 X36.23 Y57.24 F800.0
G01 X36.15 Y57.21 F800.0
G01 X35.54 F800.0
G01 X35.41 Y57.23 F800.0
G01 X35.31 Y57.29 F800.0
G01 X35.21 Y57.38 F800.0
G01 X35.13 Y57.49 F800.0
G01 X35.1 Y57.61 F800.0
G01 Y58.14 F800.0
G01 X35.13 Y58.27 F800.0
G01 X35.22 Y58.39 F800.0
G01 X35.32 Y58.46 F800.0
G01 X35.42 Y58.52 F800.0
G01 X35.53 Y58.54 F800.0
G01 X35.85 F800.0
G01 X35.97 Y58.51 F800.0
G01 X36.09 Y58.44 F800.0
G01 X36.17 Y58.36 F800.0
G01 X36.24 Y58.25 F800.0
G01 X36.27 Y58.1 F800.0
G01 F800.0
M5
G00 X35.33 Y58.12 F1500.0
M4 S700 F1500.0
G01 F800.0
G01 Y57.94 F800.0
G01 X36.04 F800.0
G01 Y58.1 F800.0
G01 X36.0 Y58.2 F800.0
G01 X35.93 Y58.26 F800.0
G01 X35.84 Y58.3 F800.0
G01 X35.55 F800.0
G01 X35.45 Y58.27 F800.0
G01 X35.38 Y58.21 F800.0
G01 X35.33 Y58.12 F800.0
G01 F800.0
M5
G00 X34.33 Y57.21 F1500.0
M4 S700 F1500.0
G01 F800.0
G01 X33.63 F800.0
G01 X33.55 Y57.24 F800.0
G01 X33.51 Y57.33 F800.0
G01 X33.55 Y57.41 F800.0
G01 X33.63 Y57.44 F800.0
G01 X33.86 F800.0
G01 Y57.63 F800.0
G01 Y58.81 F800.0
G01 X33.63 F800.0
G01 X33.54 Y58.84 F800.0
G01 X33.51 Y58.92 F800.0
G01 X33.54 Y59.01 F800.0
G01 X33.63 Y59.04 F800.0
G01 X33.98 F800.0
G01 X34.06 Y59.01 F800.0
G01 X34.09 Y58.92 F800.0
G01 Y58.68 F800.0
G01 Y57.44 F800.0
G01 X34.33 F800.0
G01 X34.41 Y57.41 F800.0
G01 X34.45 Y57.33 F800.0
G01 X34.41 Y57.24 F800.0
G01 X34.33 Y57.21 F800.0
G01 F800.0
M5
G00 X32.74 Y58.81 F1500.0
M4 S700 F1500.0
G01 F800.0
G01 X31.92 F800.0
G01 Y58.24 F800.0
G01 X32.27 F800.0
G01 X32.36 Y58.21 F800.0
G01 X32.39 Y58.13 F800.0
G01 X32.36 Y58.04 F800.0
G01 X32.27 Y58.01 F800.0
G01 X31.92 F800.0
G01 Y57.44 F800.0
G01 X32.74 F800.0
G01 X32.83 Y57.41 F800.0
G01 X32.86 Y57.33 F800.0
G01 X32.82 Y57.24 F800.0
