(bottom-outline)
(Machine)
(  vendor: Autodesk)
(  model: Sainsmart 3018pro)
(  description: 3018)
G90 G94
G17
G21
(When using Fusion 360 for Personal Use, the feedrate of)
(rapid moves is reduced to match the feedrate of cutting)
(moves, which can increase machining time. Unrestricted rapid)
(moves are available with a Fusion 360 Subscription.)

(Face1)
G54
G0 Z4 F1500
G0 X90.437 Y0.136
G1 Z1 F400
S5000 M3
Z-0.615
F400.0
F400.0
G18 G3 X90.12 Z-0.932 I-0.317 K0
G17 G3 X89.611 Y-0.003 I0 J-1
G2 X88.802 Y-0.224 I-0.808 J1.366
G1 X1.198
G18 G3 X0.88 Z-0.615 I0 K0.317
G1 Z3 F1500.0
X92.445 Y1.765
Z1
Z-0.615
F1500.0
F400.0
G3 X92.128 Z-0.932 I-0.317 K0
G17 G3 X91.427 Y1.478 I0 J-1
G2 X90.315 Y1.023 I-1.112 J1.133
G1 X-0.315
G18 G3 X-0.633 Z-0.615 I0 K0.317
G1 Z3 F1500.0
X93.736 Y3.404
Z1
Z-0.615
F1500.0
F400.0
G3 X93.418 Z-0.932 I-0.317 K0
G17 G3 X92.591 Y2.966 I0 J-1
G2 X91.278 Y2.271 I-1.313 J0.892
G1 X-1.278
G18 G3 X-1.595 Z-0.615 I0 K0.317
G1 Z3 F1500.0
X94.605 Y5.079
Z1
Z-0.615
F1500.0
F400.0
G3 X94.288 Z-0.932 I-0.318 K0
G17 G3 X93.37 Y4.476 I0 J-1
G2 X91.913 Y3.519 I-1.457 J0.63
G1 X-1.913
G18 G3 X-2.23 Z-0.615 I0 K0.317
G1 Z3 F1500.0
X95.119 Y6.683
Z1
Z-0.615
F1500.0
F400.0
G3 X94.802 Z-0.932 I-0.318 K0
G17 G3 X93.836 Y5.942 I0 J-1
G2 X92.303 Y4.767 I-1.533 J0.412
G1 X-2.303
G18 G3 X-2.621 Z-0.615 I0 K0.317
G1 Z3 F1500.0
X95.376 Y8.359
Z1
Z-0.615
F1500.0
F400.0
G3 X95.059 Z-0.932 I-0.317 K0
G17 G3 X94.063 Y7.453 I0 J-1
G2 X92.483 Y6.015 I-1.58 J0.149
G1 X-2.483
G18 G3 X-2.8 Z-0.615 I0 K0.317
G1 Z3 F1500.0
X95.405 Y9.85
Z1
Z-0.615
F1500.0
F400.0
G3 X95.088 Z-0.932 I-0.317 K0
G17 G3 X94.088 Y8.85 I0 J-1
G2 X92.5 Y7.262 I-1.588 J0
G1 X-2.5
X-2.555 Y7.258
X-2.609 Y7.247
X-2.661 Y7.227
X-3.509 Y6.839
G2 X-4.047 Y7.277 I-0.161 J0.352
X-2.5 Y8.51 I1.547 J-0.354
G1 X92.5
X94.088
G3 X94.96 Y9.03 I0 J0.991
G1 X95.96 Y10.884
G3 X95.088 Y12.345 I-0.872 J0.47
X94.088 Y11.345 I0 J-1
G2 X92.5 Y9.758 I-1.588 J0
G1 X-2.5
G3 X-2.761 Y9.662 I0 J-0.406
G1 X-3.42 Y9.108
G2 X-4.088 Y9.418 I-0.261 J0.31
X-2.5 Y11.006 I1.588 J0
G1 X92.5
X94.088
G3 X94.96 Y11.526 I0 J0.991
G1 X95.96 Y13.38
G3 X95.088 Y14.841 I-0.872 J0.47
X94.088 Y13.841 I0 J-1
G2 X92.5 Y12.253 I-1.588 J0
G1 X-2.5
G3 X-2.761 Y12.158 I0 J-0.406
G1 X-3.42 Y11.603
G2 X-4.088 Y11.914 I-0.261 J0.31
X-2.5 Y13.501 I1.588 J0
G1 X92.5
X94.088
G3 X94.96 Y14.022 I0 J0.991
G1 X95.96 Y15.875
G3 X95.088 Y17.336 I-0.872 J0.47
X94.088 Y16.336 I0 J-1
G2 X92.5 Y14.749 I-1.588 J0
G1 X-2.5
G3 X-2.761 Y14.654 I0 J-0.406
G1 X-3.42 Y14.099
G2 X-4.088 Y14.409 I-0.261 J0.31
X-2.5 Y15.997 I1.588 J0
G1 X92.5
X94.088
G3 X94.96 Y16.517 I0 J0.991
G1 X95.96 Y18.371
G3 X95.088 Y19.832 I-0.872 J0.47
X94.088 Y18.832 I0 J-1
G2 X92.5 Y17.245 I-1.588 J0
G1 X-2.5
G3 X-2.761 Y17.149 I0 J-0.406
G1 X-3.42 Y16.594
G2 X-4.088 Y16.905 I-0.261 J0.31
X-2.5 Y18.492 I1.588 J0
G1 X92.5
X94.088
G3 X94.96 Y19.013 I0 J0.991
G1 X95.96 Y20.866
G3 X95.088 Y22.328 I-0.872 J0.47
X94.088 Y21.328 I0 J-1
G2 X92.5 Y19.74 I-1.588 J0
G1 X-2.5
G3 X-2.761 Y19.645 I0 J-0.406
G1 X-3.42 Y19.09
G2 X-4.088 Y19.4 I-0.261 J0.31
X-2.5 Y20.988 I1.588 J0
G1 X92.5
X94.088
G3 X94.96 Y21.508 I0 J0.991
G1 X95.96 Y23.362
G3 X95.088 Y24.823 I-0.872 J0.47
X94.088 Y23.823 I0 J-1
G2 X92.5 Y22.236 I-1.588 J0
G1 X-2.5
G3 X-2.761 Y22.14 I0 J-0.406
G1 X-3.42 Y21.585
G2 X-4.088 Y21.896 I-0.261 J0.31
X-2.5 Y23.483 I1.588 J0
G1 X92.5
X94.088
G3 X94.96 Y24.004 I0 J0.991
G1 X95.96 Y25.857
G3 X95.088 Y27.319 I-0.872 J0.47
X94.088 Y26.319 I0 J-1
G2 X92.5 Y24.731 I-1.588 J0
G1 X-2.5
G3 X-2.761 Y24.636 I0 J-0.406
G1 X-3.42 Y24.081
G2 X-4.088 Y24.391 I-0.261 J0.31
X-2.5 Y25.979 I1.588 J0
G1 X92.5
X94.088
G3 X94.96 Y26.499 I0 J0.991
G1 X95.96 Y28.353
G3 X95.088 Y29.814 I-0.872 J0.47
X94.088 Y28.814 I0 J-1
G2 X92.5 Y27.227 I-1.588 J0
G1 X-2.5
G3 X-2.761 Y27.131 I0 J-0.406
G1 X-3.42 Y26.577
G2 X-4.088 Y26.887 I-0.261 J0.31
X-2.5 Y28.474 I1.588 J0
G1 X92.5
X94.088
G3 X94.96 Y28.995 I0 J0.991
G1 X95.96 Y30.848
G3 X95.088 Y32.31 I-0.872 J0.47
X94.088 Y31.31 I0 J-1
G2 X92.5 Y29.722 I-1.588 J0
G1 X-2.5
G3 X-2.761 Y29.627 I0 J-0.406
G1 X-3.42 Y29.072
G2 X-4.088 Y29.383 I-0.261 J0.31
X-2.5 Y30.97 I1.588 J0
G1 X92.5
X94.088
G3 X94.96 Y31.49 I0 J0.991
G1 X95.96 Y33.344
G3 X95.088 Y34.805 I-0.872 J0.47
X94.088 Y33.805 I0 J-1
G2 X92.5 Y32.218 I-1.588 J0
G1 X-2.5
G3 X-2.761 Y32.122 I0 J-0.406
G1 X-3.42 Y31.568
G2 X-4.088 Y31.878 I-0.261 J0.31
X-2.5 Y33.466 I1.588 J0
G1 X92.5
X94.088
G3 X94.96 Y33.986 I0 J0.991
G1 X95.96 Y35.839
G3 X95.088 Y37.301 I-0.872 J0.47
X94.088 Y36.301 I0 J-1
G2 X92.5 Y34.713 I-1.588 J0
G1 X-2.5
G3 X-2.761 Y34.618 I0 J-0.406
G1 X-3.42 Y34.063
G2 X-4.088 Y34.374 I-0.261 J0.31
X-2.5 Y35.961 I1.588 J0
G1 X92.5
X94.088
G3 X94.96 Y36.481 I0 J0.991
G1 X95.96 Y38.335
G3 X95.088 Y39.796 I-0.872 J0.47
X94.088 Y38.796 I0 J-1
G2 X92.5 Y37.209 I-1.588 J0
G1 X-2.5
G3 X-2.761 Y37.113 I0 J-0.406
G1 X-3.42 Y36.559
G2 X-4.088 Y36.869 I-0.261 J0.31
X-2.5 Y38.457 I1.588 J0
G1 X92.5
X94.088
G3 X94.96 Y38.977 I0 J0.991
G1 X95.96 Y40.831
G3 X95.088 Y42.292 I-0.872 J0.47
X94.088 Y41.292 I0 J-1
G2 X92.5 Y39.704 I-1.588 J0
G1 X-2.5
G3 X-2.761 Y39.609 I0 J-0.406
G1 X-3.42 Y39.054
G2 X-4.088 Y39.365 I-0.261 J0.31
X-2.5 Y40.952 I1.588 J0
G1 X92.5
X94.088
G3 X94.96 Y41.473 I0 J0.991
G1 X95.96 Y43.326
G3 X95.088 Y44.787 I-0.872 J0.47
X94.088 Y43.787 I0 J-1
G2 X92.5 Y42.2 I-1.588 J0
G1 X-2.5
G3 X-2.761 Y42.105 I0 J-0.406
G1 X-3.42 Y41.55
G2 X-4.088 Y41.86 I-0.261 J0.31
X-2.5 Y43.448 I1.588 J0
G1 X92.5
X94.088
G3 X94.96 Y43.968 I0 J0.991
G1 X95.96 Y45.822
G3 X95.088 Y47.283 I-0.872 J0.47
X94.088 Y46.283 I0 J-1
G2 X92.5 Y44.696 I-1.588 J0
G1 X-2.5
G3 X-2.761 Y44.6 I0 J-0.406
G1 X-3.42 Y44.045
G2 X-4.088 Y44.356 I-0.261 J0.31
X-2.5 Y45.943 I1.588 J0
G1 X92.5
X94.088
G3 X94.96 Y46.464 I0 J0.991
G1 X95.96 Y48.317
G3 X95.088 Y49.779 I-0.872 J0.47
X94.088 Y48.779 I0 J-1
G2 X92.5 Y47.191 I-1.588 J0
G1 X-2.5
G3 X-2.761 Y47.096 I0 J-0.406
G1 X-3.42 Y46.541
G2 X-4.088 Y46.851 I-0.261 J0.31
X-2.5 Y48.439 I1.588 J0
G1 X92.5
X94.088
G3 X94.96 Y48.959 I0 J0.991
G1 X95.96 Y50.813
G3 X95.088 Y52.274 I-0.872 J0.47
X94.088 Y51.274 I0 J-1
G2 X92.5 Y49.687 I-1.588 J0
G1 X-2.5
G3 X-2.761 Y49.591 I0 J-0.406
G1 X-3.42 Y49.036
G2 X-4.088 Y49.347 I-0.261 J0.31
X-2.5 Y50.934 I1.588 J0
G1 X92.5
X94.088
G3 X94.96 Y51.455 I0 J0.991
G1 X95.96 Y53.308
G3 X95.088 Y54.77 I-0.872 J0.47
X94.088 Y53.77 I0 J-1
G2 X92.5 Y52.182 I-1.588 J0
G1 X-2.5
G3 X-2.761 Y52.087 I0 J-0.406
G1 X-3.42 Y51.532
G2 X-4.088 Y51.842 I-0.261 J0.31
X-2.5 Y53.43 I1.588 J0
G1 X92.5
X94.088
G3 X94.96 Y53.95 I0 J0.991
G1 X95.96 Y55.804
G3 X95.088 Y57.265 I-0.872 J0.47
X94.088 Y56.265 I0 J-1
G2 X92.5 Y54.678 I-1.588 J0
G1 X-2.5
G3 X-2.761 Y54.582 I0 J-0.406
G1 X-3.42 Y54.028
G2 X-4.088 Y54.338 I-0.261 J0.31
X-2.5 Y55.925 I1.588 J0
G1 X92.5
X94.088
G3 X94.96 Y56.446 I0 J0.991
G1 X95.96 Y58.299
G3 X95.088 Y59.761 I-0.872 J0.47
X94.088 Y58.761 I0 J-1
G2 X92.5 Y57.173 I-1.588 J0
G1 X-2.5
G3 X-2.761 Y57.078 I0 J-0.406
G1 X-3.42 Y56.523
G2 X-4.088 Y56.834 I-0.261 J0.31
X-2.5 Y58.421 I1.588 J0
G1 X92.5
X94.088
G3 X94.96 Y58.941 I0 J0.991
G1 X95.96 Y60.795
G3 X95.088 Y62.256 I-0.872 J0.47
X94.088 Y61.256 I0 J-1
G2 X92.5 Y59.669 I-1.588 J0
G1 X-2.5
G3 X-2.761 Y59.573 I0 J-0.406
G1 X-3.42 Y59.019
G2 X-4.088 Y59.329 I-0.261 J0.31
X-2.5 Y60.917 I1.588 J0
G1 X92.5
X94.088
G3 X94.96 Y61.437 I0 J0.991
G1 X95.96 Y63.29
G3 X95.088 Y64.752 I-0.872 J0.47
X94.088 Y63.752 I0 J-1
G2 X92.5 Y62.164 I-1.588 J0
G1 X-2.5
G3 X-2.761 Y62.069 I0 J-0.406
G1 X-3.42 Y61.514
G2 X-4.088 Y61.825 I-0.261 J0.31
X-2.5 Y63.412 I1.588 J0
G1 X92.5
X94.088
G3 X94.96 Y63.932 I0 J0.991
G1 X95.96 Y65.786
G3 X95.088 Y67.247 I-0.872 J0.47
X94.088 Y66.247 I0 J-1
G2 X92.5 Y64.66 I-1.588 J0
G1 X-2.5
G3 X-2.761 Y64.564 I0 J-0.406
G1 X-3.42 Y64.01
G2 X-4.088 Y64.32 I-0.261 J0.31
X-2.5 Y65.908 I1.588 J0
G1 X92.5
X94.088
G3 X94.96 Y66.428 I0 J0.991
G1 X95.96 Y68.282
G3 X95.088 Y69.743 I-0.872 J0.47
X94.088 Y68.743 I0 J-1
G2 X92.5 Y67.155 I-1.588 J0
G1 X-2.5
G3 X-2.761 Y67.06 I0 J-0.406
G1 X-3.42 Y66.505
G2 X-4.088 Y66.816 I-0.261 J0.31
X-2.5 Y68.403 I1.588 J0
G1 X92.5
X94.088
G3 X94.96 Y68.924 I0 J0.991
G1 X95.96 Y70.777
G3 X95.088 Y72.238 I-0.872 J0.47
X94.088 Y71.238 I0 J-1
G2 X92.5 Y69.651 I-1.588 J0
G1 X-2.5
G3 X-2.761 Y69.556 I0 J-0.406
G1 X-3.42 Y69.001
G2 X-4.088 Y69.311 I-0.261 J0.31
X-2.5 Y70.899 I1.588 J0
G1 X92.5
X94.088
G3 X94.96 Y71.419 I0 J0.991
G1 X95.96 Y73.273
G3 X95.088 Y74.734 I-0.872 J0.47
X94.088 Y73.734 I0 J-1
G2 X92.5 Y72.147 I-1.588 J0
G1 X-2.5
G3 X-2.761 Y72.051 I0 J-0.406
G1 X-3.42 Y71.496
G2 X-4.088 Y71.807 I-0.261 J0.31
X-2.5 Y73.394 I1.588 J0
G1 X92.5
X94.088
G3 X94.96 Y73.915 I0 J0.991
G1 X95.96 Y75.768
G3 X95.088 Y77.23 I-0.872 J0.47
X94.088 Y76.23 I0 J-1
G2 X92.5 Y74.642 I-1.588 J0
G1 X-2.5
G3 X-2.761 Y74.547 I0 J-0.406
G1 X-3.42 Y73.992
G2 X-4.088 Y74.302 I-0.261 J0.31
X-2.5 Y75.89 I1.588 J0
G1 X92.5
G18 G2 X92.817 Z-0.615 I0 K0.317
G1 Z3 F1500.0
X-5.405 Y74.55
Z1
Z-0.615
F1500.0
F400.0
G2 X-5.088 Z-0.932 I0.318 K0
G17 G3 X-4.088 Y75.55 I0 J1
G2 X-2.5 Y77.138 I1.588 J0
G1 X92.5
G18 G2 X92.817 Z-0.615 I0 K0.317
G1 Z3 F1500.0
X-5.405 Y75.798
Z1
Z-0.615
F1500.0
F400.0
G2 X-5.088 Z-0.932 I0.318 K0
G17 G3 X-4.088 Y76.798 I0 J1
G2 X-2.5 Y78.385 I1.588 J0
G1 X92.5
G18 G2 X92.817 Z-0.615 I0 K0.317
G1 Z3 F1500.0
X-4.306 Y76.791
Z1
Z-0.615
F1500.0
F400.0
X-4.304 Y76.799 Z-0.685
X-4.299 Y76.822 Z-0.753
X-4.292 Y76.859 Z-0.813
X-4.281 Y76.908 Z-0.863
X-4.269 Y76.967 Z-0.901
X-4.255 Y77.032 Z-0.924
X-4.24 Y77.101 Z-0.932
X-3.968 Y78.377
G17 G2 X-2.415 Y79.633 I1.553 J-0.331
G1 X92.415
G18 G2 X92.733 Z-0.615 I0 K0.317
G1 Z3 F1500.0
X-4.93 Y79.015
Z1
Z-0.615
F1500.0
F400.0
G2 X-4.613 Z-0.932 I0.318 K0
G17 G3 X-3.652 Y79.736 I0 J1
G2 X-2.128 Y80.881 I1.524 J-0.443
G1 X92.128
G18 G2 X92.445 Z-0.615 I0 K0.317
G1 Z3 F1500.0
X-4.161 Y80.865
Z1
Z-0.615
F1500.0
F400.0
G2 X-3.844 Z-0.932 I0.317 K0
G17 G3 X-2.984 Y81.353 I0 J1
G2 X-1.62 Y82.129 I1.364 J-0.812
G1 X91.62
G18 G2 X91.938 Z-0.615 I0 K0.317
G1 Z3 F1500.0
X-3.149 Y82.422
Z1
Z-0.615
F1500.0
F400.0
G2 X-2.832 Z-0.932 I0.318 K0
G17 G3 X-2.056 Y82.791 I0 J1
G2 X-0.825 Y83.376 I1.232 J-1.002
G1 X90.825
G2 X110.289 Y12.226 I0 J-38.238
G1 X89.611 Y-0.003
Z-1.032
G2 X88.802 Y-0.224 I-0.808 J1.366
G1 X1.198
G18 G3 X0.88 Z-0.715 I0 K0.317
G1 Z3 F1500.0
X92.445 Y1.765
Z1
Z-0.715
F1500.0
F400.0
G3 X92.128 Z-1.032 I-0.317 K0
G17 G3 X91.427 Y1.478 I0 J-1
G2 X90.315 Y1.023 I-1.112 J1.133
G1 X-0.315
G18 G3 X-0.633 Z-0.715 I0 K0.317
G1 Z3 F1500.0
X93.736 Y3.404
Z1
Z-0.715
F1500.0
F400.0
G3 X93.418 Z-1.032 I-0.317 K0
G17 G3 X92.591 Y2.966 I0 J-1
G2 X91.278 Y2.271 I-1.313 J0.892
G1 X-1.278
G18 G3 X-1.595 Z-0.715 I0 K0.317
G1 Z3 F1500.0
X94.605 Y5.079
Z1
Z-0.715
F1500.0
F400.0
G3 X94.288 Z-1.032 I-0.318 K0
G17 G3 X93.37 Y4.476 I0 J-1
G2 X91.913 Y3.519 I-1.457 J0.63
G1 X-1.913
G18 G3 X-2.23 Z-0.715 I0 K0.317
G1 Z3 F1500.0
X95.119 Y6.683
Z1
Z-0.715
F1500.0
F400.0
G3 X94.802 Z-1.032 I-0.318 K0
G17 G3 X93.836 Y5.942 I0 J-1
G2 X92.303 Y4.767 I-1.533 J0.412
G1 X-2.303
G18 G3 X-2.621 Z-0.715 I0 K0.317
G1 Z3 F1500.0
X95.376 Y8.359
Z1
Z-0.715
F1500.0
F400.0
G3 X95.059 Z-1.032 I-0.317 K0
G17 G3 X94.063 Y7.453 I0 J-1
G2 X92.483 Y6.015 I-1.58 J0.149
G1 X-2.483
G18 G3 X-2.8 Z-0.715 I0 K0.317
G1 Z3 F1500.0
X95.405 Y9.85
Z1
Z-0.715
F1500.0
F400.0
G3 X95.088 Z-1.032 I-0.317 K0
G17 G3 X94.088 Y8.85 I0 J-1
G2 X92.5 Y7.262 I-1.588 J0
G1 X-2.5
X-2.555 Y7.258
X-2.609 Y7.247
X-2.661 Y7.227
X-3.509 Y6.839
G2 X-4.047 Y7.277 I-0.161 J0.352
X-2.5 Y8.51 I1.547 J-0.354
G1 X92.5
X94.088
G3 X94.96 Y9.03 I0 J0.991
G1 X95.96 Y10.884
G3 X95.088 Y12.345 I-0.872 J0.47
X94.088 Y11.345 I0 J-1
G2 X92.5 Y9.758 I-1.588 J0
G1 X-2.5
G3 X-2.761 Y9.662 I0 J-0.406
G1 X-3.42 Y9.108
G2 X-4.088 Y9.418 I-0.261 J0.31
X-2.5 Y11.006 I1.588 J0
G1 X92.5
X94.088
G3 X94.96 Y11.526 I0 J0.991
G1 X95.96 Y13.38
G3 X95.088 Y14.841 I-0.872 J0.47
X94.088 Y13.841 I0 J-1
G2 X92.5 Y12.253 I-1.588 J0
G1 X-2.5
G3 X-2.761 Y12.158 I0 J-0.406
G1 X-3.42 Y11.603
G2 X-4.088 Y11.914 I-0.261 J0.31
X-2.5 Y13.501 I1.588 J0
G1 X92.5
X94.088
G3 X94.96 Y14.022 I0 J0.991
G1 X95.96 Y15.875
G3 X95.088 Y17.336 I-0.872 J0.47
X94.088 Y16.336 I0 J-1
G2 X92.5 Y14.749 I-1.588 J0
G1 X-2.5
G3 X-2.761 Y14.654 I0 J-0.406
G1 X-3.42 Y14.099
G2 X-4.088 Y14.409 I-0.261 J0.31
X-2.5 Y15.997 I1.588 J0
G1 X92.5
X94.088
G3 X94.96 Y16.517 I0 J0.991
G1 X95.96 Y18.371
G3 X95.088 Y19.832 I-0.872 J0.47
X94.088 Y18.832 I0 J-1
G2 X92.5 Y17.245 I-1.588 J0
G1 X-2.5
G3 X-2.761 Y17.149 I0 J-0.406
G1 X-3.42 Y16.594
G2 X-4.088 Y16.905 I-0.261 J0.31
X-2.5 Y18.492 I1.588 J0
G1 X92.5
X94.088
G3 X94.96 Y19.013 I0 J0.991
G1 X95.96 Y20.866
G3 X95.088 Y22.328 I-0.872 J0.47
X94.088 Y21.328 I0 J-1
G2 X92.5 Y19.74 I-1.588 J0
G1 X-2.5
G3 X-2.761 Y19.645 I0 J-0.406
G1 X-3.42 Y19.09
G2 X-4.088 Y19.4 I-0.261 J0.31
X-2.5 Y20.988 I1.588 J0
G1 X92.5
X94.088
G3 X94.96 Y21.508 I0 J0.991
G1 X95.96 Y23.362
G3 X95.088 Y24.823 I-0.872 J0.47
X94.088 Y23.823 I0 J-1
G2 X92.5 Y22.236 I-1.588 J0
G1 X-2.5
G3 X-2.761 Y22.14 I0 J-0.406
G1 X-3.42 Y21.585
G2 X-4.088 Y21.896 I-0.261 J0.31
X-2.5 Y23.483 I1.588 J0
G1 X92.5
X94.088
G3 X94.96 Y24.004 I0 J0.991
G1 X95.96 Y25.857
G3 X95.088 Y27.319 I-0.872 J0.47
X94.088 Y26.319 I0 J-1
G2 X92.5 Y24.731 I-1.588 J0
G1 X-2.5
G3 X-2.761 Y24.636 I0 J-0.406
G1 X-3.42 Y24.081
G2 X-4.088 Y24.391 I-0.261 J0.31
X-2.5 Y25.979 I1.588 J0
G1 X92.5
X94.088
G3 X94.96 Y26.499 I0 J0.991
G1 X95.96 Y28.353
G3 X95.088 Y29.814 I-0.872 J0.47
X94.088 Y28.814 I0 J-1
G2 X92.5 Y27.227 I-1.588 J0
G1 X-2.5
G3 X-2.761 Y27.131 I0 J-0.406
G1 X-3.42 Y26.577
G2 X-4.088 Y26.887 I-0.261 J0.31
X-2.5 Y28.474 I1.588 J0
G1 X92.5
X94.088
G3 X94.96 Y28.995 I0 J0.991
G1 X95.96 Y30.848
G3 X95.088 Y32.31 I-0.872 J0.47
X94.088 Y31.31 I0 J-1
G2 X92.5 Y29.722 I-1.588 J0
G1 X-2.5
G3 X-2.761 Y29.627 I0 J-0.406
G1 X-3.42 Y29.072
G2 X-4.088 Y29.383 I-0.261 J0.31
X-2.5 Y30.97 I1.588 J0
G1 X92.5
X94.088
G3 X94.96 Y31.49 I0 J0.991
G1 X95.96 Y33.344
G3 X95.088 Y34.805 I-0.872 J0.47
X94.088 Y33.805 I0 J-1
G2 X92.5 Y32.218 I-1.588 J0
G1 X-2.5
G3 X-2.761 Y32.122 I0 J-0.406
G1 X-3.42 Y31.568
G2 X-4.088 Y31.878 I-0.261 J0.31
X-2.5 Y33.466 I1.588 J0
G1 X92.5
X94.088
G3 X94.96 Y33.986 I0 J0.991
G1 X95.96 Y35.839
G3 X95.088 Y37.301 I-0.872 J0.47
X94.088 Y36.301 I0 J-1
G2 X92.5 Y34.713 I-1.588 J0
G1 X-2.5
G3 X-2.761 Y34.618 I0 J-0.406
G1 X-3.42 Y34.063
G2 X-4.088 Y34.374 I-0.261 J0.31
X-2.5 Y35.961 I1.588 J0
G1 X92.5
X94.088
G3 X94.96 Y36.481 I0 J0.991
G1 X95.96 Y38.335
G3 X95.088 Y39.796 I-0.872 J0.47
X94.088 Y38.796 I0 J-1
G2 X92.5 Y37.209 I-1.588 J0
G1 X-2.5
G3 X-2.761 Y37.113 I0 J-0.406
G1 X-3.42 Y36.559
G2 X-4.088 Y36.869 I-0.261 J0.31
X-2.5 Y38.457 I1.588 J0
G1 X92.5
X94.088
G3 X94.96 Y38.977 I0 J0.991
G1 X95.96 Y40.831
G3 X95.088 Y42.292 I-0.872 J0.47
X94.088 Y41.292 I0 J-1
G2 X92.5 Y39.704 I-1.588 J0
G1 X-2.5
G3 X-2.761 Y39.609 I0 J-0.406
G1 X-3.42 Y39.054
G2 X-4.088 Y39.365 I-0.261 J0.31
X-2.5 Y40.952 I1.588 J0
G1 X92.5
X94.088
G3 X94.96 Y41.473 I0 J0.991
G1 X95.96 Y43.326
G3 X95.088 Y44.787 I-0.872 J0.47
X94.088 Y43.787 I0 J-1
G2 X92.5 Y42.2 I-1.588 J0
G1 X-2.5
G3 X-2.761 Y42.105 I0 J-0.406
G1 X-3.42 Y41.55
G2 X-4.088 Y41.86 I-0.261 J0.31
X-2.5 Y43.448 I1.588 J0
G1 X92.5
X94.088
G3 X94.96 Y43.968 I0 J0.991
G1 X95.96 Y45.822
G3 X95.088 Y47.283 I-0.872 J0.47
X94.088 Y46.283 I0 J-1
G2 X92.5 Y44.696 I-1.588 J0
G1 X-2.5
G3 X-2.761 Y44.6 I0 J-0.406
G1 X-3.42 Y44.045
G2 X-4.088 Y44.356 I-0.261 J0.31
X-2.5 Y45.943 I1.588 J0
G1 X92.5
X94.088
G3 X94.96 Y46.464 I0 J0.991
G1 X95.96 Y48.317
G3 X95.088 Y49.779 I-0.872 J0.47
X94.088 Y48.779 I0 J-1
G2 X92.5 Y47.191 I-1.588 J0
G1 X-2.5
G3 X-2.761 Y47.096 I0 J-0.406
G1 X-3.42 Y46.541
G2 X-4.088 Y46.851 I-0.261 J0.31
X-2.5 Y48.439 I1.588 J0
G1 X92.5
X94.088
G3 X94.96 Y48.959 I0 J0.991
G1 X95.96 Y50.813
G3 X95.088 Y52.274 I-0.872 J0.47
X94.088 Y51.274 I0 J-1
G2 X92.5 Y49.687 I-1.588 J0
G1 X-2.5
G3 X-2.761 Y49.591 I0 J-0.406
G1 X-3.42 Y49.036
G2 X-4.088 Y49.347 I-0.261 J0.31
X-2.5 Y50.934 I1.588 J0
G1 X92.5
X94.088
G3 X94.96 Y51.455 I0 J0.991
G1 X95.96 Y53.308
G3 X95.088 Y54.77 I-0.872 J0.47
X94.088 Y53.77 I0 J-1
G2 X92.5 Y52.182 I-1.588 J0
G1 X-2.5
G3 X-2.761 Y52.087 I0 J-0.406
G1 X-3.42 Y51.532
G2 X-4.088 Y51.842 I-0.261 J0.31
X-2.5 Y53.43 I1.588 J0
G1 X92.5
X94.088
G3 X94.96 Y53.95 I0 J0.991
G1 X95.96 Y55.804
G3 X95.088 Y57.265 I-0.872 J0.47
X94.088 Y56.265 I0 J-1
G2 X92.5 Y54.678 I-1.588 J0
G1 X-2.5
G3 X-2.761 Y54.582 I0 J-0.406
G1 X-3.42 Y54.028
G2 X-4.088 Y54.338 I-0.261 J0.31
X-2.5 Y55.925 I1.588 J0
G1 X92.5
X94.088
G3 X94.96 Y56.446 I0 J0.991
G1 X95.96 Y58.299
G3 X95.088 Y59.761 I-0.872 J0.47
X94.088 Y58.761 I0 J-1
G2 X92.5 Y57.173 I-1.588 J0
G1 X-2.5
G3 X-2.761 Y57.078 I0 J-0.406
G1 X-3.42 Y56.523
G2 X-4.088 Y56.834 I-0.261 J0.31
X-2.5 Y58.421 I1.588 J0
G1 X92.5
X94.088
G3 X94.96 Y58.941 I0 J0.991
G1 X95.96 Y60.795
G3 X95.088 Y62.256 I-0.872 J0.47
X94.088 Y61.256 I0 J-1
G2 X92.5 Y59.669 I-1.588 J0
G1 X-2.5
G3 X-2.761 Y59.573 I0 J-0.406
G1 X-3.42 Y59.019
G2 X-4.088 Y59.329 I-0.261 J0.31
X-2.5 Y60.917 I1.588 J0
G1 X92.5
X94.088
G3 X94.96 Y61.437 I0 J0.991
G1 X95.96 Y63.29
G3 X95.088 Y64.752 I-0.872 J0.47
X94.088 Y63.752 I0 J-1
G2 X92.5 Y62.164 I-1.588 J0
G1 X-2.5
G3 X-2.761 Y62.069 I0 J-0.406
G1 X-3.42 Y61.514
G2 X-4.088 Y61.825 I-0.261 J0.31
X-2.5 Y63.412 I1.588 J0
G1 X92.5
X94.088
G3 X94.96 Y63.932 I0 J0.991
G1 X95.96 Y65.786
G3 X95.088 Y67.247 I-0.872 J0.47
X94.088 Y66.247 I0 J-1
G2 X92.5 Y64.66 I-1.588 J0
G1 X-2.5
G3 X-2.761 Y64.564 I0 J-0.406
G1 X-3.42 Y64.01
G2 X-4.088 Y64.32 I-0.261 J0.31
X-2.5 Y65.908 I1.588 J0
G1 X92.5
X94.088
G3 X94.96 Y66.428 I0 J0.991
G1 X95.96 Y68.282
G3 X95.088 Y69.743 I-0.872 J0.47
X94.088 Y68.743 I0 J-1
G2 X92.5 Y67.155 I-1.588 J0
G1 X-2.5
G3 X-2.761 Y67.06 I0 J-0.406
G1 X-3.42 Y66.505
G2 X-4.088 Y66.816 I-0.261 J0.31
X-2.5 Y68.403 I1.588 J0
G1 X92.5
X94.088
G3 X94.96 Y68.924 I0 J0.991
G1 X95.96 Y70.777
G3 X95.088 Y72.238 I-0.872 J0.47
X94.088 Y71.238 I0 J-1
G2 X92.5 Y69.651 I-1.588 J0
G1 X-2.5
G3 X-2.761 Y69.556 I0 J-0.406
G1 X-3.42 Y69.001
G2 X-4.088 Y69.311 I-0.261 J0.31
X-2.5 Y70.899 I1.588 J0
G1 X92.5
X94.088
G3 X94.96 Y71.419 I0 J0.991
G1 X95.96 Y73.273
G3 X95.088 Y74.734 I-0.872 J0.47
X94.088 Y73.734 I0 J-1
G2 X92.5 Y72.147 I-1.588 J0
G1 X-2.5
G3 X-2.761 Y72.051 I0 J-0.406
G1 X-3.42 Y71.496
G2 X-4.088 Y71.807 I-0.261 J0.31
X-2.5 Y73.394 I1.588 J0
G1 X92.5
X94.088
G3 X94.96 Y73.915 I0 J0.991
G1 X95.96 Y75.768
G3 X95.088 Y77.23 I-0.872 J0.47
X94.088 Y76.23 I0 J-1
G2 X92.5 Y74.642 I-1.588 J0
G1 X-2.5
G3 X-2.761 Y74.547 I0 J-0.406
G1 X-3.42 Y73.992
G2 X-4.088 Y74.302 I-0.261 J0.31
X-2.5 Y75.89 I1.588 J0
G1 X92.5
G18 G2 X92.817 Z-0.715 I0 K0.317
G1 Z3 F1500.0
X-5.405 Y74.55
Z1
Z-0.715
F1500.0
F400.0
G2 X-5.088 Z-1.032 I0.318 K0
G17 G3 X-4.088 Y75.55 I0 J1
G2 X-2.5 Y77.138 I1.588 J0
G1 X92.5
G18 G2 X92.817 Z-0.715 I0 K0.317
G1 Z3 F1500.0
X-5.405 Y75.798
Z1
Z-0.715
F1500.0
F400.0
G2 X-5.088 Z-1.032 I0.318 K0
G17 G3 X-4.088 Y76.798 I0 J1
G2 X-2.5 Y78.385 I1.588 J0
G1 X92.5
G18 G2 X92.817 Z-0.715 I0 K0.317
G1 Z3 F1500.0
X-4.306 Y76.791
Z1
Z-0.715
F1500.0
F400.0
X-4.304 Y76.799 Z-0.785
X-4.299 Y76.822 Z-0.853
X-4.292 Y76.859 Z-0.913
X-4.281 Y76.908 Z-0.963
X-4.269 Y76.967 Z-1.001
X-4.255 Y77.032 Z-1.024
X-4.24 Y77.101 Z-1.032
X-3.968 Y78.377
G17 G2 X-2.415 Y79.633 I1.553 J-0.331
G1 X92.415
G18 G2 X92.733 Z-0.715 I0 K0.317
G1 Z3 F1500.0
X-4.93 Y79.015
Z1
Z-0.715
F1500.0
F400.0
G2 X-4.613 Z-1.032 I0.318 K0
G17 G3 X-3.652 Y79.736 I0 J1
G2 X-2.128 Y80.881 I1.524 J-0.443
G1 X92.128
G18 G2 X92.445 Z-0.715 I0 K0.317
G1 Z3 F1500.0
X-4.161 Y80.865
Z1
Z-0.715
F1500.0
F400.0
G2 X-3.844 Z-1.032 I0.317 K0
G17 G3 X-2.984 Y81.353 I0 J1
G2 X-1.62 Y82.129 I1.364 J-0.812
G1 X91.62
G18 G2 X91.938 Z-0.715 I0 K0.317
G1 Z3 F1500.0
X-3.149 Y82.422
Z1
Z-0.715
F1500.0
F400.0
G2 X-2.832 Z-1.032 I0.318 K0
G17 G3 X-2.056 Y82.791 I0 J1
G2 X-0.825 Y83.376 I1.232 J-1.002
G1 X90.825
G18 G2 X91.142 Z-0.715 I0 K0.317
G1 Z4 F1500.0
G17
M5
M30


