(bottom-outline)
(Machine)
(  vendor: Autodesk)
(  model: Sainsmart 3018pro)
(  description: 3018)
G90 G94
G17
G21
(When using Fusion 360 for Personal Use, the feedrate of)
(rapid moves is reduced to match the feedrate of cutting)
(moves, which can increase machining time. Unrestricted rapid)
(moves are available with a Fusion 360 Subscription.)

(2D Adaptive1)
G54
G0 Z2 F1500
G0 X-0.327 Y-3.701
S5000 M3
G1 Z-0.365 F300
Z-0.683
X-0.325 Y-3.694 Z-0.753
X-0.32 Y-3.671 Z-0.82
X-0.31 Y-3.634 Z-0.88
X-0.298 Y-3.586 Z-0.931
X-0.283 Y-3.527 Z-0.969
X-0.266 Y-3.462 Z-0.992
X-0.249 Y-3.394 Z-1
G3 X0 Y-1.665 I-7.852 J2.011
G1 Y-1.571 F270
X-0.399 Y-1.068 F300
X-0.66 Y-0.481
X-0.814 Y0.142
X-0.899 Y0.779
X-0.944 Y1.419
X-0.966 Y2.061
X-0.977 Y2.703
X-0.982 Y3.346
X-0.985 Y3.988
X-0.987 Y5.272
X-0.988 Y35.455
Y48.299
Y83.94
X-0.934 Y84.256
X-0.805 Y84.551
X-0.436 Y85.076
X0.085 Y85.451
X0.681 Y85.691
X1.308 Y85.832
X1.945 Y85.909
X2.586 Y85.948
X3.228 Y85.968
X3.87 Y85.978
X4.512 Y85.983
X5.154 Y85.985
X7.081 Y85.987
X12.861 Y85.988
X62.951
X88.96
X89.275 Y85.929
X89.568 Y85.796
X90.089 Y85.421
X90.46 Y84.897
X90.696 Y84.3
X90.835 Y83.673
X90.91 Y83.035
X90.949 Y82.394
X90.969 Y81.752
X90.978 Y81.11
X90.983 Y80.468
X90.985 Y79.825
X90.987 Y77.899
X90.988 Y62.486
Y12.396
Y0.837
X90.879 Y0.534
X90.71 Y0.262
X90.279 Y-0.215
X89.727 Y-0.543
X89.118 Y-0.746
X88.486 Y-0.862
X87.847 Y-0.925
X87.206 Y-0.957
X86.564 Y-0.972
X85.922 Y-0.98
X85.28 Y-0.984
X83.995 Y-0.987
X77.573
X53.17 Y-0.988
X3.08
X1.795
X1.482 Y-0.918
X1.188 Y-0.789
X0.656 Y-0.43
X0.259 Y0.076
X-0.009 Y0.659
X-0.176 Y1.279
X-0.273 Y1.914
X-0.327 Y2.554
X-0.356 Y3.196
X-0.372 Y3.838
X-0.379 Y4.48
X-0.383 Y5.122
X-0.385 Y5.764
X-0.387 Y7.691
Y46.864
Y82.826
X-0.319 Y83.465
X-0.039 Y84.043
X0.406 Y84.506
X0.953 Y84.842
X1.555 Y85.066
X2.182 Y85.206
X2.819 Y85.288
X3.459 Y85.334
X4.101 Y85.359
X4.743 Y85.373
X5.385 Y85.38
X6.027 Y85.384
X7.311 Y85.386
X11.807 Y85.387
X12.449
X62.539
X87.585
X88.227 Y85.379
X88.835 Y85.173
X89.344 Y84.782
X89.727 Y84.266
X89.991 Y83.681
X90.161 Y83.061
X90.262 Y82.427
X90.32 Y81.788
X90.352 Y81.146
X90.369 Y80.504
X90.378 Y79.862
X90.383 Y79.22
X90.385 Y78.578
X90.387 Y77.294
Y63.165
Y61.881
Y11.791
Y2.158
X90.352 Y1.839
X90.178 Y1.221
X89.805 Y0.698
X89.3 Y0.301
X88.719 Y0.026
X88.102 Y-0.15
X87.468 Y-0.256
X86.829 Y-0.316
X86.188 Y-0.35
X85.546 Y-0.368
X84.904 Y-0.377
X84.262 Y-0.382
X83.619 Y-0.385
X82.335 Y-0.387
X71.418
X50.868
X2.704
X2.075 Y-0.258
X1.517 Y0.06
X1.074 Y0.525
X0.752 Y1.081
X0.536 Y1.685
X0.399 Y2.313
X0.317 Y2.95
X0.27 Y3.59
X0.244 Y4.232
X0.229 Y4.874
X0.221 Y5.516
X0.217 Y6.158
X0.215 Y6.8
X0.213 Y8.727
Y50.469
Y81.936
X0.252 Y82.577
X0.481 Y83.177
X0.878 Y83.682
X1.391 Y84.069
X1.972 Y84.341
X2.589 Y84.521
X3.221 Y84.633
X3.86 Y84.701
X4.501 Y84.739
X5.142 Y84.761
X5.785 Y84.773
X6.427 Y84.78
X7.069 Y84.783
X8.353 Y84.786
X12.206 Y84.787
X17.344
X67.434
X86.7
X87.342 Y84.785
X87.964 Y84.626
X88.509 Y84.286
X88.94 Y83.81
X89.253 Y83.249
X89.464 Y82.643
X89.599 Y82.015
X89.68 Y81.378
X89.728 Y80.738
X89.755 Y80.096
X89.77 Y79.454
X89.778 Y78.812
X89.782 Y78.17
X89.785 Y77.527
X89.787 Y76.243
Y67.253
Y55.693
Y5.603
Y3.034
X89.733 Y2.394
X89.493 Y1.798
X89.089 Y1.3
X88.571 Y0.919
X87.988 Y0.651
X87.37 Y0.474
X86.738 Y0.363
X86.099 Y0.297
X85.458 Y0.259
X84.816 Y0.238
X84.174 Y0.226
X83.532 Y0.22
X82.89 Y0.216
X81.605 Y0.214
X77.11 Y0.213
X43.716
X3.901
X3.259 Y0.232
X2.641 Y0.407
X2.103 Y0.758
X1.677 Y1.238
X1.365 Y1.8
X1.152 Y2.405
X1.014 Y3.032
X0.929 Y3.669
X0.878 Y4.309
X0.849 Y4.951
X0.833 Y5.593
X0.824 Y6.235
X0.819 Y6.877
X0.816 Y7.519
X0.813 Y8.803
Y14.583
Y58.894
Y80.728
X0.815 Y81.37
X0.896 Y82.007
X1.157 Y82.594
X1.572 Y83.084
X2.093 Y83.46
X2.677 Y83.728
X3.293 Y83.907
X3.925 Y84.022
X4.563 Y84.092
X5.204 Y84.133
X5.846 Y84.157
X6.488 Y84.171
X7.13 Y84.178
X7.772 Y84.182
X8.414 Y84.185
X10.341 Y84.187
X27.038 Y84.188
X77.128
X86.119 Y84.187
X86.761 Y84.162
X87.374 Y83.973
X87.905 Y83.612
X88.326 Y83.127
X88.634 Y82.563
X88.846 Y81.957
X88.983 Y81.33
X89.069 Y80.693
X89.12 Y80.053
X89.149 Y79.411
X89.166 Y78.77
X89.176 Y78.127
X89.181 Y77.485
X89.184 Y76.843
X89.186 Y75.559
X89.187 Y70.421
X89.188 Y44.734
Y4.276
X89.185 Y3.634
X89.101 Y2.997
X88.84 Y2.41
X88.425 Y1.92
X87.904 Y1.544
X87.321 Y1.275
X86.705 Y1.094
X86.073 Y0.979
X85.435 Y0.909
X84.794 Y0.867
X84.152 Y0.843
X83.51 Y0.829
X82.868 Y0.822
X82.226 Y0.818
X81.584 Y0.815
X79.657 Y0.813
X31.493
X4.521
X3.88 Y0.845
X3.267 Y1.035
X2.733 Y1.393
X2.308 Y1.874
X1.994 Y2.434
X1.776 Y3.038
X1.632 Y3.664
X1.542 Y4.3
X1.487 Y4.94
X1.455 Y5.581
X1.449 Y5.777
X1.431 Y5.951
X1.388 Y6.121
X1.32 Y6.282
X1.254 Y6.413
X1.17 Y6.603
X1.135 Y6.704
X1.094 Y6.85
X1.069 Y6.996
X0.999 Y7.433
X0.953 Y7.725
X0.937 Y7.871
X0.918 Y8.162
X0.913 Y8.308
Y76.692
X0.918 Y76.838
X0.937 Y77.129
X0.953 Y77.275
X1.046 Y77.858
X1.069 Y78.004
X1.094 Y78.15
X1.135 Y78.296
X1.174 Y78.44
X1.223 Y78.668
X1.275 Y78.979
X1.328 Y79.438
X1.373 Y80.079
X1.396 Y80.721
X1.495 Y81.355
X1.757 Y81.941
X2.17 Y82.433
X2.686 Y82.815
X3.266 Y83.091
X3.88 Y83.28
X4.51 Y83.403
X5.148 Y83.479
X5.789 Y83.524
X6.43 Y83.551
X7.072 Y83.567
X7.714 Y83.576
X8.357 Y83.581
X8.999 Y83.584
X10.283 Y83.586
X14.778 Y83.587
X48.172 Y83.588
X85.419 Y83.587
X86.06 Y83.559
X86.677 Y83.378
X87.218 Y83.032
X87.652 Y82.559
X87.977 Y82.005
X88.204 Y81.404
X88.354 Y80.78
X88.449 Y80.145
X88.506 Y79.505
X88.52 Y79.256
X88.54 Y79.092
X88.583 Y78.933
X88.647 Y78.781
X88.746 Y78.587
X88.83 Y78.397
X88.866 Y78.296
X88.906 Y78.15
X88.931 Y78.004
X89.001 Y77.567
X89.047 Y77.275
X89.063 Y77.129
X89.082 Y76.838
X89.088 Y76.692
Y8.308
X89.082 Y8.162
X89.063 Y7.871
X89.047 Y7.725
X88.954 Y7.142
X88.931 Y6.996
X88.906 Y6.85
X88.866 Y6.704
X88.826 Y6.56
X88.777 Y6.332
X88.726 Y6.021
X88.672 Y5.562
X88.627 Y4.921
X88.603 Y4.28
X88.503 Y3.645
X88.239 Y3.06
X87.826 Y2.568
X87.31 Y2.186
X86.73 Y1.91
X86.116 Y1.721
X85.486 Y1.598
X84.848 Y1.522
X84.208 Y1.476
X83.566 Y1.449
X82.924 Y1.433
X82.282 Y1.424
X81.64 Y1.419
X80.998 Y1.416
X79.713 Y1.414
X75.218 Y1.413
X41.824
X5.22
X4.578 Y1.445
X3.962 Y1.624
X3.418 Y1.966
X2.978 Y2.434
X2.648 Y2.985
X2.415 Y3.583
X2.26 Y4.206
X2.182 Y4.709
X2.127 Y4.915
X2.032 Y5.106
X1.899 Y5.273
X1.806 Y5.392
X1.754 Y5.462
X1.707 Y5.538
X1.462 Y6.005
X1.32 Y6.282
X1.254 Y6.413 Z-0.853
X1.189 Y6.558 Z-0.693
X1.17 Y6.603 Z-0.645
X1.135 Y6.704 Z-0.537
X1.125 Y6.74 Z-0.5
X1.104 Y6.816
X1.094 Y6.85
X1.069 Y6.996
X1.022 Y7.287
X0.953 Y7.725
X0.937 Y7.871
X0.918 Y8.162
X0.913 Y8.308
Y76.692
X0.918 Y76.838
X0.937 Y77.129
X0.953 Y77.275
X1.022 Y77.713
X1.025 Y77.729
X1.037 Y77.807
X1.069 Y78.004 Z-0.7
X1.094 Y78.15 Z-0.848
X1.135 Y78.296 Z-1
X1.17 Y78.397
X1.254 Y78.587
X1.477 Y79.025
X1.519 Y79.105
X1.582 Y79.241
X1.638 Y79.381
X1.687 Y79.53
X1.778 Y79.851
X1.923 Y80.477
X2.152 Y81.077
X2.521 Y81.602
X3.001 Y82.029
X3.557 Y82.351
X4.157 Y82.579
X4.78 Y82.734
X5.414 Y82.833
X6.054 Y82.896
X6.695 Y82.934
X7.336 Y82.956
X7.979 Y82.969
X8.621 Y82.977
X9.263 Y82.982
X9.905 Y82.984
X11.189 Y82.986
X16.327 Y82.987
X49.72 Y82.988
X84.399 Y82.987
X85.041 Y82.982
X85.677 Y82.896
X86.268 Y82.644
X86.77 Y82.243
X87.163 Y81.736
X87.451 Y81.162
X87.65 Y80.551
X87.675 Y80.43
X87.742 Y80.215
X87.847 Y80.017
X87.989 Y79.842
X88.101 Y79.727
X88.194 Y79.608
X88.246 Y79.538
X88.293 Y79.462
X88.538 Y78.995
X88.647 Y78.781
X88.746 Y78.587 Z-0.782
X88.811 Y78.442 Z-0.622
X88.83 Y78.397 Z-0.574
X88.854 Y78.328 Z-0.5
X88.866 Y78.296
X88.878 Y78.252
X88.906 Y78.15
X88.931 Y78.004
X88.978 Y77.713
X89.047 Y77.275
X89.063 Y77.129
X89.082 Y76.838
X89.088 Y76.692
Y8.308
X89.082 Y8.162
X89.063 Y7.871
X89.047 Y7.725
X88.978 Y7.287
X88.975 Y7.271
X88.963 Y7.193
X88.931 Y6.996 Z-0.7
X88.906 Y6.85 Z-0.848
X88.866 Y6.704 Z-1
X88.83 Y6.603
X88.746 Y6.413
X88.523 Y5.975
X88.481 Y5.895
X88.418 Y5.759
X88.363 Y5.619
X88.313 Y5.47
X88.219 Y5.137
X88.073 Y4.512
X87.84 Y3.913
X87.469 Y3.39
X86.987 Y2.965
X86.43 Y2.645
X85.83 Y2.418
X85.206 Y2.265
X84.571 Y2.166
X83.932 Y2.104
X83.291 Y2.066
X82.649 Y2.044
X82.007 Y2.03
X81.365 Y2.023
X80.723 Y2.018
X80.081 Y2.016
X78.796 Y2.014
X73.659 Y2.013
X40.265
X6.229
X5.587 Y2.019
X4.951 Y2.107
X4.359 Y2.357
X3.855 Y2.754
X3.458 Y3.259
X3.166 Y3.831
X3.133 Y3.918
X3.039 Y4.113
X2.912 Y4.288
X2.754 Y4.437
X2.652 Y4.517
X2.483 Y4.685
X2.068 Y5.1
X1.899 Y5.273
Z2 F1500.0
X0.703 Y78.374
Z-0.365
F300.0
Z-0.683
X0.709 Y78.378 Z-0.753
X0.729 Y78.391 Z-0.82
X0.762 Y78.41 Z-0.88
X0.804 Y78.437 Z-0.931
X0.856 Y78.468 Z-0.969
X0.913 Y78.503 Z-0.992
X0.973 Y78.54 Z-1
G3 X1.519 Y79.105 I-0.829 J1.348
G1 X1.707 Y79.462
X1.754 Y79.538
X1.806 Y79.608
X1.899 Y79.727
X1.925 Y79.754
X2.025 Y79.866
X2.401 Y80.387
X2.801 Y80.889
X3.284 Y81.313
X3.832 Y81.648
X4.424 Y81.896
X5.042 Y82.071
X5.673 Y82.189
X6.311 Y82.265
X6.951 Y82.314
X7.592 Y82.344
X8.234 Y82.362
X8.876 Y82.372
X9.519 Y82.379
X10.161 Y82.382
X11.445 Y82.386
X14.014 Y82.387
X51.261
X83.37
X84.012 Y82.386
X84.654 Y82.364
X85.279 Y82.215
X85.84 Y81.902
X86.303 Y81.458
X86.52 Y81.138
X86.637 Y80.992
X86.776 Y80.866
X86.933 Y80.764
X87.08 Y80.681
X87.162 Y80.629
X87.348 Y80.483
X87.517 Y80.315
X87.932 Y79.9
X87.989 Y79.842
Z2 F1500.0
X89.297 Y6.626
Z-0.365
F300.0
Z-0.683
X89.291 Y6.622 Z-0.753
X89.271 Y6.609 Z-0.82
X89.238 Y6.59 Z-0.88
X89.196 Y6.563 Z-0.931
X89.144 Y6.532 Z-0.969
X89.087 Y6.497 Z-0.992
X89.027 Y6.46 Z-1
G3 X88.481 Y5.895 I0.829 J-1.348
G1 X88.293 Y5.538
X88.246 Y5.462
X88.194 Y5.392
X88.101 Y5.273
X88.075 Y5.246
X87.975 Y5.134
X87.598 Y4.614
X87.198 Y4.112
X86.715 Y3.688
X86.167 Y3.353
X85.575 Y3.105
X84.957 Y2.93
X84.326 Y2.812
X83.688 Y2.735
X83.048 Y2.686
X82.407 Y2.657
X81.765 Y2.638
X81.123 Y2.628
X80.48 Y2.621
X79.838 Y2.618
X78.554 Y2.614
X75.985 Y2.613
X38.738 Y2.612
X7.271 Y2.613
X6.629 Y2.614
X5.987 Y2.636
X5.361 Y2.78
X4.797 Y3.086
X4.322 Y3.518
X4.211 Y3.626
X4.088 Y3.718
X3.954 Y3.794
X3.65 Y3.941
X3.504 Y4.013
X3.086 Y4.225
X2.92 Y4.319
X2.838 Y4.371
X2.754 Y4.437
Z2 F1500.0
X0.934 Y79.288
Z-0.365
F300.0
Z-0.683
X0.941 Y79.29 Z-0.753
X0.964 Y79.296 Z-0.82
X1.001 Y79.306 Z-0.88
X1.049 Y79.319 Z-0.931
X1.107 Y79.334 Z-0.969
X1.172 Y79.351 Z-0.992
X1.24 Y79.37 Z-1
G3 X1.925 Y79.754 I-0.408 J1.529
G1 X2.068 Y79.9
X2.505 Y80.337
X2.652 Y80.483
X2.838 Y80.629
X2.92 Y80.681
X3.087 Y80.775
X3.504 Y80.987
X3.665 Y81.066
X3.967 Y81.212
X4.087 Y81.257
X4.233 Y81.3
X4.379 Y81.326
X5.007 Y81.462
X5.641 Y81.56
X6.279 Y81.635
X6.919 Y81.689
X7.56 Y81.725
X8.202 Y81.749
X8.844 Y81.764
X9.486 Y81.773
X10.128 Y81.779
X10.77 Y81.782
X12.055 Y81.786
X14.623 Y81.787
X54.439
X83.337
X83.979 Y81.765
X84.606 Y81.625
X84.819 Y81.515
X84.936 Y81.462
X85.057 Y81.423
X85.183 Y81.396
X85.475 Y81.35
X85.621 Y81.326
X85.767 Y81.3
X85.913 Y81.257
X86.033 Y81.212
X86.35 Y81.059
X86.496 Y80.987
X86.913 Y80.775
X86.933 Y80.764
G3 X87.363 Y81.182 I0.142 J0.284
G1 X87.333 Y81.246 Z-0.992
X87.305 Y81.307 Z-0.969
X87.279 Y81.362 Z-0.931
X87.258 Y81.407 Z-0.88
X87.242 Y81.441 Z-0.82
X87.232 Y81.463 Z-0.753
X87.228 Y81.47 Z-0.683
Z2 F1500.0
X89.066 Y5.712
Z-0.365
F300.0
Z-0.683
X89.059 Y5.71 Z-0.753
X89.036 Y5.704 Z-0.82
X89 Y5.694 Z-0.88
X88.951 Y5.681 Z-0.931
X88.893 Y5.666 Z-0.969
X88.828 Y5.649 Z-0.992
X88.76 Y5.63 Z-1
G3 X88.075 Y5.246 I0.408 J-1.529
G1 X87.932 Y5.1
X87.495 Y4.663
X87.348 Y4.517
X87.162 Y4.371
X87.08 Y4.319
X86.914 Y4.225
X86.496 Y4.013
X86.335 Y3.934
X86.033 Y3.788
X85.913 Y3.743
X85.767 Y3.7
X85.621 Y3.674
X84.993 Y3.538
X84.359 Y3.44
X83.721 Y3.365
X83.081 Y3.311
X82.44 Y3.275
X81.798 Y3.251
X81.156 Y3.236
X80.514 Y3.227
X79.872 Y3.221
X79.23 Y3.218
X77.945 Y3.214
X75.377 Y3.213
X35.561
X7.947
X7.305
X6.663 Y3.234
X6.035 Y3.366
X5.925 Y3.415
X5.772 Y3.472
X5.613 Y3.507
X5.45 Y3.52
X5.4
X5.254 Y3.539
X4.962 Y3.581
X4.525 Y3.65
X4.304 Y3.687
X4.233 Y3.7
X4.087 Y3.743
X3.967 Y3.788
X3.954 Y3.794
Z2 F1500.0
X3.304 Y81.537
Z-0.365
F300.0
Z-0.683
X3.311 Y81.534 Z-0.753
X3.333 Y81.526 Z-0.82
X3.368 Y81.512 Z-0.88
X3.415 Y81.494 Z-0.931
X3.471 Y81.472 Z-0.969
X3.534 Y81.447 Z-0.992
X3.599 Y81.421 Z-1
G3 X4.379 Y81.326 I0.576 J1.474
G1 X4.671 Y81.373
X4.962 Y81.419
X5.254 Y81.461
X5.4 Y81.48
X5.838 Y81.484
X84.162
X84.6 Y81.48
X84.746 Y81.461
X85.038 Y81.419
X85.183 Y81.396
G3 X85.445 Y81.936 I0.037 J0.315
G1 X85.395 Y81.986 Z-0.992
X85.348 Y82.033 Z-0.969
X85.305 Y82.076 Z-0.931
X85.27 Y82.112 Z-0.88
X85.243 Y82.138 Z-0.82
X85.226 Y82.155 Z-0.753
X85.221 Y82.161 Z-0.683
Z2 F1500.0
X86.696 Y3.463
Z-0.365
F300.0
Z-0.683
X86.689 Y3.466 Z-0.753
X86.667 Y3.474 Z-0.82
X86.632 Y3.488 Z-0.88
X86.585 Y3.507 Z-0.931
X86.529 Y3.528 Z-0.969
X86.466 Y3.553 Z-0.992
X86.401 Y3.579 Z-1
G3 X85.621 Y3.674 I-0.576 J-1.474
G1 X85.329 Y3.627
X85.038 Y3.581
X84.746 Y3.539
X84.6 Y3.52
X84.162 Y3.516
X5.838
X5.45 Y3.52
G3 X5.141 Y3.225 I0.008 J-0.317
G1 Y3.203 Z-0.999
Y3.202
X5.154 Y3.149 Z-0.99
X5.167 Y3.098 Z-0.971
X5.179 Y3.051 Z-0.943
X5.209 Y3.016 Z-0.904
X5.234 Y2.987 Z-0.856
X5.253 Y2.966 Z-0.802
X5.264 Y2.953 Z-0.744
X5.268 Y2.948 Z-0.683
Z2 F1500.0
X-0.327 Y-3.701
Z-1.365
F300.0
Z-1.683
X-0.325 Y-3.694 Z-1.753
X-0.32 Y-3.671 Z-1.82
X-0.31 Y-3.634 Z-1.88
X-0.298 Y-3.586 Z-1.931
X-0.283 Y-3.527 Z-1.969
X-0.266 Y-3.462 Z-1.992
X-0.249 Y-3.394 Z-2
G3 X0 Y-1.665 I-7.852 J2.011
G1 Y-1.571 F270
X-0.399 Y-1.068 F300
X-0.66 Y-0.481
X-0.814 Y0.142
X-0.899 Y0.779
X-0.944 Y1.419
X-0.966 Y2.061
X-0.977 Y2.703
X-0.982 Y3.346
X-0.985 Y3.988
X-0.987 Y5.272
X-0.988 Y35.455
Y48.299
Y83.94
X-0.934 Y84.256
X-0.805 Y84.551
X-0.436 Y85.076
X0.085 Y85.451
X0.681 Y85.691
X1.308 Y85.832
X1.945 Y85.909
X2.586 Y85.948
X3.228 Y85.968
X3.87 Y85.978
X4.512 Y85.983
X5.154 Y85.985
X7.081 Y85.987
X12.861 Y85.988
X62.951
X88.96
X89.275 Y85.929
X89.568 Y85.796
X90.089 Y85.421
X90.46 Y84.897
X90.696 Y84.3
X90.835 Y83.673
X90.91 Y83.035
X90.949 Y82.394
X90.969 Y81.752
X90.978 Y81.11
X90.983 Y80.468
X90.985 Y79.825
X90.987 Y77.899
X90.988 Y62.486
Y12.396
Y0.837
X90.879 Y0.534
X90.71 Y0.262
X90.279 Y-0.215
X89.727 Y-0.543
X89.118 Y-0.746
X88.486 Y-0.862
X87.847 Y-0.925
X87.206 Y-0.957
X86.564 Y-0.972
X85.922 Y-0.98
X85.28 Y-0.984
X83.995 Y-0.987
X77.573
X53.17 Y-0.988
X3.08
X1.795
X1.482 Y-0.918
X1.188 Y-0.789
X0.656 Y-0.43
X0.259 Y0.076
X-0.009 Y0.659
X-0.176 Y1.279
X-0.273 Y1.914
X-0.327 Y2.554
X-0.356 Y3.196
X-0.372 Y3.838
X-0.379 Y4.48
X-0.383 Y5.122
X-0.385 Y5.764
X-0.387 Y7.691
Y46.864
Y82.826
X-0.319 Y83.465
X-0.039 Y84.043
X0.406 Y84.506
X0.953 Y84.842
X1.555 Y85.066
X2.182 Y85.206
X2.819 Y85.288
X3.459 Y85.334
X4.101 Y85.359
X4.743 Y85.373
X5.385 Y85.38
X6.027 Y85.384
X7.311 Y85.386
X11.807 Y85.387
X12.449
X62.539
X87.585
X88.227 Y85.379
X88.835 Y85.173
X89.344 Y84.782
X89.727 Y84.266
X89.991 Y83.681
X90.161 Y83.061
X90.262 Y82.427
X90.32 Y81.788
X90.352 Y81.146
X90.369 Y80.504
X90.378 Y79.862
X90.383 Y79.22
X90.385 Y78.578
X90.387 Y77.294
Y63.165
Y61.881
Y11.791
Y2.158
X90.352 Y1.839
X90.178 Y1.221
X89.805 Y0.698
X89.3 Y0.301
X88.719 Y0.026
X88.102 Y-0.15
X87.468 Y-0.256
X86.829 Y-0.316
X86.188 Y-0.35
X85.546 Y-0.368
X84.904 Y-0.377
X84.262 Y-0.382
X83.619 Y-0.385
X82.335 Y-0.387
X71.418
X50.868
X2.704
X2.075 Y-0.258
X1.517 Y0.06
X1.074 Y0.525
X0.752 Y1.081
X0.536 Y1.685
X0.399 Y2.313
X0.317 Y2.95
X0.27 Y3.59
X0.244 Y4.232
X0.229 Y4.874
X0.221 Y5.516
X0.217 Y6.158
X0.215 Y6.8
X0.213 Y8.727
Y50.469
Y81.936
X0.252 Y82.577
X0.481 Y83.177
X0.878 Y83.682
X1.391 Y84.069
X1.972 Y84.341
X2.589 Y84.521
X3.221 Y84.633
X3.86 Y84.701
X4.501 Y84.739
X5.142 Y84.761
X5.785 Y84.773
X6.427 Y84.78
X7.069 Y84.783
X8.353 Y84.786
X12.206 Y84.787
X17.344
X67.434
X86.7
X87.342 Y84.785
X87.964 Y84.626
X88.509 Y84.286
X88.94 Y83.81
X89.253 Y83.249
X89.464 Y82.643
X89.599 Y82.015
X89.68 Y81.378
X89.728 Y80.738
X89.755 Y80.096
X89.77 Y79.454
X89.778 Y78.812
X89.782 Y78.17
X89.785 Y77.527
X89.787 Y76.243
Y67.253
Y55.693
Y5.603
Y3.034
X89.733 Y2.394
X89.493 Y1.798
X89.089 Y1.3
X88.571 Y0.919
X87.988 Y0.651
X87.37 Y0.474
X86.738 Y0.363
X86.099 Y0.297
X85.458 Y0.259
X84.816 Y0.238
X84.174 Y0.226
X83.532 Y0.22
X82.89 Y0.216
X81.605 Y0.214
X77.11 Y0.213
X43.716
X3.901
X3.259 Y0.232
X2.641 Y0.407
X2.103 Y0.758
X1.677 Y1.238
X1.365 Y1.8
X1.152 Y2.405
X1.014 Y3.032
X0.929 Y3.669
X0.878 Y4.309
X0.849 Y4.951
X0.833 Y5.593
X0.824 Y6.235
X0.819 Y6.877
X0.816 Y7.519
X0.813 Y8.803
Y14.583
Y58.894
Y80.728
X0.815 Y81.37
X0.896 Y82.007
X1.157 Y82.594
X1.572 Y83.084
X2.093 Y83.46
X2.677 Y83.728
X3.293 Y83.907
X3.925 Y84.022
X4.563 Y84.092
X5.204 Y84.133
X5.846 Y84.157
X6.488 Y84.171
X7.13 Y84.178
X7.772 Y84.182
X8.414 Y84.185
X10.341 Y84.187
X27.038 Y84.188
X77.128
X86.119 Y84.187
X86.761 Y84.162
X87.374 Y83.973
X87.905 Y83.612
X88.326 Y83.127
X88.634 Y82.563
X88.846 Y81.957
X88.983 Y81.33
X89.069 Y80.693
X89.12 Y80.053
X89.149 Y79.411
X89.166 Y78.77
X89.176 Y78.127
X89.181 Y77.485
X89.184 Y76.843
X89.186 Y75.559
X89.187 Y70.421
X89.188 Y44.734
Y4.276
X89.185 Y3.634
X89.101 Y2.997
X88.84 Y2.41
X88.425 Y1.92
X87.904 Y1.544
X87.321 Y1.275
X86.705 Y1.094
X86.073 Y0.979
X85.435 Y0.909
X84.794 Y0.867
X84.152 Y0.843
X83.51 Y0.829
X82.868 Y0.822
X82.226 Y0.818
X81.584 Y0.815
X79.657 Y0.813
X31.493
X4.521
X3.88 Y0.845
X3.267 Y1.035
X2.733 Y1.393
X2.308 Y1.874
X1.994 Y2.434
X1.776 Y3.038
X1.632 Y3.664
X1.542 Y4.3
X1.487 Y4.94
X1.455 Y5.581
X1.449 Y5.777
X1.431 Y5.951
X1.388 Y6.121
X1.32 Y6.282
X1.254 Y6.413
X1.17 Y6.603
X1.135 Y6.704
X1.094 Y6.85
X1.069 Y6.996
X0.999 Y7.433
X0.953 Y7.725
X0.937 Y7.871
X0.918 Y8.162
X0.913 Y8.308
Y76.692
X0.918 Y76.838
X0.937 Y77.129
X0.953 Y77.275
X1.046 Y77.858
X1.069 Y78.004
X1.094 Y78.15
X1.135 Y78.296
X1.174 Y78.44
X1.223 Y78.668
X1.275 Y78.979
X1.328 Y79.438
X1.373 Y80.079
X1.396 Y80.721
X1.495 Y81.355
X1.757 Y81.941
X2.17 Y82.433
X2.686 Y82.815
X3.266 Y83.091
X3.88 Y83.28
X4.51 Y83.403
X5.148 Y83.479
X5.789 Y83.524
X6.43 Y83.551
X7.072 Y83.567
X7.714 Y83.576
X8.357 Y83.581
X8.999 Y83.584
X10.283 Y83.586
X14.778 Y83.587
X48.172 Y83.588
X85.419 Y83.587
X86.06 Y83.559
X86.677 Y83.378
X87.218 Y83.032
X87.652 Y82.559
X87.977 Y82.005
X88.204 Y81.404
X88.354 Y80.78
X88.449 Y80.145
X88.506 Y79.505
X88.52 Y79.256
X88.54 Y79.092
X88.583 Y78.933
X88.647 Y78.781
X88.746 Y78.587
X88.83 Y78.397
X88.866 Y78.296
X88.906 Y78.15
X88.931 Y78.004
X89.001 Y77.567
X89.047 Y77.275
X89.063 Y77.129
X89.082 Y76.838
X89.088 Y76.692
Y8.308
X89.082 Y8.162
X89.063 Y7.871
X89.047 Y7.725
X88.954 Y7.142
X88.931 Y6.996
X88.906 Y6.85
X88.866 Y6.704
X88.826 Y6.56
X88.777 Y6.332
X88.726 Y6.021
X88.672 Y5.562
X88.627 Y4.921
X88.603 Y4.28
X88.503 Y3.645
X88.239 Y3.06
X87.826 Y2.568
X87.31 Y2.186
X86.73 Y1.91
X86.116 Y1.721
X85.486 Y1.598
X84.848 Y1.522
X84.208 Y1.476
X83.566 Y1.449
X82.924 Y1.433
X82.282 Y1.424
X81.64 Y1.419
X80.998 Y1.416
X79.713 Y1.414
X75.218 Y1.413
X41.824
X5.22
X4.578 Y1.445
X3.962 Y1.624
X3.418 Y1.966
X2.978 Y2.434
X2.648 Y2.985
X2.415 Y3.583
X2.26 Y4.206
X2.182 Y4.709
X2.127 Y4.915
X2.032 Y5.106
X1.899 Y5.273
X1.806 Y5.392
X1.754 Y5.462
X1.707 Y5.538
X1.462 Y6.005
X1.32 Y6.282
X1.254 Y6.413 Z-1.853
X1.189 Y6.558 Z-1.693
X1.17 Y6.603 Z-1.645
X1.135 Y6.704 Z-1.537
X1.125 Y6.74 Z-1.5
X1.104 Y6.816
X1.094 Y6.85
X1.069 Y6.996
X1.022 Y7.287
X0.953 Y7.725
X0.937 Y7.871
X0.918 Y8.162
X0.913 Y8.308
Y76.692
X0.918 Y76.838
X0.937 Y77.129
X0.953 Y77.275
X1.022 Y77.713
X1.025 Y77.729
X1.037 Y77.807
X1.069 Y78.004 Z-1.7
X1.094 Y78.15 Z-1.848
X1.135 Y78.296 Z-2
X1.17 Y78.397
X1.254 Y78.587
X1.477 Y79.025
X1.519 Y79.105
X1.582 Y79.241
X1.638 Y79.381
X1.687 Y79.53
X1.778 Y79.851
X1.923 Y80.477
X2.152 Y81.077
X2.521 Y81.602
X3.001 Y82.029
X3.557 Y82.351
X4.157 Y82.579
X4.78 Y82.734
X5.414 Y82.833
X6.054 Y82.896
X6.695 Y82.934
X7.336 Y82.956
X7.979 Y82.969
X8.621 Y82.977
X9.263 Y82.982
X9.905 Y82.984
X11.189 Y82.986
X16.327 Y82.987
X49.72 Y82.988
X84.399 Y82.987
X85.041 Y82.982
X85.677 Y82.896
X86.268 Y82.644
X86.77 Y82.243
X87.163 Y81.736
X87.451 Y81.162
X87.65 Y80.551
X87.675 Y80.43
X87.742 Y80.215
X87.847 Y80.017
X87.989 Y79.842
X88.101 Y79.727
X88.194 Y79.608
X88.246 Y79.538
X88.293 Y79.462
X88.538 Y78.995
X88.647 Y78.781
X88.746 Y78.587 Z-1.782
X88.811 Y78.442 Z-1.622
X88.83 Y78.397 Z-1.574
X88.854 Y78.328 Z-1.5
X88.866 Y78.296
X88.878 Y78.252
X88.906 Y78.15
X88.931 Y78.004
X88.978 Y77.713
X89.047 Y77.275
X89.063 Y77.129
X89.082 Y76.838
X89.088 Y76.692
Y8.308
X89.082 Y8.162
X89.063 Y7.871
X89.047 Y7.725
X88.978 Y7.287
X88.975 Y7.271
X88.963 Y7.193
X88.931 Y6.996 Z-1.7
X88.906 Y6.85 Z-1.848
X88.866 Y6.704 Z-2
X88.83 Y6.603
X88.746 Y6.413
X88.523 Y5.975
X88.481 Y5.895
X88.418 Y5.759
X88.363 Y5.619
X88.313 Y5.47
X88.219 Y5.137
X88.073 Y4.512
X87.84 Y3.913
X87.469 Y3.39
X86.987 Y2.965
X86.43 Y2.645
X85.83 Y2.418
X85.206 Y2.265
X84.571 Y2.166
X83.932 Y2.104
X83.291 Y2.066
X82.649 Y2.044
X82.007 Y2.03
X81.365 Y2.023
X80.723 Y2.018
X80.081 Y2.016
X78.796 Y2.014
X73.659 Y2.013
X40.265
X6.229
X5.587 Y2.019
X4.951 Y2.107
X4.359 Y2.357
X3.855 Y2.754
X3.458 Y3.259
X3.166 Y3.831
X3.133 Y3.918
X3.039 Y4.113
X2.912 Y4.288
X2.754 Y4.437
X2.652 Y4.517
X2.483 Y4.685
X2.068 Y5.1
X1.899 Y5.273
Z2 F1500.0
X0.703 Y78.374
Z-1.365
F300.0
Z-1.683
X0.709 Y78.378 Z-1.753
X0.729 Y78.391 Z-1.82
X0.762 Y78.41 Z-1.88
X0.804 Y78.437 Z-1.931
X0.856 Y78.468 Z-1.969
X0.913 Y78.503 Z-1.992
X0.973 Y78.54 Z-2
G3 X1.519 Y79.105 I-0.829 J1.348
G1 X1.707 Y79.462
X1.754 Y79.538
X1.806 Y79.608
X1.899 Y79.727
X1.925 Y79.754
X2.025 Y79.866
X2.401 Y80.387
X2.801 Y80.889
X3.284 Y81.313
X3.832 Y81.648
X4.424 Y81.896
X5.042 Y82.071
X5.673 Y82.189
X6.311 Y82.265
X6.951 Y82.314
X7.592 Y82.344
X8.234 Y82.362
X8.876 Y82.372
X9.519 Y82.379
X10.161 Y82.382
X11.445 Y82.386
X14.014 Y82.387
X51.261
X83.37
X84.012 Y82.386
X84.654 Y82.364
X85.279 Y82.215
X85.84 Y81.902
X86.303 Y81.458
X86.52 Y81.138
X86.637 Y80.992
X86.776 Y80.866
X86.933 Y80.764
X87.08 Y80.681
X87.162 Y80.629
X87.348 Y80.483
X87.517 Y80.315
X87.932 Y79.9
X87.989 Y79.842
Z2 F1500.0
X89.297 Y6.626
Z-1.365
F300.0
Z-1.683
X89.291 Y6.622 Z-1.753
X89.271 Y6.609 Z-1.82
X89.238 Y6.59 Z-1.88
X89.196 Y6.563 Z-1.931
X89.144 Y6.532 Z-1.969
X89.087 Y6.497 Z-1.992
X89.027 Y6.46 Z-2
G3 X88.481 Y5.895 I0.829 J-1.348
G1 X88.293 Y5.538
X88.246 Y5.462
X88.194 Y5.392
X88.101 Y5.273
X88.075 Y5.246
X87.975 Y5.134
X87.598 Y4.614
X87.198 Y4.112
X86.715 Y3.688
X86.167 Y3.353
X85.575 Y3.105
X84.957 Y2.93
X84.326 Y2.812
X83.688 Y2.735
X83.048 Y2.686
X82.407 Y2.657
X81.765 Y2.638
X81.123 Y2.628
X80.48 Y2.621
X79.838 Y2.618
X78.554 Y2.614
X75.985 Y2.613
X38.738 Y2.612
X7.271 Y2.613
X6.629 Y2.614
X5.987 Y2.636
X5.361 Y2.78
X4.797 Y3.086
X4.322 Y3.518
X4.211 Y3.626
X4.088 Y3.718
X3.954 Y3.794
X3.65 Y3.941
X3.504 Y4.013
X3.086 Y4.225
X2.92 Y4.319
X2.838 Y4.371
X2.754 Y4.437
Z2 F1500.0
X0.934 Y79.288
Z-1.365
F300.0
Z-1.683
X0.941 Y79.29 Z-1.753
X0.964 Y79.296 Z-1.82
X1.001 Y79.306 Z-1.88
X1.049 Y79.319 Z-1.931
X1.107 Y79.334 Z-1.969
X1.172 Y79.351 Z-1.992
X1.24 Y79.37 Z-2
G3 X1.925 Y79.754 I-0.408 J1.529
G1 X2.068 Y79.9
X2.505 Y80.337
X2.652 Y80.483
X2.838 Y80.629
X2.92 Y80.681
X3.087 Y80.775
X3.504 Y80.987
X3.665 Y81.066
X3.967 Y81.212
X4.087 Y81.257
X4.233 Y81.3
X4.379 Y81.326
X5.007 Y81.462
X5.641 Y81.56
X6.279 Y81.635
X6.919 Y81.689
X7.56 Y81.725
X8.202 Y81.749
X8.844 Y81.764
X9.486 Y81.773
X10.128 Y81.779
X10.77 Y81.782
X12.055 Y81.786
X14.623 Y81.787
X54.439
X83.337
X83.979 Y81.765
X84.606 Y81.625
X84.819 Y81.515
X84.936 Y81.462
X85.057 Y81.423
X85.183 Y81.396
X85.475 Y81.35
X85.621 Y81.326
X85.767 Y81.3
X85.913 Y81.257
X86.033 Y81.212
X86.35 Y81.059
X86.496 Y80.987
X86.913 Y80.775
X86.933 Y80.764
G3 X87.363 Y81.182 I0.142 J0.284
G1 X87.333 Y81.246 Z-1.992
X87.305 Y81.307 Z-1.969
X87.279 Y81.362 Z-1.931
X87.258 Y81.407 Z-1.88
X87.242 Y81.441 Z-1.82
X87.232 Y81.463 Z-1.753
X87.228 Y81.47 Z-1.683
Z2 F1500.0
X89.066 Y5.712
Z-1.365
F300.0
Z-1.683
X89.059 Y5.71 Z-1.753
X89.036 Y5.704 Z-1.82
X89 Y5.694 Z-1.88
X88.951 Y5.681 Z-1.931
X88.893 Y5.666 Z-1.969
X88.828 Y5.649 Z-1.992
X88.76 Y5.63 Z-2
G3 X88.075 Y5.246 I0.408 J-1.529
G1 X87.932 Y5.1
X87.495 Y4.663
X87.348 Y4.517
X87.162 Y4.371
X87.08 Y4.319
X86.914 Y4.225
X86.496 Y4.013
X86.335 Y3.934
X86.033 Y3.788
X85.913 Y3.743
X85.767 Y3.7
X85.621 Y3.674
X84.993 Y3.538
X84.359 Y3.44
X83.721 Y3.365
X83.081 Y3.311
X82.44 Y3.275
X81.798 Y3.251
X81.156 Y3.236
X80.514 Y3.227
X79.872 Y3.221
X79.23 Y3.218
X77.945 Y3.214
X75.377 Y3.213
X35.561
X7.947
X7.305
X6.663 Y3.234
X6.035 Y3.366
X5.925 Y3.415
X5.772 Y3.472
X5.613 Y3.507
X5.45 Y3.52
X5.4
X5.254 Y3.539
X4.962 Y3.581
X4.525 Y3.65
X4.304 Y3.687
X4.233 Y3.7
X4.087 Y3.743
X3.967 Y3.788
X3.954 Y3.794
Z2 F1500.0
X3.304 Y81.537
Z-1.365
F300.0
Z-1.683
X3.311 Y81.534 Z-1.753
X3.333 Y81.526 Z-1.82
X3.368 Y81.512 Z-1.88
X3.415 Y81.494 Z-1.931
X3.471 Y81.472 Z-1.969
X3.534 Y81.447 Z-1.992
X3.599 Y81.421 Z-2
G3 X4.379 Y81.326 I0.576 J1.474
G1 X4.671 Y81.373
X4.962 Y81.419
X5.254 Y81.461
X5.4 Y81.48
X5.838 Y81.484
X84.162
X84.6 Y81.48
X84.746 Y81.461
X85.038 Y81.419
X85.183 Y81.396
G3 X85.445 Y81.936 I0.037 J0.315
G1 X85.395 Y81.986 Z-1.992
X85.348 Y82.033 Z-1.969
X85.305 Y82.076 Z-1.931
X85.27 Y82.112 Z-1.88
X85.243 Y82.138 Z-1.82
X85.226 Y82.155 Z-1.753
X85.221 Y82.161 Z-1.683
Z2 F1500.0
X86.696 Y3.463
Z-1.365
F300.0
Z-1.683
X86.689 Y3.466 Z-1.753
X86.667 Y3.474 Z-1.82
X86.632 Y3.488 Z-1.88
X86.585 Y3.507 Z-1.931
X86.529 Y3.528 Z-1.969
X86.466 Y3.553 Z-1.992
X86.401 Y3.579 Z-2
G3 X85.621 Y3.674 I-0.576 J-1.474
G1 X85.329 Y3.627
X85.038 Y3.581
X84.746 Y3.539
X84.6 Y3.52
X84.162 Y3.516
X5.838
X5.45 Y3.52
G3 X5.141 Y3.225 I0.008 J-0.317
G1 Y3.203 Z-1.999
Y3.202
X5.154 Y3.149 Z-1.99
X5.167 Y3.098 Z-1.971
X5.179 Y3.051 Z-1.943
X5.209 Y3.016 Z-1.904
X5.234 Y2.987 Z-1.856
X5.253 Y2.966 Z-1.802
X5.264 Y2.953 Z-1.744
X5.268 Y2.948 Z-1.683
Z2 F1500.0
X-0.327 Y-3.701
Z-2.365
F300.0
Z-2.682
X-0.325 Y-3.694 Z-2.753
X-0.32 Y-3.671 Z-2.82
X-0.31 Y-3.634 Z-2.88
X-0.298 Y-3.586 Z-2.931
X-0.283 Y-3.527 Z-2.969
X-0.266 Y-3.462 Z-2.992
X-0.249 Y-3.394 Z-3
G3 X0 Y-1.665 I-7.852 J2.011
G1 Y-1.571 F270
X-0.399 Y-1.068 F300
X-0.66 Y-0.481
X-0.814 Y0.142
X-0.899 Y0.779
X-0.944 Y1.419
X-0.966 Y2.061
X-0.977 Y2.703
X-0.982 Y3.346
X-0.985 Y3.988
X-0.987 Y5.272
X-0.988 Y35.455
Y48.299
Y83.94
X-0.934 Y84.256
X-0.805 Y84.551
X-0.436 Y85.076
X0.085 Y85.451
X0.681 Y85.691
X1.308 Y85.832
X1.945 Y85.909
X2.586 Y85.948
X3.228 Y85.968
X3.87 Y85.978
X4.512 Y85.983
X5.154 Y85.985
X7.081 Y85.987
X12.861 Y85.988
X62.951
X88.96
X89.275 Y85.929
X89.568 Y85.796
X90.089 Y85.421
X90.46 Y84.897
X90.696 Y84.3
X90.835 Y83.673
X90.91 Y83.035
X90.949 Y82.394
X90.969 Y81.752
X90.978 Y81.11
X90.983 Y80.468
X90.985 Y79.825
X90.987 Y77.899
X90.988 Y62.486
Y12.396
Y0.837
X90.879 Y0.534
X90.71 Y0.262
X90.279 Y-0.215
X89.727 Y-0.543
X89.118 Y-0.746
X88.486 Y-0.862
X87.847 Y-0.925
X87.206 Y-0.957
X86.564 Y-0.972
X85.922 Y-0.98
X85.28 Y-0.984
X83.995 Y-0.987
X77.573
X53.17 Y-0.988
X3.08
X1.795
X1.482 Y-0.918
X1.188 Y-0.789
X0.656 Y-0.43
X0.259 Y0.076
X-0.009 Y0.659
X-0.176 Y1.279
X-0.273 Y1.914
X-0.327 Y2.554
X-0.356 Y3.196
X-0.372 Y3.838
X-0.379 Y4.48
X-0.383 Y5.122
X-0.385 Y5.764
X-0.387 Y7.691
Y46.864
Y82.826
X-0.319 Y83.465
X-0.039 Y84.043
X0.406 Y84.506
X0.953 Y84.842
X1.555 Y85.066
X2.182 Y85.206
X2.819 Y85.288
X3.459 Y85.334
X4.101 Y85.359
X4.743 Y85.373
X5.385 Y85.38
X6.027 Y85.384
X7.311 Y85.386
X11.807 Y85.387
X12.449
X62.539
X87.585
X88.227 Y85.379
X88.835 Y85.173
X89.344 Y84.782
X89.727 Y84.266
X89.991 Y83.681
X90.161 Y83.061
X90.262 Y82.427
X90.32 Y81.788
X90.352 Y81.146
X90.369 Y80.504
X90.378 Y79.862
X90.383 Y79.22
X90.385 Y78.578
X90.387 Y77.294
Y63.165
Y61.881
Y11.791
Y2.158
X90.352 Y1.839
X90.178 Y1.221
X89.805 Y0.698
X89.3 Y0.301
X88.719 Y0.026
X88.102 Y-0.15
X87.468 Y-0.256
X86.829 Y-0.316
X86.188 Y-0.35
X85.546 Y-0.368
X84.904 Y-0.377
X84.262 Y-0.382
X83.619 Y-0.385
X82.335 Y-0.387
X71.418
X50.868
X2.704
X2.075 Y-0.258
X1.517 Y0.06
X1.074 Y0.525
X0.752 Y1.081
X0.536 Y1.685
X0.399 Y2.313
X0.317 Y2.95
X0.27 Y3.59
X0.244 Y4.232
X0.229 Y4.874
X0.221 Y5.516
X0.217 Y6.158
X0.215 Y6.8
X0.213 Y8.727
Y50.469
Y81.936
X0.252 Y82.577
X0.481 Y83.177
X0.878 Y83.682
X1.391 Y84.069
X1.972 Y84.341
X2.589 Y84.521
X3.221 Y84.633
X3.86 Y84.701
X4.501 Y84.739
X5.142 Y84.761
X5.785 Y84.773
X6.427 Y84.78
X7.069 Y84.783
X8.353 Y84.786
X12.206 Y84.787
X17.344
X67.434
X86.7
X87.342 Y84.785
X87.964 Y84.626
X88.509 Y84.286
X88.94 Y83.81
X89.253 Y83.249
X89.464 Y82.643
X89.599 Y82.015
X89.68 Y81.378
X89.728 Y80.738
X89.755 Y80.096
X89.77 Y79.454
X89.778 Y78.812
X89.782 Y78.17
X89.785 Y77.527
X89.787 Y76.243
Y67.253
Y55.693
Y5.603
Y3.034
X89.733 Y2.394
X89.493 Y1.798
X89.089 Y1.3
X88.571 Y0.919
X87.988 Y0.651
X87.37 Y0.474
X86.738 Y0.363
X86.099 Y0.297
X85.458 Y0.259
X84.816 Y0.238
X84.174 Y0.226
X83.532 Y0.22
X82.89 Y0.216
X81.605 Y0.214
X77.11 Y0.213
X43.716
X3.901
X3.259 Y0.232
X2.641 Y0.407
X2.103 Y0.758
X1.677 Y1.238
X1.365 Y1.8
X1.152 Y2.405
X1.014 Y3.032
X0.929 Y3.669
X0.878 Y4.309
X0.849 Y4.951
X0.833 Y5.593
X0.824 Y6.235
X0.819 Y6.877
X0.816 Y7.519
X0.813 Y8.803
Y14.583
Y58.894
Y80.728
X0.815 Y81.37
X0.896 Y82.007
X1.157 Y82.594
X1.572 Y83.084
X2.093 Y83.46
X2.677 Y83.728
X3.293 Y83.907
X3.925 Y84.022
X4.563 Y84.092
X5.204 Y84.133
X5.846 Y84.157
X6.488 Y84.171
X7.13 Y84.178
X7.772 Y84.182
X8.414 Y84.185
X10.341 Y84.187
X27.038 Y84.188
X77.128
X86.119 Y84.187
X86.761 Y84.162
X87.374 Y83.973
X87.905 Y83.612
X88.326 Y83.127
X88.634 Y82.563
X88.846 Y81.957
X88.983 Y81.33
X89.069 Y80.693
X89.12 Y80.053
X89.149 Y79.411
X89.166 Y78.77
X89.176 Y78.127
X89.181 Y77.485
X89.184 Y76.843
X89.186 Y75.559
X89.187 Y70.421
X89.188 Y44.734
Y4.276
X89.185 Y3.634
X89.101 Y2.997
X88.84 Y2.41
X88.425 Y1.92
X87.904 Y1.544
X87.321 Y1.275
X86.705 Y1.094
X86.073 Y0.979
X85.435 Y0.909
X84.794 Y0.867
X84.152 Y0.843
X83.51 Y0.829
X82.868 Y0.822
X82.226 Y0.818
X81.584 Y0.815
X79.657 Y0.813
X31.493
X4.521
X3.88 Y0.845
X3.267 Y1.035
X2.733 Y1.393
X2.308 Y1.874
X1.994 Y2.434
X1.776 Y3.038
X1.632 Y3.664
X1.542 Y4.3
X1.487 Y4.94
X1.455 Y5.581
X1.449 Y5.777
X1.431 Y5.951
X1.388 Y6.121
X1.32 Y6.282
X1.254 Y6.413
X1.17 Y6.603
X1.135 Y6.704
X1.094 Y6.85
X1.069 Y6.996
X0.999 Y7.433
X0.953 Y7.725
X0.937 Y7.871
X0.918 Y8.162
X0.913 Y8.308
Y76.692
X0.918 Y76.838
X0.937 Y77.129
X0.953 Y77.275
X1.046 Y77.858
X1.069 Y78.004
X1.094 Y78.15
X1.135 Y78.296
X1.174 Y78.44
X1.223 Y78.668
X1.275 Y78.979
X1.328 Y79.438
X1.373 Y80.079
X1.396 Y80.721
X1.495 Y81.355
X1.757 Y81.941
X2.17 Y82.433
X2.686 Y82.815
X3.266 Y83.091
X3.88 Y83.28
X4.51 Y83.403
X5.148 Y83.479
X5.789 Y83.524
X6.43 Y83.551
X7.072 Y83.567
X7.714 Y83.576
X8.357 Y83.581
X8.999 Y83.584
X10.283 Y83.586
X14.778 Y83.587
X48.172 Y83.588
X85.419 Y83.587
X86.06 Y83.559
X86.677 Y83.378
X87.218 Y83.032
X87.652 Y82.559
X87.977 Y82.005
X88.204 Y81.404
X88.354 Y80.78
X88.449 Y80.145
X88.506 Y79.505
X88.52 Y79.256
X88.54 Y79.092
X88.583 Y78.933
X88.647 Y78.781
X88.746 Y78.587
X88.83 Y78.397
X88.866 Y78.296
X88.906 Y78.15
X88.931 Y78.004
X89.001 Y77.567
X89.047 Y77.275
X89.063 Y77.129
X89.082 Y76.838
X89.088 Y76.692
Y8.308
X89.082 Y8.162
X89.063 Y7.871
X89.047 Y7.725
X88.954 Y7.142
X88.931 Y6.996
X88.906 Y6.85
X88.866 Y6.704
X88.826 Y6.56
X88.777 Y6.332
X88.726 Y6.021
X88.672 Y5.562
X88.627 Y4.921
X88.603 Y4.28
X88.503 Y3.645
X88.239 Y3.06
X87.826 Y2.568
X87.31 Y2.186
X86.73 Y1.91
X86.116 Y1.721
X85.486 Y1.598
X84.848 Y1.522
X84.208 Y1.476
X83.566 Y1.449
X82.924 Y1.433
X82.282 Y1.424
X81.64 Y1.419
X80.998 Y1.416
X79.713 Y1.414
X75.218 Y1.413
X41.824
X5.22
X4.578 Y1.445
X3.962 Y1.624
X3.418 Y1.966
X2.978 Y2.434
X2.648 Y2.985
X2.415 Y3.583
X2.26 Y4.206
X2.182 Y4.709
X2.127 Y4.915
X2.032 Y5.106
X1.899 Y5.273
X1.806 Y5.392
X1.754 Y5.462
X1.707 Y5.538
X1.462 Y6.005
X1.32 Y6.282
X1.254 Y6.413 Z-2.853
X1.189 Y6.558 Z-2.693
X1.17 Y6.603 Z-2.645
X1.135 Y6.704 Z-2.537
X1.125 Y6.74 Z-2.5
X1.104 Y6.816
X1.094 Y6.85
X1.069 Y6.996
X1.022 Y7.287
X0.953 Y7.725
X0.937 Y7.871
X0.918 Y8.162
X0.913 Y8.308
Y76.692
X0.918 Y76.838
X0.937 Y77.129
X0.953 Y77.275
X1.022 Y77.713
X1.025 Y77.729
X1.037 Y77.807
X1.069 Y78.004 Z-2.7
X1.094 Y78.15 Z-2.848
X1.135 Y78.296 Z-3
X1.17 Y78.397
X1.254 Y78.587
X1.477 Y79.025
X1.519 Y79.105
X1.582 Y79.241
X1.638 Y79.381
X1.687 Y79.53
X1.778 Y79.851
X1.923 Y80.477
X2.152 Y81.077
X2.521 Y81.602
X3.001 Y82.029
X3.557 Y82.351
X4.157 Y82.579
X4.78 Y82.734
X5.414 Y82.833
X6.054 Y82.896
X6.695 Y82.934
X7.336 Y82.956
X7.979 Y82.969
X8.621 Y82.977
X9.263 Y82.982
X9.905 Y82.984
X11.189 Y82.986
X16.327 Y82.987
X49.72 Y82.988
X84.399 Y82.987
X85.041 Y82.982
X85.677 Y82.896
X86.268 Y82.644
X86.77 Y82.243
X87.163 Y81.736
X87.451 Y81.162
X87.65 Y80.551
X87.675 Y80.43
X87.742 Y80.215
X87.847 Y80.017
X87.989 Y79.842
X88.101 Y79.727
X88.194 Y79.608
X88.246 Y79.538
X88.293 Y79.462
X88.538 Y78.995
X88.647 Y78.781
X88.746 Y78.587 Z-2.782
X88.811 Y78.442 Z-2.622
X88.83 Y78.397 Z-2.574
X88.854 Y78.328 Z-2.5
X88.866 Y78.296
X88.878 Y78.252
X88.906 Y78.15
X88.931 Y78.004
X88.978 Y77.713
X89.047 Y77.275
X89.063 Y77.129
X89.082 Y76.838
X89.088 Y76.692
Y8.308
X89.082 Y8.162
X89.063 Y7.871
X89.047 Y7.725
X88.978 Y7.287
X88.975 Y7.271
X88.963 Y7.193
X88.931 Y6.996 Z-2.7
X88.906 Y6.85 Z-2.848
X88.866 Y6.704 Z-3
X88.83 Y6.603
X88.746 Y6.413
X88.523 Y5.975
X88.481 Y5.895
X88.418 Y5.759
X88.363 Y5.619
X88.313 Y5.47
X88.219 Y5.137
X88.073 Y4.512
X87.84 Y3.913
X87.469 Y3.39
X86.987 Y2.965
X86.43 Y2.645
X85.83 Y2.418
X85.206 Y2.265
X84.571 Y2.166
X83.932 Y2.104
X83.291 Y2.066
X82.649 Y2.044
X82.007 Y2.03
X81.365 Y2.023
X80.723 Y2.018
X80.081 Y2.016
X78.796 Y2.014
X73.659 Y2.013
X40.265
X6.229
X5.587 Y2.019
X4.951 Y2.107
X4.359 Y2.357
X3.855 Y2.754
X3.458 Y3.259
X3.166 Y3.831
X3.133 Y3.918
X3.039 Y4.113
X2.912 Y4.288
X2.754 Y4.437
X2.652 Y4.517
X2.483 Y4.685
X2.068 Y5.1
X1.899 Y5.273
Z2 F1500.0
X0.703 Y78.374
Z-2.365
F300.0
Z-2.682
X0.709 Y78.378 Z-2.753
X0.729 Y78.391 Z-2.82
X0.762 Y78.41 Z-2.88
X0.804 Y78.437 Z-2.931
X0.856 Y78.468 Z-2.969
X0.913 Y78.503 Z-2.992
X0.973 Y78.54 Z-3
G3 X1.519 Y79.105 I-0.829 J1.348
G1 X1.707 Y79.462
X1.754 Y79.538
X1.806 Y79.608
X1.899 Y79.727
X1.925 Y79.754
X2.025 Y79.866
X2.401 Y80.387
X2.801 Y80.889
X3.284 Y81.313
X3.832 Y81.648
X4.424 Y81.896
X5.042 Y82.071
X5.673 Y82.189
X6.311 Y82.265
X6.951 Y82.314
X7.592 Y82.344
X8.234 Y82.362
X8.876 Y82.372
X9.519 Y82.379
X10.161 Y82.382
X11.445 Y82.386
X14.014 Y82.387
X51.261
X83.37
X84.012 Y82.386
X84.654 Y82.364
X85.279 Y82.215
X85.84 Y81.902
X86.303 Y81.458
X86.52 Y81.138
X86.637 Y80.992
X86.776 Y80.866
X86.933 Y80.764
X87.08 Y80.681
X87.162 Y80.629
X87.348 Y80.483
X87.517 Y80.315
X87.932 Y79.9
X87.989 Y79.842
Z2 F1500.0
X89.297 Y6.626
Z-2.365
F300.0
Z-2.682
X89.291 Y6.622 Z-2.753
X89.271 Y6.609 Z-2.82
X89.238 Y6.59 Z-2.88
X89.196 Y6.563 Z-2.931
X89.144 Y6.532 Z-2.969
X89.087 Y6.497 Z-2.992
X89.027 Y6.46 Z-3
G3 X88.481 Y5.895 I0.829 J-1.348
G1 X88.293 Y5.538
X88.246 Y5.462
X88.194 Y5.392
X88.101 Y5.273
X88.075 Y5.246
X87.975 Y5.134
X87.598 Y4.614
X87.198 Y4.112
X86.715 Y3.688
X86.167 Y3.353
X85.575 Y3.105
X84.957 Y2.93
X84.326 Y2.812
X83.688 Y2.735
X83.048 Y2.686
X82.407 Y2.657
X81.765 Y2.638
X81.123 Y2.628
X80.48 Y2.621
X79.838 Y2.618
X78.554 Y2.614
X75.985 Y2.613
X38.738 Y2.612
X7.271 Y2.613
X6.629 Y2.614
X5.987 Y2.636
X5.361 Y2.78
X4.797 Y3.086
X4.322 Y3.518
X4.211 Y3.626
X4.088 Y3.718
X3.954 Y3.794
X3.65 Y3.941
X3.504 Y4.013
X3.086 Y4.225
X2.92 Y4.319
X2.838 Y4.371
X2.754 Y4.437
Z2 F1500.0
X0.934 Y79.288
Z-2.365
F300.0
Z-2.682
X0.941 Y79.29 Z-2.753
X0.964 Y79.296 Z-2.82
X1.001 Y79.306 Z-2.88
X1.049 Y79.319 Z-2.931
X1.107 Y79.334 Z-2.969
X1.172 Y79.351 Z-2.992
X1.24 Y79.37 Z-3
G3 X1.925 Y79.754 I-0.408 J1.529
G1 X2.068 Y79.9
X2.505 Y80.337
X2.652 Y80.483
X2.838 Y80.629
X2.92 Y80.681
X3.087 Y80.775
X3.504 Y80.987
X3.665 Y81.066
X3.967 Y81.212
X4.087 Y81.257
X4.233 Y81.3
X4.379 Y81.326
X5.007 Y81.462
X5.641 Y81.56
X6.279 Y81.635
X6.919 Y81.689
X7.56 Y81.725
X8.202 Y81.749
X8.844 Y81.764
X9.486 Y81.773
X10.128 Y81.779
X10.77 Y81.782
X12.055 Y81.786
X14.623 Y81.787
X54.439
X83.337
X83.979 Y81.765
X84.606 Y81.625
X84.819 Y81.515
X84.936 Y81.462
X85.057 Y81.423
X85.183 Y81.396
X85.475 Y81.35
X85.621 Y81.326
X85.767 Y81.3
X85.913 Y81.257
X86.033 Y81.212
X86.35 Y81.059
X86.496 Y80.987
X86.913 Y80.775
X86.933 Y80.764
G3 X87.363 Y81.182 I0.142 J0.284
G1 X87.333 Y81.246 Z-2.992
X87.305 Y81.307 Z-2.969
X87.279 Y81.362 Z-2.931
X87.258 Y81.407 Z-2.88
X87.242 Y81.441 Z-2.82
X87.232 Y81.463 Z-2.753
X87.228 Y81.47 Z-2.682
Z2 F1500.0
X89.066 Y5.712
Z-2.365
F300.0
Z-2.682
X89.059 Y5.71 Z-2.753
X89.036 Y5.704 Z-2.82
X89 Y5.694 Z-2.88
X88.951 Y5.681 Z-2.931
X88.893 Y5.666 Z-2.969
X88.828 Y5.649 Z-2.992
X88.76 Y5.63 Z-3
G3 X88.075 Y5.246 I0.408 J-1.529
G1 X87.932 Y5.1
X87.495 Y4.663
X87.348 Y4.517
X87.162 Y4.371
X87.08 Y4.319
X86.914 Y4.225
X86.496 Y4.013
X86.335 Y3.934
X86.033 Y3.788
X85.913 Y3.743
X85.767 Y3.7
X85.621 Y3.674
X84.993 Y3.538
X84.359 Y3.44
X83.721 Y3.365
X83.081 Y3.311
X82.44 Y3.275
X81.798 Y3.251
X81.156 Y3.236
X80.514 Y3.227
X79.872 Y3.221
X79.23 Y3.218
X77.945 Y3.214
X75.377 Y3.213
X35.561
X7.947
X7.305
X6.663 Y3.234
X6.035 Y3.366
X5.925 Y3.415
X5.772 Y3.472
X5.613 Y3.507
X5.45 Y3.52
X5.4
X5.254 Y3.539
X4.962 Y3.581
X4.525 Y3.65
X4.304 Y3.687
X4.233 Y3.7
X4.087 Y3.743
X3.967 Y3.788
X3.954 Y3.794
Z2 F1500.0
X3.304 Y81.537
Z-2.365
F300.0
Z-2.682
X3.311 Y81.534 Z-2.753
X3.333 Y81.526 Z-2.82
X3.368 Y81.512 Z-2.88
X3.415 Y81.494 Z-2.931
X3.471 Y81.472 Z-2.969
X3.534 Y81.447 Z-2.992
X3.599 Y81.421 Z-3
G3 X4.379 Y81.326 I0.576 J1.474
G1 X4.671 Y81.373
X4.962 Y81.419
X5.254 Y81.461
X5.4 Y81.48
X5.838 Y81.484
X84.162
X84.6 Y81.48
X84.746 Y81.461
X85.038 Y81.419
X85.183 Y81.396
G3 X85.445 Y81.936 I0.037 J0.315
G1 X85.395 Y81.986 Z-2.992
X85.348 Y82.033 Z-2.969
X85.305 Y82.076 Z-2.931
X85.27 Y82.112 Z-2.88
X85.243 Y82.138 Z-2.82
X85.226 Y82.155 Z-2.753
X85.221 Y82.161 Z-2.682
Z2 F1500.0
X86.696 Y3.463
Z-2.365
F300.0
Z-2.682
X86.689 Y3.466 Z-2.753
X86.667 Y3.474 Z-2.82
X86.632 Y3.488 Z-2.88
X86.585 Y3.507 Z-2.931
X86.529 Y3.528 Z-2.969
X86.466 Y3.553 Z-2.992
X86.401 Y3.579 Z-3
G3 X85.621 Y3.674 I-0.576 J-1.474
G1 X85.329 Y3.627
X85.038 Y3.581
X84.746 Y3.539
X84.6 Y3.52
X84.162 Y3.516
X5.838
X5.45 Y3.52
G3 X5.141 Y3.225 I0.008 J-0.317
G1 Y3.203 Z-2.999
Y3.202
X5.154 Y3.149 Z-2.99
X5.167 Y3.098 Z-2.971
X5.179 Y3.051 Z-2.943
X5.209 Y3.016 Z-2.904
X5.234 Y2.987 Z-2.856
X5.253 Y2.966 Z-2.802
X5.264 Y2.953 Z-2.744
X5.268 Y2.948 Z-2.683
Z2 F1500.0
X-0.327 Y-3.701
Z-3.365
F300.0
Z-3.682
X-0.325 Y-3.694 Z-3.753
X-0.32 Y-3.671 Z-3.82
X-0.31 Y-3.634 Z-3.88
X-0.298 Y-3.586 Z-3.931
X-0.283 Y-3.527 Z-3.969
X-0.266 Y-3.462 Z-3.992
X-0.249 Y-3.394 Z-4
G3 X0 Y-1.665 I-7.852 J2.011
G1 Y-1.571 F270
X-0.399 Y-1.068 F300
X-0.66 Y-0.481
X-0.814 Y0.142
X-0.899 Y0.779
X-0.944 Y1.419
X-0.966 Y2.061
X-0.977 Y2.703
X-0.982 Y3.346
X-0.985 Y3.988
X-0.987 Y5.272
X-0.988 Y35.455
Y48.299
Y83.94
X-0.934 Y84.256
X-0.805 Y84.551
X-0.436 Y85.076
X0.085 Y85.451
X0.681 Y85.691
X1.308 Y85.832
X1.945 Y85.909
X2.586 Y85.948
X3.228 Y85.968
X3.87 Y85.978
X4.512 Y85.983
X5.154 Y85.985
X7.081 Y85.987
X12.861 Y85.988
X62.951
X88.96
X89.275 Y85.929
X89.568 Y85.796
X90.089 Y85.421
X90.46 Y84.897
X90.696 Y84.3
X90.835 Y83.673
X90.91 Y83.035
X90.949 Y82.394
X90.969 Y81.752
X90.978 Y81.11
X90.983 Y80.468
X90.985 Y79.825
X90.987 Y77.899
X90.988 Y62.486
Y12.396
Y0.837
X90.879 Y0.534
X90.71 Y0.262
X90.279 Y-0.215
X89.727 Y-0.543
X89.118 Y-0.746
X88.486 Y-0.862
X87.847 Y-0.925
X87.206 Y-0.957
X86.564 Y-0.972
X85.922 Y-0.98
X85.28 Y-0.984
X83.995 Y-0.987
X77.573
X53.17 Y-0.988
X3.08
X1.795
X1.482 Y-0.918
X1.188 Y-0.789
X0.656 Y-0.43
X0.259 Y0.076
X-0.009 Y0.659
X-0.176 Y1.279
X-0.273 Y1.914
X-0.327 Y2.554
X-0.356 Y3.196
X-0.372 Y3.838
X-0.379 Y4.48
X-0.383 Y5.122
X-0.385 Y5.764
X-0.387 Y7.691
Y46.864
Y82.826
X-0.319 Y83.465
X-0.039 Y84.043
X0.406 Y84.506
X0.953 Y84.842
X1.555 Y85.066
X2.182 Y85.206
X2.819 Y85.288
X3.459 Y85.334
X4.101 Y85.359
X4.743 Y85.373
X5.385 Y85.38
X6.027 Y85.384
X7.311 Y85.386
X11.807 Y85.387
X12.449
X62.539
X87.585
X88.227 Y85.379
X88.835 Y85.173
X89.344 Y84.782
X89.727 Y84.266
X89.991 Y83.681
X90.161 Y83.061
X90.262 Y82.427
X90.32 Y81.788
X90.352 Y81.146
X90.369 Y80.504
X90.378 Y79.862
X90.383 Y79.22
X90.385 Y78.578
X90.387 Y77.294
Y63.165
Y61.881
Y11.791
Y2.158
X90.352 Y1.839
X90.178 Y1.221
X89.805 Y0.698
X89.3 Y0.301
X88.719 Y0.026
X88.102 Y-0.15
X87.468 Y-0.256
X86.829 Y-0.316
X86.188 Y-0.35
X85.546 Y-0.368
X84.904 Y-0.377
X84.262 Y-0.382
X83.619 Y-0.385
X82.335 Y-0.387
X71.418
X50.868
X2.704
X2.075 Y-0.258
X1.517 Y0.06
X1.074 Y0.525
X0.752 Y1.081
X0.536 Y1.685
X0.399 Y2.313
X0.317 Y2.95
X0.27 Y3.59
X0.244 Y4.232
X0.229 Y4.874
X0.221 Y5.516
X0.217 Y6.158
X0.215 Y6.8
X0.213 Y8.727
Y50.469
Y81.936
X0.252 Y82.577
X0.481 Y83.177
X0.878 Y83.682
X1.391 Y84.069
X1.972 Y84.341
X2.589 Y84.521
X3.221 Y84.633
X3.86 Y84.701
X4.501 Y84.739
X5.142 Y84.761
X5.785 Y84.773
X6.427 Y84.78
X7.069 Y84.783
X8.353 Y84.786
X12.206 Y84.787
X17.344
X67.434
X86.7
X87.342 Y84.785
X87.964 Y84.626
X88.509 Y84.286
X88.94 Y83.81
X89.253 Y83.249
X89.464 Y82.643
X89.599 Y82.015
X89.68 Y81.378
X89.728 Y80.738
X89.755 Y80.096
X89.77 Y79.454
X89.778 Y78.812
X89.782 Y78.17
X89.785 Y77.527
X89.787 Y76.243
Y67.253
Y55.693
Y5.603
Y3.034
X89.733 Y2.394
X89.493 Y1.798
X89.089 Y1.3
X88.571 Y0.919
X87.988 Y0.651
X87.37 Y0.474
X86.738 Y0.363
X86.099 Y0.297
X85.458 Y0.259
X84.816 Y0.238
X84.174 Y0.226
X83.532 Y0.22
X82.89 Y0.216
X81.605 Y0.214
X77.11 Y0.213
X43.716
X3.901
X3.259 Y0.232
X2.641 Y0.407
X2.103 Y0.758
X1.677 Y1.238
X1.365 Y1.8
X1.152 Y2.405
X1.014 Y3.032
X0.929 Y3.669
X0.878 Y4.309
X0.849 Y4.951
X0.833 Y5.593
X0.824 Y6.235
X0.819 Y6.877
X0.816 Y7.519
X0.813 Y8.803
Y14.583
Y58.894
Y80.728
X0.815 Y81.37
X0.896 Y82.007
X1.157 Y82.594
X1.572 Y83.084
X2.093 Y83.46
X2.677 Y83.728
X3.293 Y83.907
X3.925 Y84.022
X4.563 Y84.092
X5.204 Y84.133
X5.846 Y84.157
X6.488 Y84.171
X7.13 Y84.178
X7.772 Y84.182
X8.414 Y84.185
X10.341 Y84.187
X27.038 Y84.188
X77.128
X86.119 Y84.187
X86.761 Y84.162
X87.374 Y83.973
X87.905 Y83.612
X88.326 Y83.127
X88.634 Y82.563
X88.846 Y81.957
X88.983 Y81.33
X89.069 Y80.693
X89.12 Y80.053
X89.149 Y79.411
X89.166 Y78.77
X89.176 Y78.127
X89.181 Y77.485
X89.184 Y76.843
X89.186 Y75.559
X89.187 Y70.421
X89.188 Y44.734
Y4.276
X89.185 Y3.634
X89.101 Y2.997
X88.84 Y2.41
X88.425 Y1.92
X87.904 Y1.544
X87.321 Y1.275
X86.705 Y1.094
X86.073 Y0.979
X85.435 Y0.909
X84.794 Y0.867
X84.152 Y0.843
X83.51 Y0.829
X82.868 Y0.822
X82.226 Y0.818
X81.584 Y0.815
X79.657 Y0.813
X31.493
X4.521
X3.88 Y0.845
X3.267 Y1.035
X2.733 Y1.393
X2.308 Y1.874
X1.994 Y2.434
X1.776 Y3.038
X1.632 Y3.664
X1.542 Y4.3
X1.487 Y4.94
X1.455 Y5.581
X1.449 Y5.777
X1.431 Y5.951
X1.388 Y6.121
X1.32 Y6.282
X1.254 Y6.413
X1.17 Y6.603
X1.135 Y6.704
X1.094 Y6.85
X1.069 Y6.996
X0.999 Y7.433
X0.953 Y7.725
X0.937 Y7.871
X0.918 Y8.162
X0.913 Y8.308
Y76.692
X0.918 Y76.838
X0.937 Y77.129
X0.953 Y77.275
X1.046 Y77.858
X1.069 Y78.004
X1.094 Y78.15
X1.135 Y78.296
X1.174 Y78.44
X1.223 Y78.668
X1.275 Y78.979
X1.328 Y79.438
X1.373 Y80.079
X1.396 Y80.721
X1.495 Y81.355
X1.757 Y81.941
X2.17 Y82.433
X2.686 Y82.815
X3.266 Y83.091
X3.88 Y83.28
X4.51 Y83.403
X5.148 Y83.479
X5.789 Y83.524
X6.43 Y83.551
X7.072 Y83.567
X7.714 Y83.576
X8.357 Y83.581
X8.999 Y83.584
X10.283 Y83.586
X14.778 Y83.587
X48.172 Y83.588
X85.419 Y83.587
X86.06 Y83.559
X86.677 Y83.378
X87.218 Y83.032
X87.652 Y82.559
X87.977 Y82.005
X88.204 Y81.404
X88.354 Y80.78
X88.449 Y80.145
X88.506 Y79.505
X88.52 Y79.256
X88.54 Y79.092
X88.583 Y78.933
X88.647 Y78.781
X88.746 Y78.587
X88.83 Y78.397
X88.866 Y78.296
X88.906 Y78.15
X88.931 Y78.004
X89.001 Y77.567
X89.047 Y77.275
X89.063 Y77.129
X89.082 Y76.838
X89.088 Y76.692
Y8.308
X89.082 Y8.162
X89.063 Y7.871
X89.047 Y7.725
X88.954 Y7.142
X88.931 Y6.996
X88.906 Y6.85
X88.866 Y6.704
X88.826 Y6.56
X88.777 Y6.332
X88.726 Y6.021
X88.672 Y5.562
X88.627 Y4.921
X88.603 Y4.28
X88.503 Y3.645
X88.239 Y3.06
X87.826 Y2.568
X87.31 Y2.186
X86.73 Y1.91
X86.116 Y1.721
X85.486 Y1.598
X84.848 Y1.522
X84.208 Y1.476
X83.566 Y1.449
X82.924 Y1.433
X82.282 Y1.424
X81.64 Y1.419
X80.998 Y1.416
X79.713 Y1.414
X75.218 Y1.413
X41.824
X5.22
X4.578 Y1.445
X3.962 Y1.624
X3.418 Y1.966
X2.978 Y2.434
X2.648 Y2.985
X2.415 Y3.583
X2.26 Y4.206
X2.182 Y4.709
X2.127 Y4.915
X2.032 Y5.106
X1.899 Y5.273
X1.806 Y5.392
X1.754 Y5.462
X1.707 Y5.538
X1.462 Y6.005
X1.32 Y6.282
X1.254 Y6.413 Z-3.853
X1.189 Y6.558 Z-3.693
X1.17 Y6.603 Z-3.645
X1.135 Y6.704 Z-3.537
X1.125 Y6.74 Z-3.5
X1.104 Y6.816
X1.094 Y6.85
X1.069 Y6.996
X1.022 Y7.287
X0.953 Y7.725
X0.937 Y7.871
X0.918 Y8.162
X0.913 Y8.308
Y76.692
X0.918 Y76.838
X0.937 Y77.129
X0.953 Y77.275
X1.022 Y77.713
X1.025 Y77.729
X1.037 Y77.807
X1.069 Y78.004 Z-3.7
X1.094 Y78.15 Z-3.848
X1.135 Y78.296 Z-4
X1.17 Y78.397
X1.254 Y78.587
X1.477 Y79.025
X1.519 Y79.105
X1.582 Y79.241
X1.638 Y79.381
X1.687 Y79.53
X1.778 Y79.851
X1.923 Y80.477
X2.152 Y81.077
X2.521 Y81.602
X3.001 Y82.029
X3.557 Y82.351
X4.157 Y82.579
X4.78 Y82.734
X5.414 Y82.833
X6.054 Y82.896
X6.695 Y82.934
X7.336 Y82.956
X7.979 Y82.969
X8.621 Y82.977
X9.263 Y82.982
X9.905 Y82.984
X11.189 Y82.986
X16.327 Y82.987
X49.72 Y82.988
X84.399 Y82.987
X85.041 Y82.982
X85.677 Y82.896
X86.268 Y82.644
X86.77 Y82.243
X87.163 Y81.736
X87.451 Y81.162
X87.65 Y80.551
X87.675 Y80.43
X87.742 Y80.215
X87.847 Y80.017
X87.989 Y79.842
X88.101 Y79.727
X88.194 Y79.608
X88.246 Y79.538
X88.293 Y79.462
X88.538 Y78.995
X88.647 Y78.781
X88.746 Y78.587 Z-3.782
X88.811 Y78.442 Z-3.622
X88.83 Y78.397 Z-3.574
X88.854 Y78.328 Z-3.5
X88.866 Y78.296
X88.878 Y78.252
X88.906 Y78.15
X88.931 Y78.004
X88.978 Y77.713
X89.047 Y77.275
X89.063 Y77.129
X89.082 Y76.838
X89.088 Y76.692
Y8.308
X89.082 Y8.162
X89.063 Y7.871
X89.047 Y7.725
X88.978 Y7.287
X88.975 Y7.271
X88.963 Y7.193
X88.931 Y6.996 Z-3.7
X88.906 Y6.85 Z-3.848
X88.866 Y6.704 Z-4
X88.83 Y6.603
X88.746 Y6.413
X88.523 Y5.975
X88.481 Y5.895
X88.418 Y5.759
X88.363 Y5.619
X88.313 Y5.47
X88.219 Y5.137
X88.073 Y4.512
X87.84 Y3.913
X87.469 Y3.39
X86.987 Y2.965
X86.43 Y2.645
X85.83 Y2.418
X85.206 Y2.265
X84.571 Y2.166
X83.932 Y2.104
X83.291 Y2.066
X82.649 Y2.044
X82.007 Y2.03
X81.365 Y2.023
X80.723 Y2.018
X80.081 Y2.016
X78.796 Y2.014
X73.659 Y2.013
X40.265
X6.229
X5.587 Y2.019
X4.951 Y2.107
X4.359 Y2.357
X3.855 Y2.754
X3.458 Y3.259
X3.166 Y3.831
X3.133 Y3.918
X3.039 Y4.113
X2.912 Y4.288
X2.754 Y4.437
X2.652 Y4.517
X2.483 Y4.685
X2.068 Y5.1
X1.899 Y5.273
Z2 F1500.0
X0.703 Y78.374
Z-3.365
F300.0
Z-3.682
X0.709 Y78.378 Z-3.753
X0.729 Y78.391 Z-3.82
X0.762 Y78.41 Z-3.88
X0.804 Y78.437 Z-3.931
X0.856 Y78.468 Z-3.969
X0.913 Y78.503 Z-3.992
X0.973 Y78.54 Z-4
G3 X1.519 Y79.105 I-0.829 J1.348
G1 X1.707 Y79.462
X1.754 Y79.538
X1.806 Y79.608
X1.899 Y79.727
X1.925 Y79.754
X2.025 Y79.866
X2.401 Y80.387
X2.801 Y80.889
X3.284 Y81.313
X3.832 Y81.648
X4.424 Y81.896
X5.042 Y82.071
X5.673 Y82.189
X6.311 Y82.265
X6.951 Y82.314
X7.592 Y82.344
X8.234 Y82.362
X8.876 Y82.372
X9.519 Y82.379
X10.161 Y82.382
X11.445 Y82.386
X14.014 Y82.387
X51.261
X83.37
X84.012 Y82.386
X84.654 Y82.364
X85.279 Y82.215
X85.84 Y81.902
X86.303 Y81.458
X86.52 Y81.138
X86.637 Y80.992
X86.776 Y80.866
X86.933 Y80.764
X87.08 Y80.681
X87.162 Y80.629
X87.348 Y80.483
X87.517 Y80.315
X87.932 Y79.9
X87.989 Y79.842
Z2 F1500.0
X89.297 Y6.626
Z-3.365
F300.0
Z-3.682
X89.291 Y6.622 Z-3.753
X89.271 Y6.609 Z-3.82
X89.238 Y6.59 Z-3.88
X89.196 Y6.563 Z-3.931
X89.144 Y6.532 Z-3.969
X89.087 Y6.497 Z-3.992
X89.027 Y6.46 Z-4
G3 X88.481 Y5.895 I0.829 J-1.348
G1 X88.293 Y5.538
X88.246 Y5.462
X88.194 Y5.392
X88.101 Y5.273
X88.075 Y5.246
X87.975 Y5.134
X87.598 Y4.614
X87.198 Y4.112
X86.715 Y3.688
X86.167 Y3.353
X85.575 Y3.105
X84.957 Y2.93
X84.326 Y2.812
X83.688 Y2.735
X83.048 Y2.686
X82.407 Y2.657
X81.765 Y2.638
X81.123 Y2.628
X80.48 Y2.621
X79.838 Y2.618
X78.554 Y2.614
X75.985 Y2.613
X38.738 Y2.612
X7.271 Y2.613
X6.629 Y2.614
X5.987 Y2.636
X5.361 Y2.78
X4.797 Y3.086
X4.322 Y3.518
X4.211 Y3.626
X4.088 Y3.718
X3.954 Y3.794
X3.65 Y3.941
X3.504 Y4.013
X3.086 Y4.225
X2.92 Y4.319
X2.838 Y4.371
X2.754 Y4.437
Z2 F1500.0
X0.934 Y79.288
Z-3.365
F300.0
Z-3.682
X0.941 Y79.29 Z-3.753
X0.964 Y79.296 Z-3.82
X1.001 Y79.306 Z-3.88
X1.049 Y79.319 Z-3.931
X1.107 Y79.334 Z-3.969
X1.172 Y79.351 Z-3.992
X1.24 Y79.37 Z-4
G3 X1.925 Y79.754 I-0.408 J1.529
G1 X2.068 Y79.9
X2.505 Y80.337
X2.652 Y80.483
X2.838 Y80.629
X2.92 Y80.681
X3.087 Y80.775
X3.504 Y80.987
X3.665 Y81.066
X3.967 Y81.212
X4.087 Y81.257
X4.233 Y81.3
X4.379 Y81.326
X5.007 Y81.462
X5.641 Y81.56
X6.279 Y81.635
X6.919 Y81.689
X7.56 Y81.725
X8.202 Y81.749
X8.844 Y81.764
X9.486 Y81.773
X10.128 Y81.779
X10.77 Y81.782
X12.055 Y81.786
X14.623 Y81.787
X54.439
X83.337
X83.979 Y81.765
X84.606 Y81.625
X84.819 Y81.515
X84.936 Y81.462
X85.057 Y81.423
X85.183 Y81.396
X85.475 Y81.35
X85.621 Y81.326
X85.767 Y81.3
X85.913 Y81.257
X86.033 Y81.212
X86.35 Y81.059
X86.496 Y80.987
X86.913 Y80.775
X86.933 Y80.764
G3 X87.363 Y81.182 I0.142 J0.284
G1 X87.333 Y81.246 Z-3.992
X87.305 Y81.307 Z-3.969
X87.279 Y81.362 Z-3.931
X87.258 Y81.407 Z-3.88
X87.242 Y81.441 Z-3.82
X87.232 Y81.463 Z-3.753
X87.228 Y81.47 Z-3.682
Z2 F1500.0
X89.066 Y5.712
Z-3.365
F300.0
Z-3.682
X89.059 Y5.71 Z-3.753
X89.036 Y5.704 Z-3.82
X89 Y5.694 Z-3.88
X88.951 Y5.681 Z-3.931
X88.893 Y5.666 Z-3.969
X88.828 Y5.649 Z-3.992
X88.76 Y5.63 Z-4
G3 X88.075 Y5.246 I0.408 J-1.529
G1 X87.932 Y5.1
X87.495 Y4.663
X87.348 Y4.517
X87.162 Y4.371
X87.08 Y4.319
X86.914 Y4.225
X86.496 Y4.013
X86.335 Y3.934
X86.033 Y3.788
X85.913 Y3.743
X85.767 Y3.7
X85.621 Y3.674
X84.993 Y3.538
X84.359 Y3.44
X83.721 Y3.365
X83.081 Y3.311
X82.44 Y3.275
X81.798 Y3.251
X81.156 Y3.236
X80.514 Y3.227
X79.872 Y3.221
X79.23 Y3.218
X77.945 Y3.214
X75.377 Y3.213
X35.561
X7.947
X7.305
X6.663 Y3.234
X6.035 Y3.366
X5.925 Y3.415
X5.772 Y3.472
X5.613 Y3.507
X5.45 Y3.52
X5.4
X5.254 Y3.539
X4.962 Y3.581
X4.525 Y3.65
X4.304 Y3.687
X4.233 Y3.7
X4.087 Y3.743
X3.967 Y3.788
X3.954 Y3.794
Z2 F1500.0
X3.304 Y81.537
Z-3.365
F300.0
Z-3.682
X3.311 Y81.534 Z-3.753
X3.333 Y81.526 Z-3.82
X3.368 Y81.512 Z-3.88
X3.415 Y81.494 Z-3.931
X3.471 Y81.472 Z-3.969
X3.534 Y81.447 Z-3.992
X3.599 Y81.421 Z-4
G3 X4.379 Y81.326 I0.576 J1.474
G1 X4.671 Y81.373
X4.962 Y81.419
X5.254 Y81.461
X5.4 Y81.48
X5.838 Y81.484
X84.162
X84.6 Y81.48
X84.746 Y81.461
X85.038 Y81.419
X85.183 Y81.396
G3 X85.445 Y81.936 I0.037 J0.315
G1 X85.395 Y81.986 Z-3.992
X85.348 Y82.033 Z-3.969
X85.305 Y82.076 Z-3.931
X85.27 Y82.112 Z-3.88
X85.243 Y82.138 Z-3.82
X85.226 Y82.155 Z-3.753
X85.221 Y82.161 Z-3.682
Z2 F1500.0
X86.696 Y3.463
Z-3.365
F300.0
Z-3.682
X86.689 Y3.466 Z-3.753
X86.667 Y3.474 Z-3.82
X86.632 Y3.488 Z-3.88
X86.585 Y3.507 Z-3.931
X86.529 Y3.528 Z-3.969
X86.466 Y3.553 Z-3.992
X86.401 Y3.579 Z-4
G3 X85.621 Y3.674 I-0.576 J-1.474
G1 X85.329 Y3.627
X85.038 Y3.581
X84.746 Y3.539
X84.6 Y3.52
X84.162 Y3.516
X5.838
X5.45 Y3.52
G3 X5.141 Y3.225 I0.008 J-0.317
G1 Y3.203 Z-3.999
Y3.202
X5.154 Y3.149 Z-3.99
X5.167 Y3.098 Z-3.971
X5.179 Y3.051 Z-3.943
X5.209 Y3.016 Z-3.904
X5.234 Y2.987 Z-3.856
X5.253 Y2.966 Z-3.802
X5.264 Y2.953 Z-3.744
X5.268 Y2.948 Z-3.683
Z2 F1500.0
X-0.327 Y-3.701
Z-4.365
F300.0
Z-4.682
X-0.325 Y-3.694 Z-4.753
X-0.32 Y-3.671 Z-4.82
X-0.31 Y-3.634 Z-4.88
X-0.298 Y-3.586 Z-4.931
X-0.283 Y-3.527 Z-4.969
X-0.266 Y-3.462 Z-4.992
X-0.249 Y-3.394 Z-5
G3 X0 Y-1.665 I-7.852 J2.011
G1 Y-1.571 F270
X-0.399 Y-1.068 F300
X-0.66 Y-0.481
X-0.814 Y0.142
X-0.899 Y0.779
X-0.944 Y1.419
X-0.966 Y2.061
X-0.977 Y2.703
X-0.982 Y3.346
X-0.985 Y3.988
X-0.987 Y5.272
X-0.988 Y35.455
Y48.299
Y83.94
X-0.934 Y84.256
X-0.805 Y84.551
X-0.436 Y85.076
X0.085 Y85.451
X0.681 Y85.691
X1.308 Y85.832
X1.945 Y85.909
X2.586 Y85.948
X3.228 Y85.968
X3.87 Y85.978
X4.512 Y85.983
X5.154 Y85.985
X7.081 Y85.987
X12.861 Y85.988
X62.951
X88.96
X89.275 Y85.929
X89.568 Y85.796
X90.089 Y85.421
X90.46 Y84.897
X90.696 Y84.3
X90.835 Y83.673
X90.91 Y83.035
X90.949 Y82.394
X90.969 Y81.752
X90.978 Y81.11
X90.983 Y80.468
X90.985 Y79.825
X90.987 Y77.899
X90.988 Y62.486
Y12.396
Y0.837
X90.879 Y0.534
X90.71 Y0.262
X90.279 Y-0.215
X89.727 Y-0.543
X89.118 Y-0.746
X88.486 Y-0.862
X87.847 Y-0.925
X87.206 Y-0.957
X86.564 Y-0.972
X85.922 Y-0.98
X85.28 Y-0.984
X83.995 Y-0.987
X77.573
X53.17 Y-0.988
X3.08
X1.795
X1.482 Y-0.918
X1.188 Y-0.789
X0.656 Y-0.43
X0.259 Y0.076
X-0.009 Y0.659
X-0.176 Y1.279
X-0.273 Y1.914
X-0.327 Y2.554
X-0.356 Y3.196
X-0.372 Y3.838
X-0.379 Y4.48
X-0.383 Y5.122
X-0.385 Y5.764
X-0.387 Y7.691
Y46.864
Y82.826
X-0.319 Y83.465
X-0.039 Y84.043
X0.406 Y84.506
X0.953 Y84.842
X1.555 Y85.066
X2.182 Y85.206
X2.819 Y85.288
X3.459 Y85.334
X4.101 Y85.359
X4.743 Y85.373
X5.385 Y85.38
X6.027 Y85.384
X7.311 Y85.386
X11.807 Y85.387
X12.449
X62.539
X87.585
X88.227 Y85.379
X88.835 Y85.173
X89.344 Y84.782
X89.727 Y84.266
X89.991 Y83.681
X90.161 Y83.061
X90.262 Y82.427
X90.32 Y81.788
X90.352 Y81.146
X90.369 Y80.504
X90.378 Y79.862
X90.383 Y79.22
X90.385 Y78.578
X90.387 Y77.294
Y63.165
Y61.881
Y11.791
Y2.158
X90.352 Y1.839
X90.178 Y1.221
X89.805 Y0.698
X89.3 Y0.301
X88.719 Y0.026
X88.102 Y-0.15
X87.468 Y-0.256
X86.829 Y-0.316
X86.188 Y-0.35
X85.546 Y-0.368
X84.904 Y-0.377
X84.262 Y-0.382
X83.619 Y-0.385
X82.335 Y-0.387
X71.418
X50.868
X2.704
X2.075 Y-0.258
X1.517 Y0.06
X1.074 Y0.525
X0.752 Y1.081
X0.536 Y1.685
X0.399 Y2.313
X0.317 Y2.95
X0.27 Y3.59
X0.244 Y4.232
X0.229 Y4.874
X0.221 Y5.516
X0.217 Y6.158
X0.215 Y6.8
X0.213 Y8.727
Y50.469
Y81.936
X0.252 Y82.577
X0.481 Y83.177
X0.878 Y83.682
X1.391 Y84.069
X1.972 Y84.341
X2.589 Y84.521
X3.221 Y84.633
X3.86 Y84.701
X4.501 Y84.739
X5.142 Y84.761
X5.785 Y84.773
X6.427 Y84.78
X7.069 Y84.783
X8.353 Y84.786
X12.206 Y84.787
X17.344
X67.434
X86.7
X87.342 Y84.785
X87.964 Y84.626
X88.509 Y84.286
X88.94 Y83.81
X89.253 Y83.249
X89.464 Y82.643
X89.599 Y82.015
X89.68 Y81.378
X89.728 Y80.738
X89.755 Y80.096
X89.77 Y79.454
X89.778 Y78.812
X89.782 Y78.17
X89.785 Y77.527
X89.787 Y76.243
Y67.253
Y55.693
Y5.603
Y3.034
X89.733 Y2.394
X89.493 Y1.798
X89.089 Y1.3
X88.571 Y0.919
X87.988 Y0.651
X87.37 Y0.474
X86.738 Y0.363
X86.099 Y0.297
X85.458 Y0.259
X84.816 Y0.238
X84.174 Y0.226
X83.532 Y0.22
X82.89 Y0.216
X81.605 Y0.214
X77.11 Y0.213
X43.716
X3.901
X3.259 Y0.232
X2.641 Y0.407
X2.103 Y0.758
X1.677 Y1.238
X1.365 Y1.8
X1.152 Y2.405
X1.014 Y3.032
X0.929 Y3.669
X0.878 Y4.309
X0.849 Y4.951
X0.833 Y5.593
X0.824 Y6.235
X0.819 Y6.877
X0.816 Y7.519
X0.813 Y8.803
Y14.583
Y58.894
Y80.728
X0.815 Y81.37
X0.896 Y82.007
X1.157 Y82.594
X1.572 Y83.084
X2.093 Y83.46
X2.677 Y83.728
X3.293 Y83.907
X3.925 Y84.022
X4.563 Y84.092
X5.204 Y84.133
X5.846 Y84.157
X6.488 Y84.171
X7.13 Y84.178
X7.772 Y84.182
X8.414 Y84.185
X10.341 Y84.187
X27.038 Y84.188
X77.128
X86.119 Y84.187
X86.761 Y84.162
X87.374 Y83.973
X87.905 Y83.612
X88.326 Y83.127
X88.634 Y82.563
X88.846 Y81.957
X88.983 Y81.33
X89.069 Y80.693
X89.12 Y80.053
X89.149 Y79.411
X89.166 Y78.77
X89.176 Y78.127
X89.181 Y77.485
X89.184 Y76.843
X89.186 Y75.559
X89.187 Y70.421
X89.188 Y44.734
Y4.276
X89.185 Y3.634
X89.101 Y2.997
X88.84 Y2.41
X88.425 Y1.92
X87.904 Y1.544
X87.321 Y1.275
X86.705 Y1.094
X86.073 Y0.979
X85.435 Y0.909
X84.794 Y0.867
X84.152 Y0.843
X83.51 Y0.829
X82.868 Y0.822
X82.226 Y0.818
X81.584 Y0.815
X79.657 Y0.813
X31.493
X4.521
X3.88 Y0.845
X3.267 Y1.035
X2.733 Y1.393
X2.308 Y1.874
X1.994 Y2.434
X1.776 Y3.038
X1.632 Y3.664
X1.542 Y4.3
X1.487 Y4.94
X1.455 Y5.581
X1.449 Y5.777
X1.431 Y5.951
X1.388 Y6.121
X1.32 Y6.282
X1.254 Y6.413
X1.17 Y6.603
X1.135 Y6.704
X1.094 Y6.85
X1.069 Y6.996
X0.999 Y7.433
X0.953 Y7.725
X0.937 Y7.871
X0.918 Y8.162
X0.913 Y8.308
Y76.692
X0.918 Y76.838
X0.937 Y77.129
X0.953 Y77.275
X1.046 Y77.858
X1.069 Y78.004
X1.094 Y78.15
X1.135 Y78.296
X1.174 Y78.44
X1.223 Y78.668
X1.275 Y78.979
X1.328 Y79.438
X1.373 Y80.079
X1.396 Y80.721
X1.495 Y81.355
X1.757 Y81.941
X2.17 Y82.433
X2.686 Y82.815
X3.266 Y83.091
X3.88 Y83.28
X4.51 Y83.403
X5.148 Y83.479
X5.789 Y83.524
X6.43 Y83.551
X7.072 Y83.567
X7.714 Y83.576
X8.357 Y83.581
X8.999 Y83.584
X10.283 Y83.586
X14.778 Y83.587
X48.172 Y83.588
X85.419 Y83.587
X86.06 Y83.559
X86.677 Y83.378
X87.218 Y83.032
X87.652 Y82.559
X87.977 Y82.005
X88.204 Y81.404
X88.354 Y80.78
X88.449 Y80.145
X88.506 Y79.505
X88.52 Y79.256
X88.54 Y79.092
X88.583 Y78.933
X88.647 Y78.781
X88.746 Y78.587
X88.83 Y78.397
X88.866 Y78.296
X88.906 Y78.15
X88.931 Y78.004
X89.001 Y77.567
X89.047 Y77.275
X89.063 Y77.129
X89.082 Y76.838
X89.088 Y76.692
Y8.308
X89.082 Y8.162
X89.063 Y7.871
X89.047 Y7.725
X88.954 Y7.142
X88.931 Y6.996
X88.906 Y6.85
X88.866 Y6.704
X88.826 Y6.56
X88.777 Y6.332
X88.726 Y6.021
X88.672 Y5.562
X88.627 Y4.921
X88.603 Y4.28
X88.503 Y3.645
X88.239 Y3.06
X87.826 Y2.568
X87.31 Y2.186
X86.73 Y1.91
X86.116 Y1.721
X85.486 Y1.598
X84.848 Y1.522
X84.208 Y1.476
X83.566 Y1.449
X82.924 Y1.433
X82.282 Y1.424
X81.64 Y1.419
X80.998 Y1.416
X79.713 Y1.414
X75.218 Y1.413
X41.824
X5.22
X4.578 Y1.445
X3.962 Y1.624
X3.418 Y1.966
X2.978 Y2.434
X2.648 Y2.985
X2.415 Y3.583
X2.26 Y4.206
X2.182 Y4.709
X2.127 Y4.915
X2.032 Y5.106
X1.899 Y5.273
X1.806 Y5.392
X1.754 Y5.462
X1.707 Y5.538
X1.462 Y6.005
X1.32 Y6.282
X1.254 Y6.413 Z-4.853
X1.189 Y6.558 Z-4.693
X1.17 Y6.603 Z-4.645
X1.135 Y6.704 Z-4.537
X1.125 Y6.74 Z-4.5
X1.104 Y6.816
X1.094 Y6.85
X1.069 Y6.996
X1.022 Y7.287
X0.953 Y7.725
X0.937 Y7.871
X0.918 Y8.162
X0.913 Y8.308
Y76.692
X0.918 Y76.838
X0.937 Y77.129
X0.953 Y77.275
X1.022 Y77.713
X1.025 Y77.729
X1.037 Y77.807
X1.069 Y78.004 Z-4.7
X1.094 Y78.15 Z-4.848
X1.135 Y78.296 Z-5
X1.17 Y78.397
X1.254 Y78.587
X1.477 Y79.025
X1.519 Y79.105
X1.582 Y79.241
X1.638 Y79.381
X1.687 Y79.53
X1.778 Y79.851
X1.923 Y80.477
X2.152 Y81.077
X2.521 Y81.602
X3.001 Y82.029
X3.557 Y82.351
X4.157 Y82.579
X4.78 Y82.734
X5.414 Y82.833
X6.054 Y82.896
X6.695 Y82.934
X7.336 Y82.956
X7.979 Y82.969
X8.621 Y82.977
X9.263 Y82.982
X9.905 Y82.984
X11.189 Y82.986
X16.327 Y82.987
X49.72 Y82.988
X84.399 Y82.987
X85.041 Y82.982
X85.677 Y82.896
X86.268 Y82.644
X86.77 Y82.243
X87.163 Y81.736
X87.451 Y81.162
X87.65 Y80.551
X87.675 Y80.43
X87.742 Y80.215
X87.847 Y80.017
X87.989 Y79.842
X88.101 Y79.727
X88.194 Y79.608
X88.246 Y79.538
X88.293 Y79.462
X88.538 Y78.995
X88.647 Y78.781
X88.746 Y78.587 Z-4.782
X88.811 Y78.442 Z-4.622
X88.83 Y78.397 Z-4.574
X88.854 Y78.328 Z-4.5
X88.866 Y78.296
X88.878 Y78.252
X88.906 Y78.15
X88.931 Y78.004
X88.978 Y77.713
X89.047 Y77.275
X89.063 Y77.129
X89.082 Y76.838
X89.088 Y76.692
Y8.308
X89.082 Y8.162
X89.063 Y7.871
X89.047 Y7.725
X88.978 Y7.287
X88.975 Y7.271
X88.963 Y7.193
X88.931 Y6.996 Z-4.7
X88.906 Y6.85 Z-4.848
X88.866 Y6.704 Z-5
X88.83 Y6.603
X88.746 Y6.413
X88.523 Y5.975
X88.481 Y5.895
X88.418 Y5.759
X88.363 Y5.619
X88.313 Y5.47
X88.219 Y5.137
X88.073 Y4.512
X87.84 Y3.913
X87.469 Y3.39
X86.987 Y2.965
X86.43 Y2.645
X85.83 Y2.418
X85.206 Y2.265
X84.571 Y2.166
X83.932 Y2.104
X83.291 Y2.066
X82.649 Y2.044
X82.007 Y2.03
X81.365 Y2.023
X80.723 Y2.018
X80.081 Y2.016
X78.796 Y2.014
X73.659 Y2.013
X40.265
X6.229
X5.587 Y2.019
X4.951 Y2.107
X4.359 Y2.357
X3.855 Y2.754
X3.458 Y3.259
X3.166 Y3.831
X3.133 Y3.918
X3.039 Y4.113
X2.912 Y4.288
X2.754 Y4.437
X2.652 Y4.517
X2.483 Y4.685
X2.068 Y5.1
X1.899 Y5.273
Z2 F1500.0
X0.703 Y78.374
Z-4.365
F300.0
Z-4.682
X0.709 Y78.378 Z-4.753
X0.729 Y78.391 Z-4.82
X0.762 Y78.41 Z-4.88
X0.804 Y78.437 Z-4.931
X0.856 Y78.468 Z-4.969
X0.913 Y78.503 Z-4.992
X0.973 Y78.54 Z-5
G3 X1.519 Y79.105 I-0.829 J1.348
G1 X1.707 Y79.462
X1.754 Y79.538
X1.806 Y79.608
X1.899 Y79.727
X1.925 Y79.754
X2.025 Y79.866
X2.401 Y80.387
X2.801 Y80.889
X3.284 Y81.313
X3.832 Y81.648
X4.424 Y81.896
X5.042 Y82.071
X5.673 Y82.189
X6.311 Y82.265
X6.951 Y82.314
X7.592 Y82.344
X8.234 Y82.362
X8.876 Y82.372
X9.519 Y82.379
X10.161 Y82.382
X11.445 Y82.386
X14.014 Y82.387
X51.261
X83.37
X84.012 Y82.386
X84.654 Y82.364
X85.279 Y82.215
X85.84 Y81.902
X86.303 Y81.458
X86.52 Y81.138
X86.637 Y80.992
X86.776 Y80.866
X86.933 Y80.764
X87.08 Y80.681
X87.162 Y80.629
X87.348 Y80.483
X87.517 Y80.315
X87.932 Y79.9
X87.989 Y79.842
Z2 F1500.0
X89.297 Y6.626
Z-4.365
F300.0
Z-4.682
X89.291 Y6.622 Z-4.753
X89.271 Y6.609 Z-4.82
X89.238 Y6.59 Z-4.88
X89.196 Y6.563 Z-4.931
X89.144 Y6.532 Z-4.969
X89.087 Y6.497 Z-4.992
X89.027 Y6.46 Z-5
G3 X88.481 Y5.895 I0.829 J-1.348
G1 X88.293 Y5.538
X88.246 Y5.462
X88.194 Y5.392
X88.101 Y5.273
X88.075 Y5.246
X87.975 Y5.134
X87.598 Y4.614
X87.198 Y4.112
X86.715 Y3.688
X86.167 Y3.353
X85.575 Y3.105
X84.957 Y2.93
X84.326 Y2.812
X83.688 Y2.735
X83.048 Y2.686
X82.407 Y2.657
X81.765 Y2.638
X81.123 Y2.628
X80.48 Y2.621
X79.838 Y2.618
X78.554 Y2.614
X75.985 Y2.613
X38.738 Y2.612
X7.271 Y2.613
X6.629 Y2.614
X5.987 Y2.636
X5.361 Y2.78
X4.797 Y3.086
X4.322 Y3.518
X4.211 Y3.626
X4.088 Y3.718
X3.954 Y3.794
X3.65 Y3.941
X3.504 Y4.013
X3.086 Y4.225
X2.92 Y4.319
X2.838 Y4.371
X2.754 Y4.437
Z2 F1500.0
X0.934 Y79.288
Z-4.365
F300.0
Z-4.682
X0.941 Y79.29 Z-4.753
X0.964 Y79.296 Z-4.82
X1.001 Y79.306 Z-4.88
X1.049 Y79.319 Z-4.931
X1.107 Y79.334 Z-4.969
X1.172 Y79.351 Z-4.992
X1.24 Y79.37 Z-5
G3 X1.925 Y79.754 I-0.408 J1.529
G1 X2.068 Y79.9
X2.505 Y80.337
X2.652 Y80.483
X2.838 Y80.629
X2.92 Y80.681
X3.087 Y80.775
X3.504 Y80.987
X3.665 Y81.066
X3.967 Y81.212
X4.087 Y81.257
X4.233 Y81.3
X4.379 Y81.326
X5.007 Y81.462
X5.641 Y81.56
X6.279 Y81.635
X6.919 Y81.689
X7.56 Y81.725
X8.202 Y81.749
X8.844 Y81.764
X9.486 Y81.773
X10.128 Y81.779
X10.77 Y81.782
X12.055 Y81.786
X14.623 Y81.787
X54.439
X83.337
X83.979 Y81.765
X84.606 Y81.625
X84.819 Y81.515
X84.936 Y81.462
X85.057 Y81.423
X85.183 Y81.396
X85.475 Y81.35
X85.621 Y81.326
X85.767 Y81.3
X85.913 Y81.257
X86.033 Y81.212
X86.35 Y81.059
X86.496 Y80.987
X86.913 Y80.775
X86.933 Y80.764
G3 X87.363 Y81.182 I0.142 J0.284
G1 X87.333 Y81.246 Z-4.992
X87.305 Y81.307 Z-4.969
X87.279 Y81.362 Z-4.931
X87.258 Y81.407 Z-4.88
X87.242 Y81.441 Z-4.82
X87.232 Y81.463 Z-4.753
X87.228 Y81.47 Z-4.682
Z2 F1500.0
X89.066 Y5.712
Z-4.365
F300.0
Z-4.682
X89.059 Y5.71 Z-4.753
X89.036 Y5.704 Z-4.82
X89 Y5.694 Z-4.88
X88.951 Y5.681 Z-4.931
X88.893 Y5.666 Z-4.969
X88.828 Y5.649 Z-4.992
X88.76 Y5.63 Z-5
G3 X88.075 Y5.246 I0.408 J-1.529
G1 X87.932 Y5.1
X87.495 Y4.663
X87.348 Y4.517
X87.162 Y4.371
X87.08 Y4.319
X86.914 Y4.225
X86.496 Y4.013
X86.335 Y3.934
X86.033 Y3.788
X85.913 Y3.743
X85.767 Y3.7
X85.621 Y3.674
X84.993 Y3.538
X84.359 Y3.44
X83.721 Y3.365
X83.081 Y3.311
X82.44 Y3.275
X81.798 Y3.251
X81.156 Y3.236
X80.514 Y3.227
X79.872 Y3.221
X79.23 Y3.218
X77.945 Y3.214
X75.377 Y3.213
X35.561
X7.947
X7.305
X6.663 Y3.234
X6.035 Y3.366
X5.925 Y3.415
X5.772 Y3.472
X5.613 Y3.507
X5.45 Y3.52
X5.4
X5.254 Y3.539
X4.962 Y3.581
X4.525 Y3.65
X4.304 Y3.687
X4.233 Y3.7
X4.087 Y3.743
X3.967 Y3.788
X3.954 Y3.794
Z2 F1500.0
X3.304 Y81.537
Z-4.365
F300.0
Z-4.682
X3.311 Y81.534 Z-4.753
X3.333 Y81.526 Z-4.82
X3.368 Y81.512 Z-4.88
X3.415 Y81.494 Z-4.931
X3.471 Y81.472 Z-4.969
X3.534 Y81.447 Z-4.992
X3.599 Y81.421 Z-5
G3 X4.379 Y81.326 I0.576 J1.474
G1 X4.671 Y81.373
X4.962 Y81.419
X5.254 Y81.461
X5.4 Y81.48
X5.838 Y81.484
X84.162
X84.6 Y81.48
X84.746 Y81.461
X85.038 Y81.419
X85.183 Y81.396
G3 X85.445 Y81.936 I0.037 J0.315
G1 X85.395 Y81.986 Z-4.992
X85.348 Y82.033 Z-4.969
X85.305 Y82.076 Z-4.931
X85.27 Y82.112 Z-4.88
X85.243 Y82.138 Z-4.82
X85.226 Y82.155 Z-4.753
X85.221 Y82.161 Z-4.682
Z2 F1500.0
X86.696 Y3.463
Z-4.365
F300.0
Z-4.682
X86.689 Y3.466 Z-4.753
X86.667 Y3.474 Z-4.82
X86.632 Y3.488 Z-4.88
X86.585 Y3.507 Z-4.931
X86.529 Y3.528 Z-4.969
X86.466 Y3.553 Z-4.992
X86.401 Y3.579 Z-5
G3 X85.621 Y3.674 I-0.576 J-1.474
G1 X85.329 Y3.627
X85.038 Y3.581
X84.746 Y3.539
X84.6 Y3.52
X84.162 Y3.516
X5.838
X5.45 Y3.52
G3 X5.141 Y3.225 I0.008 J-0.317
G1 Y3.203 Z-4.999
Y3.202
X5.154 Y3.149 Z-4.99
X5.167 Y3.098 Z-4.971
X5.179 Y3.051 Z-4.943
X5.209 Y3.016 Z-4.904
X5.234 Y2.987 Z-4.856
X5.253 Y2.966 Z-4.802
X5.264 Y2.953 Z-4.744
X5.268 Y2.948 Z-4.683
Z2 F1500.0
X-0.327 Y-3.701
Z-5.365
F300.0
Z-5.682
X-0.325 Y-3.694 Z-5.753
X-0.32 Y-3.671 Z-5.82
X-0.31 Y-3.634 Z-5.88
X-0.298 Y-3.586 Z-5.931
X-0.283 Y-3.527 Z-5.969
X-0.266 Y-3.462 Z-5.992
X-0.249 Y-3.394 Z-6
G3 X0 Y-1.665 I-7.852 J2.011
G1 Y-1.571 F270
X-0.399 Y-1.068 F300
X-0.66 Y-0.481
X-0.814 Y0.142
X-0.899 Y0.779
X-0.944 Y1.419
X-0.966 Y2.061
X-0.977 Y2.703
X-0.982 Y3.346
X-0.985 Y3.988
X-0.987 Y5.272
X-0.988 Y35.455
Y48.299
Y83.94
X-0.934 Y84.256
X-0.805 Y84.551
X-0.436 Y85.076
X0.085 Y85.451
X0.681 Y85.691
X1.308 Y85.832
X1.945 Y85.909
X2.586 Y85.948
X3.228 Y85.968
X3.87 Y85.978
X4.512 Y85.983
X5.154 Y85.985
X7.081 Y85.987
X12.861 Y85.988
X62.951
X88.96
X89.275 Y85.929
X89.568 Y85.796
X90.089 Y85.421
X90.46 Y84.897
X90.696 Y84.3
X90.835 Y83.673
X90.91 Y83.035
X90.949 Y82.394
X90.969 Y81.752
X90.978 Y81.11
X90.983 Y80.468
X90.985 Y79.825
X90.987 Y77.899
X90.988 Y62.486
Y12.396
Y0.837
X90.879 Y0.534
X90.71 Y0.262
X90.279 Y-0.215
X89.727 Y-0.543
X89.118 Y-0.746
X88.486 Y-0.862
X87.847 Y-0.925
X87.206 Y-0.957
X86.564 Y-0.972
X85.922 Y-0.98
X85.28 Y-0.984
X83.995 Y-0.987
X77.573
X53.17 Y-0.988
X3.08
X1.795
X1.482 Y-0.918
X1.188 Y-0.789
X0.656 Y-0.43
X0.259 Y0.076
X-0.009 Y0.659
X-0.176 Y1.279
X-0.273 Y1.914
X-0.327 Y2.554
X-0.356 Y3.196
X-0.372 Y3.838
X-0.379 Y4.48
X-0.383 Y5.122
X-0.385 Y5.764
X-0.387 Y7.691
Y46.864
Y82.826
X-0.319 Y83.465
X-0.039 Y84.043
X0.406 Y84.506
X0.953 Y84.842
X1.555 Y85.066
X2.182 Y85.206
X2.819 Y85.288
X3.459 Y85.334
X4.101 Y85.359
X4.743 Y85.373
X5.385 Y85.38
X6.027 Y85.384
X7.311 Y85.386
X11.807 Y85.387
X12.449
X62.539
X87.585
X88.227 Y85.379
X88.835 Y85.173
X89.344 Y84.782
X89.727 Y84.266
X89.991 Y83.681
X90.161 Y83.061
X90.262 Y82.427
X90.32 Y81.788
X90.352 Y81.146
X90.369 Y80.504
X90.378 Y79.862
X90.383 Y79.22
X90.385 Y78.578
X90.387 Y77.294
Y63.165
Y61.881
Y11.791
Y2.158
X90.352 Y1.839
X90.178 Y1.221
X89.805 Y0.698
X89.3 Y0.301
X88.719 Y0.026
X88.102 Y-0.15
X87.468 Y-0.256
X86.829 Y-0.316
X86.188 Y-0.35
X85.546 Y-0.368
X84.904 Y-0.377
X84.262 Y-0.382
X83.619 Y-0.385
X82.335 Y-0.387
X71.418
X50.868
X2.704
X2.075 Y-0.258
X1.517 Y0.06
X1.074 Y0.525
X0.752 Y1.081
X0.536 Y1.685
X0.399 Y2.313
X0.317 Y2.95
X0.27 Y3.59
X0.244 Y4.232
X0.229 Y4.874
X0.221 Y5.516
X0.217 Y6.158
X0.215 Y6.8
X0.213 Y8.727
Y50.469
Y81.936
X0.252 Y82.577
X0.481 Y83.177
X0.878 Y83.682
X1.391 Y84.069
X1.972 Y84.341
X2.589 Y84.521
X3.221 Y84.633
X3.86 Y84.701
X4.501 Y84.739
X5.142 Y84.761
X5.785 Y84.773
X6.427 Y84.78
X7.069 Y84.783
X8.353 Y84.786
X12.206 Y84.787
X17.344
X67.434
X86.7
X87.342 Y84.785
X87.964 Y84.626
X88.509 Y84.286
X88.94 Y83.81
X89.253 Y83.249
X89.464 Y82.643
X89.599 Y82.015
X89.68 Y81.378
X89.728 Y80.738
X89.755 Y80.096
X89.77 Y79.454
X89.778 Y78.812
X89.782 Y78.17
X89.785 Y77.527
X89.787 Y76.243
Y67.253
Y55.693
Y5.603
Y3.034
X89.733 Y2.394
X89.493 Y1.798
X89.089 Y1.3
X88.571 Y0.919
X87.988 Y0.651
X87.37 Y0.474
X86.738 Y0.363
X86.099 Y0.297
X85.458 Y0.259
X84.816 Y0.238
X84.174 Y0.226
X83.532 Y0.22
X82.89 Y0.216
X81.605 Y0.214
X77.11 Y0.213
X43.716
X3.901
X3.259 Y0.232
X2.641 Y0.407
X2.103 Y0.758
X1.677 Y1.238
X1.365 Y1.8
X1.152 Y2.405
X1.014 Y3.032
X0.929 Y3.669
X0.878 Y4.309
X0.849 Y4.951
X0.833 Y5.593
X0.824 Y6.235
X0.819 Y6.877
X0.816 Y7.519
X0.813 Y8.803
Y14.583
Y58.894
Y80.728
X0.815 Y81.37
X0.896 Y82.007
X1.157 Y82.594
X1.572 Y83.084
X2.093 Y83.46
X2.677 Y83.728
X3.293 Y83.907
X3.925 Y84.022
X4.563 Y84.092
X5.204 Y84.133
X5.846 Y84.157
X6.488 Y84.171
X7.13 Y84.178
X7.772 Y84.182
X8.414 Y84.185
X10.341 Y84.187
X27.038 Y84.188
X77.128
X86.119 Y84.187
X86.761 Y84.162
X87.374 Y83.973
X87.905 Y83.612
X88.326 Y83.127
X88.634 Y82.563
X88.846 Y81.957
X88.983 Y81.33
X89.069 Y80.693
X89.12 Y80.053
X89.149 Y79.411
X89.166 Y78.77
X89.176 Y78.127
X89.181 Y77.485
X89.184 Y76.843
X89.186 Y75.559
X89.187 Y70.421
X89.188 Y44.734
Y4.276
X89.185 Y3.634
X89.101 Y2.997
X88.84 Y2.41
X88.425 Y1.92
X87.904 Y1.544
X87.321 Y1.275
X86.705 Y1.094
X86.073 Y0.979
X85.435 Y0.909
X84.794 Y0.867
X84.152 Y0.843
X83.51 Y0.829
X82.868 Y0.822
X82.226 Y0.818
X81.584 Y0.815
X79.657 Y0.813
X31.493
X4.521
X3.88 Y0.845
X3.267 Y1.035
X2.733 Y1.393
X2.308 Y1.874
X1.994 Y2.434
X1.776 Y3.038
X1.632 Y3.664
X1.542 Y4.3
X1.487 Y4.94
X1.455 Y5.581
X1.449 Y5.777
X1.431 Y5.951
X1.388 Y6.121
X1.32 Y6.282
X1.254 Y6.413
X1.17 Y6.603
X1.135 Y6.704
X1.094 Y6.85
X1.069 Y6.996
X0.999 Y7.433
X0.953 Y7.725
X0.937 Y7.871
X0.918 Y8.162
X0.913 Y8.308
Y76.692
X0.918 Y76.838
X0.937 Y77.129
X0.953 Y77.275
X1.046 Y77.858
X1.069 Y78.004
X1.094 Y78.15
X1.135 Y78.296
X1.174 Y78.44
X1.223 Y78.668
X1.275 Y78.979
X1.328 Y79.438
X1.373 Y80.079
X1.396 Y80.721
X1.495 Y81.355
X1.757 Y81.941
X2.17 Y82.433
X2.686 Y82.815
X3.266 Y83.091
X3.88 Y83.28
X4.51 Y83.403
X5.148 Y83.479
X5.789 Y83.524
X6.43 Y83.551
X7.072 Y83.567
X7.714 Y83.576
X8.357 Y83.581
X8.999 Y83.584
X10.283 Y83.586
X14.778 Y83.587
X48.172 Y83.588
X85.419 Y83.587
X86.06 Y83.559
X86.677 Y83.378
X87.218 Y83.032
X87.652 Y82.559
X87.977 Y82.005
X88.204 Y81.404
X88.354 Y80.78
X88.449 Y80.145
X88.506 Y79.505
X88.52 Y79.256
X88.54 Y79.092
X88.583 Y78.933
X88.647 Y78.781
X88.746 Y78.587
X88.83 Y78.397
X88.866 Y78.296
X88.906 Y78.15
X88.931 Y78.004
X89.001 Y77.567
X89.047 Y77.275
X89.063 Y77.129
X89.082 Y76.838
X89.088 Y76.692
Y8.308
X89.082 Y8.162
X89.063 Y7.871
X89.047 Y7.725
X88.954 Y7.142
X88.931 Y6.996
X88.906 Y6.85
X88.866 Y6.704
X88.826 Y6.56
X88.777 Y6.332
X88.726 Y6.021
X88.672 Y5.562
X88.627 Y4.921
X88.603 Y4.28
X88.503 Y3.645
X88.239 Y3.06
X87.826 Y2.568
X87.31 Y2.186
X86.73 Y1.91
X86.116 Y1.721
X85.486 Y1.598
X84.848 Y1.522
X84.208 Y1.476
X83.566 Y1.449
X82.924 Y1.433
X82.282 Y1.424
X81.64 Y1.419
X80.998 Y1.416
X79.713 Y1.414
X75.218 Y1.413
X41.824
X5.22
X4.578 Y1.445
X3.962 Y1.624
X3.418 Y1.966
X2.978 Y2.434
X2.648 Y2.985
X2.415 Y3.583
X2.26 Y4.206
X2.182 Y4.709
X2.127 Y4.915
X2.032 Y5.106
X1.899 Y5.273
X1.806 Y5.392
X1.754 Y5.462
X1.707 Y5.538
X1.462 Y6.005
X1.32 Y6.282
X1.254 Y6.413 Z-5.853
X1.189 Y6.558 Z-5.693
X1.17 Y6.603 Z-5.645
X1.135 Y6.704 Z-5.537
X1.125 Y6.74 Z-5.5
X1.104 Y6.816
X1.094 Y6.85
X1.069 Y6.996
X1.022 Y7.287
X0.953 Y7.725
X0.937 Y7.871
X0.918 Y8.162
X0.913 Y8.308
Y76.692
X0.918 Y76.838
X0.937 Y77.129
X0.953 Y77.275
X1.022 Y77.713
X1.025 Y77.729
X1.037 Y77.807
X1.069 Y78.004 Z-5.7
X1.094 Y78.15 Z-5.848
X1.135 Y78.296 Z-6
X1.17 Y78.397
X1.254 Y78.587
X1.477 Y79.025
X1.519 Y79.105
X1.582 Y79.241
X1.638 Y79.381
X1.687 Y79.53
X1.778 Y79.851
X1.923 Y80.477
X2.152 Y81.077
X2.521 Y81.602
X3.001 Y82.029
X3.557 Y82.351
X4.157 Y82.579
X4.78 Y82.734
X5.414 Y82.833
X6.054 Y82.896
X6.695 Y82.934
X7.336 Y82.956
X7.979 Y82.969
X8.621 Y82.977
X9.263 Y82.982
X9.905 Y82.984
X11.189 Y82.986
X16.327 Y82.987
X49.72 Y82.988
X84.399 Y82.987
X85.041 Y82.982
X85.677 Y82.896
X86.268 Y82.644
X86.77 Y82.243
X87.163 Y81.736
X87.451 Y81.162
X87.65 Y80.551
X87.675 Y80.43
X87.742 Y80.215
X87.847 Y80.017
X87.989 Y79.842
X88.101 Y79.727
X88.194 Y79.608
X88.246 Y79.538
X88.293 Y79.462
X88.538 Y78.995
X88.647 Y78.781
X88.746 Y78.587 Z-5.782
X88.811 Y78.442 Z-5.622
X88.83 Y78.397 Z-5.574
X88.854 Y78.328 Z-5.5
X88.866 Y78.296
X88.878 Y78.252
X88.906 Y78.15
X88.931 Y78.004
X88.978 Y77.713
X89.047 Y77.275
X89.063 Y77.129
X89.082 Y76.838
X89.088 Y76.692
Y8.308
X89.082 Y8.162
X89.063 Y7.871
X89.047 Y7.725
X88.978 Y7.287
X88.975 Y7.271
X88.963 Y7.193
X88.931 Y6.996 Z-5.7
X88.906 Y6.85 Z-5.848
X88.866 Y6.704 Z-6
X88.83 Y6.603
X88.746 Y6.413
X88.523 Y5.975
X88.481 Y5.895
X88.418 Y5.759
X88.363 Y5.619
X88.313 Y5.47
X88.219 Y5.137
X88.073 Y4.512
X87.84 Y3.913
X87.469 Y3.39
X86.987 Y2.965
X86.43 Y2.645
X85.83 Y2.418
X85.206 Y2.265
X84.571 Y2.166
X83.932 Y2.104
X83.291 Y2.066
X82.649 Y2.044
X82.007 Y2.03
X81.365 Y2.023
X80.723 Y2.018
X80.081 Y2.016
X78.796 Y2.014
X73.659 Y2.013
X40.265
X6.229
X5.587 Y2.019
X4.951 Y2.107
X4.359 Y2.357
X3.855 Y2.754
X3.458 Y3.259
X3.166 Y3.831
X3.133 Y3.918
X3.039 Y4.113
X2.912 Y4.288
X2.754 Y4.437
X2.652 Y4.517
X2.483 Y4.685
X2.068 Y5.1
X1.899 Y5.273
Z2 F1500.0
X0.703 Y78.374
Z-5.365
F300.0
Z-5.682
X0.709 Y78.378 Z-5.753
X0.729 Y78.391 Z-5.82
X0.762 Y78.41 Z-5.88
X0.804 Y78.437 Z-5.931
X0.856 Y78.468 Z-5.969
X0.913 Y78.503 Z-5.992
X0.973 Y78.54 Z-6
G3 X1.519 Y79.105 I-0.829 J1.348
G1 X1.707 Y79.462
X1.754 Y79.538
X1.806 Y79.608
X1.899 Y79.727
X1.925 Y79.754
X2.025 Y79.866
X2.401 Y80.387
X2.801 Y80.889
X3.284 Y81.313
X3.832 Y81.648
X4.424 Y81.896
X5.042 Y82.071
X5.673 Y82.189
X6.311 Y82.265
X6.951 Y82.314
X7.592 Y82.344
X8.234 Y82.362
X8.876 Y82.372
X9.519 Y82.379
X10.161 Y82.382
X11.445 Y82.386
X14.014 Y82.387
X51.261
X83.37
X84.012 Y82.386
X84.654 Y82.364
X85.279 Y82.215
X85.84 Y81.902
X86.303 Y81.458
X86.52 Y81.138
X86.637 Y80.992
X86.776 Y80.866
X86.933 Y80.764
X87.08 Y80.681
X87.162 Y80.629
X87.348 Y80.483
X87.517 Y80.315
X87.932 Y79.9
X87.989 Y79.842
Z2 F1500.0
X89.297 Y6.626
Z-5.365
F300.0
Z-5.682
X89.291 Y6.622 Z-5.753
X89.271 Y6.609 Z-5.82
X89.238 Y6.59 Z-5.88
X89.196 Y6.563 Z-5.931
X89.144 Y6.532 Z-5.969
X89.087 Y6.497 Z-5.992
X89.027 Y6.46 Z-6
G3 X88.481 Y5.895 I0.829 J-1.348
G1 X88.293 Y5.538
X88.246 Y5.462
X88.194 Y5.392
X88.101 Y5.273
X88.075 Y5.246
X87.975 Y5.134
X87.598 Y4.614
X87.198 Y4.112
X86.715 Y3.688
X86.167 Y3.353
X85.575 Y3.105
X84.957 Y2.93
X84.326 Y2.812
X83.688 Y2.735
X83.048 Y2.686
X82.407 Y2.657
X81.765 Y2.638
X81.123 Y2.628
X80.48 Y2.621
X79.838 Y2.618
X78.554 Y2.614
X75.985 Y2.613
X38.738 Y2.612
X7.271 Y2.613
X6.629 Y2.614
X5.987 Y2.636
X5.361 Y2.78
X4.797 Y3.086
X4.322 Y3.518
X4.211 Y3.626
X4.088 Y3.718
X3.954 Y3.794
X3.65 Y3.941
X3.504 Y4.013
X3.086 Y4.225
X2.92 Y4.319
X2.838 Y4.371
X2.754 Y4.437
Z2 F1500.0
X0.934 Y79.288
Z-5.365
F300.0
Z-5.682
X0.941 Y79.29 Z-5.753
X0.964 Y79.296 Z-5.82
X1.001 Y79.306 Z-5.88
X1.049 Y79.319 Z-5.931
X1.107 Y79.334 Z-5.969
X1.172 Y79.351 Z-5.992
X1.24 Y79.37 Z-6
G3 X1.925 Y79.754 I-0.408 J1.529
G1 X2.068 Y79.9
X2.505 Y80.337
X2.652 Y80.483
X2.838 Y80.629
X2.92 Y80.681
X3.087 Y80.775
X3.504 Y80.987
X3.665 Y81.066
X3.967 Y81.212
X4.087 Y81.257
X4.233 Y81.3
X4.379 Y81.326
X5.007 Y81.462
X5.641 Y81.56
X6.279 Y81.635
X6.919 Y81.689
X7.56 Y81.725
X8.202 Y81.749
X8.844 Y81.764
X9.486 Y81.773
X10.128 Y81.779
X10.77 Y81.782
X12.055 Y81.786
X14.623 Y81.787
X54.439
X83.337
X83.979 Y81.765
X84.606 Y81.625
X84.819 Y81.515
X84.936 Y81.462
X85.057 Y81.423
X85.183 Y81.396
X85.475 Y81.35
X85.621 Y81.326
X85.767 Y81.3
X85.913 Y81.257
X86.033 Y81.212
X86.35 Y81.059
X86.496 Y80.987
X86.913 Y80.775
X86.933 Y80.764
G3 X87.363 Y81.182 I0.142 J0.284
G1 X87.333 Y81.246 Z-5.992
X87.305 Y81.307 Z-5.969
X87.279 Y81.362 Z-5.931
X87.258 Y81.407 Z-5.88
X87.242 Y81.441 Z-5.82
X87.232 Y81.463 Z-5.753
X87.228 Y81.47 Z-5.682
Z2 F1500.0
X89.066 Y5.712
Z-5.365
F300.0
Z-5.682
X89.059 Y5.71 Z-5.753
X89.036 Y5.704 Z-5.82
X89 Y5.694 Z-5.88
X88.951 Y5.681 Z-5.931
X88.893 Y5.666 Z-5.969
X88.828 Y5.649 Z-5.992
X88.76 Y5.63 Z-6
G3 X88.075 Y5.246 I0.408 J-1.529
G1 X87.932 Y5.1
X87.495 Y4.663
X87.348 Y4.517
X87.162 Y4.371
X87.08 Y4.319
X86.914 Y4.225
X86.496 Y4.013
X86.335 Y3.934
X86.033 Y3.788
X85.913 Y3.743
X85.767 Y3.7
X85.621 Y3.674
X84.993 Y3.538
X84.359 Y3.44
X83.721 Y3.365
X83.081 Y3.311
X82.44 Y3.275
X81.798 Y3.251
X81.156 Y3.236
X80.514 Y3.227
X79.872 Y3.221
X79.23 Y3.218
X77.945 Y3.214
X75.377 Y3.213
X35.561
X7.947
X7.305
X6.663 Y3.234
X6.035 Y3.366
X5.925 Y3.415
X5.772 Y3.472
X5.613 Y3.507
X5.45 Y3.52
X5.4
X5.254 Y3.539
X4.962 Y3.581
X4.525 Y3.65
X4.304 Y3.687
X4.233 Y3.7
X4.087 Y3.743
X3.967 Y3.788
X3.954 Y3.794
Z2 F1500.0
X3.304 Y81.537
Z-5.365
F300.0
Z-5.682
X3.311 Y81.534 Z-5.753
X3.333 Y81.526 Z-5.82
X3.368 Y81.512 Z-5.88
X3.415 Y81.494 Z-5.931
X3.471 Y81.472 Z-5.969
X3.534 Y81.447 Z-5.992
X3.599 Y81.421 Z-6
G3 X4.379 Y81.326 I0.576 J1.474
G1 X4.671 Y81.373
X4.962 Y81.419
X5.254 Y81.461
X5.4 Y81.48
X5.838 Y81.484
X84.162
X84.6 Y81.48
X84.746 Y81.461
X85.038 Y81.419
X85.183 Y81.396
G3 X85.445 Y81.936 I0.037 J0.315
G1 X85.395 Y81.986 Z-5.992
X85.348 Y82.033 Z-5.969
X85.305 Y82.076 Z-5.931
X85.27 Y82.112 Z-5.88
X85.243 Y82.138 Z-5.82
X85.226 Y82.155 Z-5.753
X85.221 Y82.161 Z-5.682
Z2 F1500.0
X86.696 Y3.463
Z-5.365
F300.0
Z-5.682
X86.689 Y3.466 Z-5.753
X86.667 Y3.474 Z-5.82
X86.632 Y3.488 Z-5.88
X86.585 Y3.507 Z-5.931
X86.529 Y3.528 Z-5.969
X86.466 Y3.553 Z-5.992
X86.401 Y3.579 Z-6
G3 X85.621 Y3.674 I-0.576 J-1.474
G1 X85.329 Y3.627
X85.038 Y3.581
X84.746 Y3.539
X84.6 Y3.52
X84.162 Y3.516
X5.838
X5.45 Y3.52
G3 X5.141 Y3.225 I0.008 J-0.317
G1 Y3.203 Z-5.999
Y3.202
X5.154 Y3.149 Z-5.99
X5.167 Y3.098 Z-5.971
X5.179 Y3.051 Z-5.943
X5.209 Y3.016 Z-5.904
X5.234 Y2.987 Z-5.856
X5.253 Y2.966 Z-5.802
X5.264 Y2.953 Z-5.744
X5.268 Y2.948 Z-5.683
Z2 F1500.0
X-0.327 Y-3.701
Z-6.365
F300.0
Z-6.682
X-0.325 Y-3.694 Z-6.753
X-0.32 Y-3.671 Z-6.82
X-0.31 Y-3.634 Z-6.88
X-0.298 Y-3.586 Z-6.931
X-0.283 Y-3.527 Z-6.969
X-0.266 Y-3.462 Z-6.992
X-0.249 Y-3.394 Z-7
G3 X0 Y-1.665 I-7.852 J2.011
G1 Y-1.571 F270
X-0.399 Y-1.068 F300
X-0.66 Y-0.481
X-0.814 Y0.142
X-0.899 Y0.779
X-0.944 Y1.419
X-0.966 Y2.061
X-0.977 Y2.703
X-0.982 Y3.346
X-0.985 Y3.988
X-0.987 Y5.272
X-0.988 Y35.455
Y48.299
Y83.94
X-0.934 Y84.256
X-0.805 Y84.551
X-0.436 Y85.076
X0.085 Y85.451
X0.681 Y85.691
X1.308 Y85.832
X1.945 Y85.909
X2.586 Y85.948
X3.228 Y85.968
X3.87 Y85.978
X4.512 Y85.983
X5.154 Y85.985
X7.081 Y85.987
X12.861 Y85.988
X62.951
X88.96
X89.275 Y85.929
X89.568 Y85.796
X90.089 Y85.421
X90.46 Y84.897
X90.696 Y84.3
X90.835 Y83.673
X90.91 Y83.035
X90.949 Y82.394
X90.969 Y81.752
X90.978 Y81.11
X90.983 Y80.468
X90.985 Y79.825
X90.987 Y77.899
X90.988 Y62.486
Y12.396
Y0.837
X90.879 Y0.534
X90.71 Y0.262
X90.279 Y-0.215
X89.727 Y-0.543
X89.118 Y-0.746
X88.486 Y-0.862
X87.847 Y-0.925
X87.206 Y-0.957
X86.564 Y-0.972
X85.922 Y-0.98
X85.28 Y-0.984
X83.995 Y-0.987
X77.573
X53.17 Y-0.988
X3.08
X1.795
X1.482 Y-0.918
X1.188 Y-0.789
X0.656 Y-0.43
X0.259 Y0.076
X-0.009 Y0.659
X-0.176 Y1.279
X-0.273 Y1.914
X-0.327 Y2.554
X-0.356 Y3.196
X-0.372 Y3.838
X-0.379 Y4.48
X-0.383 Y5.122
X-0.385 Y5.764
X-0.387 Y7.691
Y46.864
Y82.826
X-0.319 Y83.465
X-0.039 Y84.043
X0.406 Y84.506
X0.953 Y84.842
X1.555 Y85.066
X2.182 Y85.206
X2.819 Y85.288
X3.459 Y85.334
X4.101 Y85.359
X4.743 Y85.373
X5.385 Y85.38
X6.027 Y85.384
X7.311 Y85.386
X11.807 Y85.387
X12.449
X62.539
X87.585
X88.227 Y85.379
X88.835 Y85.173
X89.344 Y84.782
X89.727 Y84.266
X89.991 Y83.681
X90.161 Y83.061
X90.262 Y82.427
X90.32 Y81.788
X90.352 Y81.146
X90.369 Y80.504
X90.378 Y79.862
X90.383 Y79.22
X90.385 Y78.578
X90.387 Y77.294
Y63.165
Y61.881
Y11.791
Y2.158
X90.352 Y1.839
X90.178 Y1.221
X89.805 Y0.698
X89.3 Y0.301
X88.719 Y0.026
X88.102 Y-0.15
X87.468 Y-0.256
X86.829 Y-0.316
X86.188 Y-0.35
X85.546 Y-0.368
X84.904 Y-0.377
X84.262 Y-0.382
X83.619 Y-0.385
X82.335 Y-0.387
X71.418
X50.868
X2.704
X2.075 Y-0.258
X1.517 Y0.06
X1.074 Y0.525
X0.752 Y1.081
X0.536 Y1.685
X0.399 Y2.313
X0.317 Y2.95
X0.27 Y3.59
X0.244 Y4.232
X0.229 Y4.874
X0.221 Y5.516
X0.217 Y6.158
X0.215 Y6.8
X0.213 Y8.727
Y50.469
Y81.936
X0.252 Y82.577
X0.481 Y83.177
X0.878 Y83.682
X1.391 Y84.069
X1.972 Y84.341
X2.589 Y84.521
X3.221 Y84.633
X3.86 Y84.701
X4.501 Y84.739
X5.142 Y84.761
X5.785 Y84.773
X6.427 Y84.78
X7.069 Y84.783
X8.353 Y84.786
X12.206 Y84.787
X17.344
X67.434
X86.7
X87.342 Y84.785
X87.964 Y84.626
X88.509 Y84.286
X88.94 Y83.81
X89.253 Y83.249
X89.464 Y82.643
X89.599 Y82.015
X89.68 Y81.378
X89.728 Y80.738
X89.755 Y80.096
X89.77 Y79.454
X89.778 Y78.812
X89.782 Y78.17
X89.785 Y77.527
X89.787 Y76.243
Y67.253
Y55.693
Y5.603
Y3.034
X89.733 Y2.394
X89.493 Y1.798
X89.089 Y1.3
X88.571 Y0.919
X87.988 Y0.651
X87.37 Y0.474
X86.738 Y0.363
X86.099 Y0.297
X85.458 Y0.259
X84.816 Y0.238
X84.174 Y0.226
X83.532 Y0.22
X82.89 Y0.216
X81.605 Y0.214
X77.11 Y0.213
X43.716
X3.901
X3.259 Y0.232
X2.641 Y0.407
X2.103 Y0.758
X1.677 Y1.238
X1.365 Y1.8
X1.152 Y2.405
X1.014 Y3.032
X0.929 Y3.669
X0.878 Y4.309
X0.849 Y4.951
X0.833 Y5.593
X0.824 Y6.235
X0.819 Y6.877
X0.816 Y7.519
X0.813 Y8.803
Y14.583
Y58.894
Y80.728
X0.815 Y81.37
X0.896 Y82.007
X1.157 Y82.594
X1.572 Y83.084
X2.093 Y83.46
X2.677 Y83.728
X3.293 Y83.907
X3.925 Y84.022
X4.563 Y84.092
X5.204 Y84.133
X5.846 Y84.157
X6.488 Y84.171
X7.13 Y84.178
X7.772 Y84.182
X8.414 Y84.185
X10.341 Y84.187
X27.038 Y84.188
X77.128
X86.119 Y84.187
X86.761 Y84.162
X87.374 Y83.973
X87.905 Y83.612
X88.326 Y83.127
X88.634 Y82.563
X88.846 Y81.957
X88.983 Y81.33
X89.069 Y80.693
X89.12 Y80.053
X89.149 Y79.411
X89.166 Y78.77
X89.176 Y78.127
X89.181 Y77.485
X89.184 Y76.843
X89.186 Y75.559
X89.187 Y70.421
X89.188 Y44.734
Y4.276
X89.185 Y3.634
X89.101 Y2.997
X88.84 Y2.41
X88.425 Y1.92
X87.904 Y1.544
X87.321 Y1.275
X86.705 Y1.094
X86.073 Y0.979
X85.435 Y0.909
X84.794 Y0.867
X84.152 Y0.843
X83.51 Y0.829
X82.868 Y0.822
X82.226 Y0.818
X81.584 Y0.815
X79.657 Y0.813
X31.493
X4.521
X3.88 Y0.845
X3.267 Y1.035
X2.733 Y1.393
X2.308 Y1.874
X1.994 Y2.434
X1.776 Y3.038
X1.632 Y3.664
X1.542 Y4.3
X1.487 Y4.94
X1.455 Y5.581
X1.449 Y5.777
X1.431 Y5.951
X1.388 Y6.121
X1.32 Y6.282
X1.254 Y6.413
X1.17 Y6.603
X1.135 Y6.704
X1.094 Y6.85
X1.069 Y6.996
X0.999 Y7.433
X0.953 Y7.725
X0.937 Y7.871
X0.918 Y8.162
X0.913 Y8.308
Y76.692
X0.918 Y76.838
X0.937 Y77.129
X0.953 Y77.275
X1.046 Y77.858
X1.069 Y78.004
X1.094 Y78.15
X1.135 Y78.296
X1.174 Y78.44
X1.223 Y78.668
X1.275 Y78.979
X1.328 Y79.438
X1.373 Y80.079
X1.396 Y80.721
X1.495 Y81.355
X1.757 Y81.941
X2.17 Y82.433
X2.686 Y82.815
X3.266 Y83.091
X3.88 Y83.28
X4.51 Y83.403
X5.148 Y83.479
X5.789 Y83.524
X6.43 Y83.551
X7.072 Y83.567
X7.714 Y83.576
X8.357 Y83.581
X8.999 Y83.584
X10.283 Y83.586
X14.778 Y83.587
X48.172 Y83.588
X85.419 Y83.587
X86.06 Y83.559
X86.677 Y83.378
X87.218 Y83.032
X87.652 Y82.559
X87.977 Y82.005
X88.204 Y81.404
X88.354 Y80.78
X88.449 Y80.145
X88.506 Y79.505
X88.52 Y79.256
X88.54 Y79.092
X88.583 Y78.933
X88.647 Y78.781
X88.746 Y78.587
X88.83 Y78.397
X88.866 Y78.296
X88.906 Y78.15
X88.931 Y78.004
X89.001 Y77.567
X89.047 Y77.275
X89.063 Y77.129
X89.082 Y76.838
X89.088 Y76.692
Y8.308
X89.082 Y8.162
X89.063 Y7.871
X89.047 Y7.725
X88.954 Y7.142
X88.931 Y6.996
X88.906 Y6.85
X88.866 Y6.704
X88.826 Y6.56
X88.777 Y6.332
X88.726 Y6.021
X88.672 Y5.562
X88.627 Y4.921
X88.603 Y4.28
X88.503 Y3.645
X88.239 Y3.06
X87.826 Y2.568
X87.31 Y2.186
X86.73 Y1.91
X86.116 Y1.721
X85.486 Y1.598
X84.848 Y1.522
X84.208 Y1.476
X83.566 Y1.449
X82.924 Y1.433
X82.282 Y1.424
X81.64 Y1.419
X80.998 Y1.416
X79.713 Y1.414
X75.218 Y1.413
X41.824
X5.22
X4.578 Y1.445
X3.962 Y1.624
X3.418 Y1.966
X2.978 Y2.434
X2.648 Y2.985
X2.415 Y3.583
X2.26 Y4.206
X2.182 Y4.709
X2.127 Y4.915
X2.032 Y5.106
X1.899 Y5.273
X1.806 Y5.392
X1.754 Y5.462
X1.707 Y5.538
X1.462 Y6.005
X1.32 Y6.282
X1.254 Y6.413 Z-6.853
X1.189 Y6.558 Z-6.693
X1.17 Y6.603 Z-6.645
X1.135 Y6.704 Z-6.537
X1.125 Y6.74 Z-6.5
X1.104 Y6.816
X1.094 Y6.85
X1.069 Y6.996
X1.022 Y7.287
X0.953 Y7.725
X0.937 Y7.871
X0.918 Y8.162
X0.913 Y8.308
Y76.692
X0.918 Y76.838
X0.937 Y77.129
X0.953 Y77.275
X1.022 Y77.713
X1.025 Y77.729
X1.037 Y77.807
X1.069 Y78.004 Z-6.7
X1.094 Y78.15 Z-6.848
X1.135 Y78.296 Z-7
X1.17 Y78.397
X1.254 Y78.587
X1.477 Y79.025
X1.519 Y79.105
X1.582 Y79.241
X1.638 Y79.381
X1.687 Y79.53
X1.778 Y79.851
X1.923 Y80.477
X2.152 Y81.077
X2.521 Y81.602
X3.001 Y82.029
X3.557 Y82.351
X4.157 Y82.579
X4.78 Y82.734
X5.414 Y82.833
X6.054 Y82.896
X6.695 Y82.934
X7.336 Y82.956
X7.979 Y82.969
X8.621 Y82.977
X9.263 Y82.982
X9.905 Y82.984
X11.189 Y82.986
X16.327 Y82.987
X49.72 Y82.988
X84.399 Y82.987
X85.041 Y82.982
X85.677 Y82.896
X86.268 Y82.644
X86.77 Y82.243
X87.163 Y81.736
X87.451 Y81.162
X87.65 Y80.551
X87.675 Y80.43
X87.742 Y80.215
X87.847 Y80.017
X87.989 Y79.842
X88.101 Y79.727
X88.194 Y79.608
X88.246 Y79.538
X88.293 Y79.462
X88.538 Y78.995
X88.647 Y78.781
X88.746 Y78.587 Z-6.782
X88.811 Y78.442 Z-6.622
X88.83 Y78.397 Z-6.574
X88.854 Y78.328 Z-6.5
X88.866 Y78.296
X88.878 Y78.252
X88.906 Y78.15
X88.931 Y78.004
X88.978 Y77.713
X89.047 Y77.275
X89.063 Y77.129
X89.082 Y76.838
X89.088 Y76.692
Y8.308
X89.082 Y8.162
X89.063 Y7.871
X89.047 Y7.725
X88.978 Y7.287
X88.975 Y7.271
X88.963 Y7.193
X88.931 Y6.996 Z-6.7
X88.906 Y6.85 Z-6.848
X88.866 Y6.704 Z-7
X88.83 Y6.603
X88.746 Y6.413
X88.523 Y5.975
X88.481 Y5.895
X88.418 Y5.759
X88.363 Y5.619
X88.313 Y5.47
X88.219 Y5.137
X88.073 Y4.512
X87.84 Y3.913
X87.469 Y3.39
X86.987 Y2.965
X86.43 Y2.645
X85.83 Y2.418
X85.206 Y2.265
X84.571 Y2.166
X83.932 Y2.104
X83.291 Y2.066
X82.649 Y2.044
X82.007 Y2.03
X81.365 Y2.023
X80.723 Y2.018
X80.081 Y2.016
X78.796 Y2.014
X73.659 Y2.013
X40.265
X6.229
X5.587 Y2.019
X4.951 Y2.107
X4.359 Y2.357
X3.855 Y2.754
X3.458 Y3.259
X3.166 Y3.831
X3.133 Y3.918
X3.039 Y4.113
X2.912 Y4.288
X2.754 Y4.437
X2.652 Y4.517
X2.483 Y4.685
X2.068 Y5.1
X1.899 Y5.273
Z2 F1500.0
X0.703 Y78.374
Z-6.365
F300.0
Z-6.682
X0.709 Y78.378 Z-6.753
X0.729 Y78.391 Z-6.82
X0.762 Y78.41 Z-6.88
X0.804 Y78.437 Z-6.931
X0.856 Y78.468 Z-6.969
X0.913 Y78.503 Z-6.992
X0.973 Y78.54 Z-7
G3 X1.519 Y79.105 I-0.829 J1.348
G1 X1.707 Y79.462
X1.754 Y79.538
X1.806 Y79.608
X1.899 Y79.727
X1.925 Y79.754
X2.025 Y79.866
X2.401 Y80.387
X2.801 Y80.889
X3.284 Y81.313
X3.832 Y81.648
X4.424 Y81.896
X5.042 Y82.071
X5.673 Y82.189
X6.311 Y82.265
X6.951 Y82.314
X7.592 Y82.344
X8.234 Y82.362
X8.876 Y82.372
X9.519 Y82.379
X10.161 Y82.382
X11.445 Y82.386
X14.014 Y82.387
X51.261
X83.37
X84.012 Y82.386
X84.654 Y82.364
X85.279 Y82.215
X85.84 Y81.902
X86.303 Y81.458
X86.52 Y81.138
X86.637 Y80.992
X86.776 Y80.866
X86.933 Y80.764
X87.08 Y80.681
X87.162 Y80.629
X87.348 Y80.483
X87.517 Y80.315
X87.932 Y79.9
X87.989 Y79.842
Z2 F1500.0
X89.297 Y6.626
Z-6.365
F300.0
Z-6.682
X89.291 Y6.622 Z-6.753
X89.271 Y6.609 Z-6.82
X89.238 Y6.59 Z-6.88
X89.196 Y6.563 Z-6.931
X89.144 Y6.532 Z-6.969
X89.087 Y6.497 Z-6.992
X89.027 Y6.46 Z-7
G3 X88.481 Y5.895 I0.829 J-1.348
G1 X88.293 Y5.538
X88.246 Y5.462
X88.194 Y5.392
X88.101 Y5.273
X88.075 Y5.246
X87.975 Y5.134
X87.598 Y4.614
X87.198 Y4.112
X86.715 Y3.688
X86.167 Y3.353
X85.575 Y3.105
X84.957 Y2.93
X84.326 Y2.812
X83.688 Y2.735
X83.048 Y2.686
X82.407 Y2.657
X81.765 Y2.638
X81.123 Y2.628
X80.48 Y2.621
X79.838 Y2.618
X78.554 Y2.614
X75.985 Y2.613
X38.738 Y2.612
X7.271 Y2.613
X6.629 Y2.614
X5.987 Y2.636
X5.361 Y2.78
X4.797 Y3.086
X4.322 Y3.518
X4.211 Y3.626
X4.088 Y3.718
X3.954 Y3.794
X3.65 Y3.941
X3.504 Y4.013
X3.086 Y4.225
X2.92 Y4.319
X2.838 Y4.371
X2.754 Y4.437
Z2 F1500.0
X0.934 Y79.288
Z-6.365
F300.0
Z-6.682
X0.941 Y79.29 Z-6.753
X0.964 Y79.296 Z-6.82
X1.001 Y79.306 Z-6.88
X1.049 Y79.319 Z-6.931
X1.107 Y79.334 Z-6.969
X1.172 Y79.351 Z-6.992
X1.24 Y79.37 Z-7
G3 X1.925 Y79.754 I-0.408 J1.529
G1 X2.068 Y79.9
X2.505 Y80.337
X2.652 Y80.483
X2.838 Y80.629
X2.92 Y80.681
X3.087 Y80.775
X3.504 Y80.987
X3.665 Y81.066
X3.967 Y81.212
X4.087 Y81.257
X4.233 Y81.3
X4.379 Y81.326
X5.007 Y81.462
X5.641 Y81.56
X6.279 Y81.635
X6.919 Y81.689
X7.56 Y81.725
X8.202 Y81.749
X8.844 Y81.764
X9.486 Y81.773
X10.128 Y81.779
X10.77 Y81.782
X12.055 Y81.786
X14.623 Y81.787
X54.439
X83.337
X83.979 Y81.765
X84.606 Y81.625
X84.819 Y81.515
X84.936 Y81.462
X85.057 Y81.423
X85.183 Y81.396
X85.475 Y81.35
X85.621 Y81.326
X85.767 Y81.3
X85.913 Y81.257
X86.033 Y81.212
X86.35 Y81.059
X86.496 Y80.987
X86.913 Y80.775
X86.933 Y80.764
G3 X87.363 Y81.182 I0.142 J0.284
G1 X87.333 Y81.246 Z-6.992
X87.305 Y81.307 Z-6.969
X87.279 Y81.362 Z-6.931
X87.258 Y81.407 Z-6.88
X87.242 Y81.441 Z-6.82
X87.232 Y81.463 Z-6.753
X87.228 Y81.47 Z-6.682
Z2 F1500.0
X89.066 Y5.712
Z-6.365
F300.0
Z-6.682
X89.059 Y5.71 Z-6.753
X89.036 Y5.704 Z-6.82
X89 Y5.694 Z-6.88
X88.951 Y5.681 Z-6.931
X88.893 Y5.666 Z-6.969
X88.828 Y5.649 Z-6.992
X88.76 Y5.63 Z-7
G3 X88.075 Y5.246 I0.408 J-1.529
G1 X87.932 Y5.1
X87.495 Y4.663
X87.348 Y4.517
X87.162 Y4.371
X87.08 Y4.319
X86.914 Y4.225
X86.496 Y4.013
X86.335 Y3.934
X86.033 Y3.788
X85.913 Y3.743
X85.767 Y3.7
X85.621 Y3.674
X84.993 Y3.538
X84.359 Y3.44
X83.721 Y3.365
X83.081 Y3.311
X82.44 Y3.275
X81.798 Y3.251
X81.156 Y3.236
X80.514 Y3.227
X79.872 Y3.221
X79.23 Y3.218
X77.945 Y3.214
X75.377 Y3.213
X35.561
X7.947
X7.305
X6.663 Y3.234
X6.035 Y3.366
X5.925 Y3.415
X5.772 Y3.472
X5.613 Y3.507
X5.45 Y3.52
X5.4
X5.254 Y3.539
X4.962 Y3.581
X4.525 Y3.65
X4.304 Y3.687
X4.233 Y3.7
X4.087 Y3.743
X3.967 Y3.788
X3.954 Y3.794
Z2 F1500.0
X3.304 Y81.537
Z-6.365
F300.0
Z-6.682
X3.311 Y81.534 Z-6.753
X3.333 Y81.526 Z-6.82
X3.368 Y81.512 Z-6.88
X3.415 Y81.494 Z-6.931
X3.471 Y81.472 Z-6.969
X3.534 Y81.447 Z-6.992
X3.599 Y81.421 Z-7
G3 X4.379 Y81.326 I0.576 J1.474
G1 X4.671 Y81.373
X4.962 Y81.419
X5.254 Y81.461
X5.4 Y81.48
X5.838 Y81.484
X84.162
X84.6 Y81.48
X84.746 Y81.461
X85.038 Y81.419
X85.183 Y81.396
G3 X85.445 Y81.936 I0.037 J0.315
G1 X85.395 Y81.986 Z-6.992
X85.348 Y82.033 Z-6.969
X85.305 Y82.076 Z-6.931
X85.27 Y82.112 Z-6.88
X85.243 Y82.138 Z-6.82
X85.226 Y82.155 Z-6.753
X85.221 Y82.161 Z-6.682
Z2 F1500.0
X86.696 Y3.463
Z-6.365
F300.0
Z-6.682
X86.689 Y3.466 Z-6.753
X86.667 Y3.474 Z-6.82
X86.632 Y3.488 Z-6.88
X86.585 Y3.507 Z-6.931
X86.529 Y3.528 Z-6.969
X86.466 Y3.553 Z-6.992
X86.401 Y3.579 Z-7
G3 X85.621 Y3.674 I-0.576 J-1.474
G1 X85.329 Y3.627
X85.038 Y3.581
X84.746 Y3.539
X84.6 Y3.52
X84.162 Y3.516
X5.838
X5.45 Y3.52
G3 X5.141 Y3.225 I0.008 J-0.317
G1 Y3.203 Z-6.999
Y3.202
X5.154 Y3.149 Z-6.99
X5.167 Y3.098 Z-6.971
X5.179 Y3.051 Z-6.943
X5.209 Y3.016 Z-6.904
X5.234 Y2.987 Z-6.856
X5.253 Y2.966 Z-6.802
X5.264 Y2.953 Z-6.744
X5.268 Y2.948 Z-6.683
Z2 F1500.0
X-0.327 Y-3.701
Z-7.365
F300.0
Z-7.682
X-0.325 Y-3.694 Z-7.753
X-0.32 Y-3.671 Z-7.82
X-0.31 Y-3.634 Z-7.88
X-0.298 Y-3.586 Z-7.931
X-0.283 Y-3.527 Z-7.969
X-0.266 Y-3.462 Z-7.992
X-0.249 Y-3.394 Z-8
G3 X0 Y-1.665 I-7.852 J2.011
G1 Y-1.571 F270
X-0.399 Y-1.068 F300
X-0.66 Y-0.481
X-0.814 Y0.142
X-0.899 Y0.779
X-0.944 Y1.419
X-0.966 Y2.061
X-0.977 Y2.703
X-0.982 Y3.346
X-0.985 Y3.988
X-0.987 Y5.272
X-0.988 Y35.455
Y48.299
Y83.94
X-0.934 Y84.256
X-0.805 Y84.551
X-0.436 Y85.076
X0.085 Y85.451
X0.681 Y85.691
X1.308 Y85.832
X1.945 Y85.909
X2.586 Y85.948
X3.228 Y85.968
X3.87 Y85.978
X4.512 Y85.983
X5.154 Y85.985
X7.081 Y85.987
X12.861 Y85.988
X62.951
X88.96
X89.275 Y85.929
X89.568 Y85.796
X90.089 Y85.421
X90.46 Y84.897
X90.696 Y84.3
X90.835 Y83.673
X90.91 Y83.035
X90.949 Y82.394
X90.969 Y81.752
X90.978 Y81.11
X90.983 Y80.468
X90.985 Y79.825
X90.987 Y77.899
X90.988 Y62.486
Y12.396
Y0.837
X90.879 Y0.534
X90.71 Y0.262
X90.279 Y-0.215
X89.727 Y-0.543
X89.118 Y-0.746
X88.486 Y-0.862
X87.847 Y-0.925
X87.206 Y-0.957
X86.564 Y-0.972
X85.922 Y-0.98
X85.28 Y-0.984
X83.995 Y-0.987
X77.573
X53.17 Y-0.988
X3.08
X1.795
X1.482 Y-0.918
X1.188 Y-0.789
X0.656 Y-0.43
X0.259 Y0.076
X-0.009 Y0.659
X-0.176 Y1.279
X-0.273 Y1.914
X-0.327 Y2.554
X-0.356 Y3.196
X-0.372 Y3.838
X-0.379 Y4.48
X-0.383 Y5.122
X-0.385 Y5.764
X-0.387 Y7.691
Y46.864
Y82.826
X-0.319 Y83.465
X-0.039 Y84.043
X0.406 Y84.506
X0.953 Y84.842
X1.555 Y85.066
X2.182 Y85.206
X2.819 Y85.288
X3.459 Y85.334
X4.101 Y85.359
X4.743 Y85.373
X5.385 Y85.38
X6.027 Y85.384
X7.311 Y85.386
X11.807 Y85.387
X12.449
X62.539
X87.585
X88.227 Y85.379
X88.835 Y85.173
X89.344 Y84.782
X89.727 Y84.266
X89.991 Y83.681
X90.161 Y83.061
X90.262 Y82.427
X90.32 Y81.788
X90.352 Y81.146
X90.369 Y80.504
X90.378 Y79.862
X90.383 Y79.22
X90.385 Y78.578
X90.387 Y77.294
Y63.165
Y61.881
Y11.791
Y2.158
X90.352 Y1.839
X90.178 Y1.221
X89.805 Y0.698
X89.3 Y0.301
X88.719 Y0.026
X88.102 Y-0.15
X87.468 Y-0.256
X86.829 Y-0.316
X86.188 Y-0.35
X85.546 Y-0.368
X84.904 Y-0.377
X84.262 Y-0.382
X83.619 Y-0.385
X82.335 Y-0.387
X71.418
X50.868
X2.704
X2.075 Y-0.258
X1.517 Y0.06
X1.074 Y0.525
X0.752 Y1.081
X0.536 Y1.685
X0.399 Y2.313
X0.317 Y2.95
X0.27 Y3.59
X0.244 Y4.232
X0.229 Y4.874
X0.221 Y5.516
X0.217 Y6.158
X0.215 Y6.8
X0.213 Y8.727
Y50.469
Y81.936
X0.252 Y82.577
X0.481 Y83.177
X0.878 Y83.682
X1.391 Y84.069
X1.972 Y84.341
X2.589 Y84.521
X3.221 Y84.633
X3.86 Y84.701
X4.501 Y84.739
X5.142 Y84.761
X5.785 Y84.773
X6.427 Y84.78
X7.069 Y84.783
X8.353 Y84.786
X12.206 Y84.787
X17.344
X67.434
X86.7
X87.342 Y84.785
X87.964 Y84.626
X88.509 Y84.286
X88.94 Y83.81
X89.253 Y83.249
X89.464 Y82.643
X89.599 Y82.015
X89.68 Y81.378
X89.728 Y80.738
X89.755 Y80.096
X89.77 Y79.454
X89.778 Y78.812
X89.782 Y78.17
X89.785 Y77.527
X89.787 Y76.243
Y67.253
Y55.693
Y5.603
Y3.034
X89.733 Y2.394
X89.493 Y1.798
X89.089 Y1.3
X88.571 Y0.919
X87.988 Y0.651
X87.37 Y0.474
X86.738 Y0.363
X86.099 Y0.297
X85.458 Y0.259
X84.816 Y0.238
X84.174 Y0.226
X83.532 Y0.22
X82.89 Y0.216
X81.605 Y0.214
X77.11 Y0.213
X43.716
X3.901
X3.259 Y0.232
X2.641 Y0.407
X2.103 Y0.758
X1.677 Y1.238
X1.365 Y1.8
X1.152 Y2.405
X1.014 Y3.032
X0.929 Y3.669
X0.878 Y4.309
X0.849 Y4.951
X0.833 Y5.593
X0.824 Y6.235
X0.819 Y6.877
X0.816 Y7.519
X0.813 Y8.803
Y14.583
Y58.894
Y80.728
X0.815 Y81.37
X0.896 Y82.007
X1.157 Y82.594
X1.572 Y83.084
X2.093 Y83.46
X2.677 Y83.728
X3.293 Y83.907
X3.925 Y84.022
X4.563 Y84.092
X5.204 Y84.133
X5.846 Y84.157
X6.488 Y84.171
X7.13 Y84.178
X7.772 Y84.182
X8.414 Y84.185
X10.341 Y84.187
X27.038 Y84.188
X77.128
X86.119 Y84.187
X86.761 Y84.162
X87.374 Y83.973
X87.905 Y83.612
X88.326 Y83.127
X88.634 Y82.563
X88.846 Y81.957
X88.983 Y81.33
X89.069 Y80.693
X89.12 Y80.053
X89.149 Y79.411
X89.166 Y78.77
X89.176 Y78.127
X89.181 Y77.485
X89.184 Y76.843
X89.186 Y75.559
X89.187 Y70.421
X89.188 Y44.734
Y4.276
X89.185 Y3.634
X89.101 Y2.997
X88.84 Y2.41
X88.425 Y1.92
X87.904 Y1.544
X87.321 Y1.275
X86.705 Y1.094
X86.073 Y0.979
X85.435 Y0.909
X84.794 Y0.867
X84.152 Y0.843
X83.51 Y0.829
X82.868 Y0.822
X82.226 Y0.818
X81.584 Y0.815
X79.657 Y0.813
X31.493
X4.521
X3.88 Y0.845
X3.267 Y1.035
X2.733 Y1.393
X2.308 Y1.874
X1.994 Y2.434
X1.776 Y3.038
X1.632 Y3.664
X1.542 Y4.3
X1.487 Y4.94
X1.455 Y5.581
X1.449 Y5.777
X1.431 Y5.951
X1.388 Y6.121
X1.32 Y6.282
X1.254 Y6.413
X1.17 Y6.603
X1.135 Y6.704
X1.094 Y6.85
X1.069 Y6.996
X0.999 Y7.433
X0.953 Y7.725
X0.937 Y7.871
X0.918 Y8.162
X0.913 Y8.308
Y76.692
X0.918 Y76.838
X0.937 Y77.129
X0.953 Y77.275
X1.046 Y77.858
X1.069 Y78.004
X1.094 Y78.15
X1.135 Y78.296
X1.174 Y78.44
X1.223 Y78.668
X1.275 Y78.979
X1.328 Y79.438
X1.373 Y80.079
X1.396 Y80.721
X1.495 Y81.355
X1.757 Y81.941
X2.17 Y82.433
X2.686 Y82.815
X3.266 Y83.091
X3.88 Y83.28
X4.51 Y83.403
X5.148 Y83.479
X5.789 Y83.524
X6.43 Y83.551
X7.072 Y83.567
X7.714 Y83.576
X8.357 Y83.581
X8.999 Y83.584
X10.283 Y83.586
X14.778 Y83.587
X48.172 Y83.588
X85.419 Y83.587
X86.06 Y83.559
X86.677 Y83.378
X87.218 Y83.032
X87.652 Y82.559
X87.977 Y82.005
X88.204 Y81.404
X88.354 Y80.78
X88.449 Y80.145
X88.506 Y79.505
X88.52 Y79.256
X88.54 Y79.092
X88.583 Y78.933
X88.647 Y78.781
X88.746 Y78.587
X88.83 Y78.397
X88.866 Y78.296
X88.906 Y78.15
X88.931 Y78.004
X89.001 Y77.567
X89.047 Y77.275
X89.063 Y77.129
X89.082 Y76.838
X89.088 Y76.692
Y8.308
X89.082 Y8.162
X89.063 Y7.871
X89.047 Y7.725
X88.954 Y7.142
X88.931 Y6.996
X88.906 Y6.85
X88.866 Y6.704
X88.826 Y6.56
X88.777 Y6.332
X88.726 Y6.021
X88.672 Y5.562
X88.627 Y4.921
X88.603 Y4.28
X88.503 Y3.645
X88.239 Y3.06
X87.826 Y2.568
X87.31 Y2.186
X86.73 Y1.91
X86.116 Y1.721
X85.486 Y1.598
X84.848 Y1.522
X84.208 Y1.476
X83.566 Y1.449
X82.924 Y1.433
X82.282 Y1.424
X81.64 Y1.419
X80.998 Y1.416
X79.713 Y1.414
X75.218 Y1.413
X41.824
X5.22
X4.578 Y1.445
X3.962 Y1.624
X3.418 Y1.966
X2.978 Y2.434
X2.648 Y2.985
X2.415 Y3.583
X2.26 Y4.206
X2.182 Y4.709
X2.127 Y4.915
X2.032 Y5.106
X1.899 Y5.273
X1.806 Y5.392
X1.754 Y5.462
X1.707 Y5.538
X1.462 Y6.005
X1.32 Y6.282
X1.254 Y6.413 Z-7.853
X1.189 Y6.558 Z-7.693
X1.17 Y6.603 Z-7.645
X1.135 Y6.704 Z-7.537
X1.125 Y6.74 Z-7.5
X1.104 Y6.816
X1.094 Y6.85
X1.069 Y6.996
X1.022 Y7.287
X0.953 Y7.725
X0.937 Y7.871
X0.918 Y8.162
X0.913 Y8.308
Y76.692
X0.918 Y76.838
X0.937 Y77.129
X0.953 Y77.275
X1.022 Y77.713
X1.025 Y77.729
X1.037 Y77.807
X1.069 Y78.004 Z-7.7
X1.094 Y78.15 Z-7.848
X1.135 Y78.296 Z-8
X1.17 Y78.397
X1.254 Y78.587
X1.477 Y79.025
X1.519 Y79.105
X1.582 Y79.241
X1.638 Y79.381
X1.687 Y79.53
X1.778 Y79.851
X1.923 Y80.477
X2.152 Y81.077
X2.521 Y81.602
X3.001 Y82.029
X3.557 Y82.351
X4.157 Y82.579
X4.78 Y82.734
X5.414 Y82.833
X6.054 Y82.896
X6.695 Y82.934
X7.336 Y82.956
X7.979 Y82.969
X8.621 Y82.977
X9.263 Y82.982
X9.905 Y82.984
X11.189 Y82.986
X16.327 Y82.987
X49.72 Y82.988
X84.399 Y82.987
X85.041 Y82.982
X85.677 Y82.896
X86.268 Y82.644
X86.77 Y82.243
X87.163 Y81.736
X87.451 Y81.162
X87.65 Y80.551
X87.675 Y80.43
X87.742 Y80.215
X87.847 Y80.017
X87.989 Y79.842
X88.101 Y79.727
X88.194 Y79.608
X88.246 Y79.538
X88.293 Y79.462
X88.538 Y78.995
X88.647 Y78.781
X88.746 Y78.587 Z-7.782
X88.811 Y78.442 Z-7.622
X88.83 Y78.397 Z-7.574
X88.854 Y78.328 Z-7.5
X88.866 Y78.296
X88.878 Y78.252
X88.906 Y78.15
X88.931 Y78.004
X88.978 Y77.713
X89.047 Y77.275
X89.063 Y77.129
X89.082 Y76.838
X89.088 Y76.692
Y8.308
X89.082 Y8.162
X89.063 Y7.871
X89.047 Y7.725
X88.978 Y7.287
X88.975 Y7.271
X88.963 Y7.193
X88.931 Y6.996 Z-7.7
X88.906 Y6.85 Z-7.848
X88.866 Y6.704 Z-8
X88.83 Y6.603
X88.746 Y6.413
X88.523 Y5.975
X88.481 Y5.895
X88.418 Y5.759
X88.363 Y5.619
X88.313 Y5.47
X88.219 Y5.137
X88.073 Y4.512
X87.84 Y3.913
X87.469 Y3.39
X86.987 Y2.965
X86.43 Y2.645
X85.83 Y2.418
X85.206 Y2.265
X84.571 Y2.166
X83.932 Y2.104
X83.291 Y2.066
X82.649 Y2.044
X82.007 Y2.03
X81.365 Y2.023
X80.723 Y2.018
X80.081 Y2.016
X78.796 Y2.014
X73.659 Y2.013
X40.265
X6.229
X5.587 Y2.019
X4.951 Y2.107
X4.359 Y2.357
X3.855 Y2.754
X3.458 Y3.259
X3.166 Y3.831
X3.133 Y3.918
X3.039 Y4.113
X2.912 Y4.288
X2.754 Y4.437
X2.652 Y4.517
X2.483 Y4.685
X2.068 Y5.1
X1.899 Y5.273
Z2 F1500.0
X0.703 Y78.374
Z-7.365
F300.0
Z-7.682
X0.709 Y78.378 Z-7.753
X0.729 Y78.391 Z-7.82
X0.762 Y78.41 Z-7.88
X0.804 Y78.437 Z-7.931
X0.856 Y78.468 Z-7.969
X0.913 Y78.503 Z-7.992
X0.973 Y78.54 Z-8
G3 X1.519 Y79.105 I-0.829 J1.348
G1 X1.707 Y79.462
X1.754 Y79.538
X1.806 Y79.608
X1.899 Y79.727
X1.925 Y79.754
X2.025 Y79.866
X2.401 Y80.387
X2.801 Y80.889
X3.284 Y81.313
X3.832 Y81.648
X4.424 Y81.896
X5.042 Y82.071
X5.673 Y82.189
X6.311 Y82.265
X6.951 Y82.314
X7.592 Y82.344
X8.234 Y82.362
X8.876 Y82.372
X9.519 Y82.379
X10.161 Y82.382
X11.445 Y82.386
X14.014 Y82.387
X51.261
X83.37
X84.012 Y82.386
X84.654 Y82.364
X85.279 Y82.215
X85.84 Y81.902
X86.303 Y81.458
X86.52 Y81.138
X86.637 Y80.992
X86.776 Y80.866
X86.933 Y80.764
X87.08 Y80.681
X87.162 Y80.629
X87.348 Y80.483
X87.517 Y80.315
X87.932 Y79.9
X87.989 Y79.842
Z2 F1500.0
X89.297 Y6.626
Z-7.365
F300.0
Z-7.682
X89.291 Y6.622 Z-7.753
X89.271 Y6.609 Z-7.82
X89.238 Y6.59 Z-7.88
X89.196 Y6.563 Z-7.931
X89.144 Y6.532 Z-7.969
X89.087 Y6.497 Z-7.992
X89.027 Y6.46 Z-8
G3 X88.481 Y5.895 I0.829 J-1.348
G1 X88.293 Y5.538
X88.246 Y5.462
X88.194 Y5.392
X88.101 Y5.273
X88.075 Y5.246
X87.975 Y5.134
X87.598 Y4.614
X87.198 Y4.112
X86.715 Y3.688
X86.167 Y3.353
X85.575 Y3.105
X84.957 Y2.93
X84.326 Y2.812
X83.688 Y2.735
X83.048 Y2.686
X82.407 Y2.657
X81.765 Y2.638
X81.123 Y2.628
X80.48 Y2.621
X79.838 Y2.618
X78.554 Y2.614
X75.985 Y2.613
X38.738 Y2.612
X7.271 Y2.613
X6.629 Y2.614
X5.987 Y2.636
X5.361 Y2.78
X4.797 Y3.086
X4.322 Y3.518
X4.211 Y3.626
X4.088 Y3.718
X3.954 Y3.794
X3.65 Y3.941
X3.504 Y4.013
X3.086 Y4.225
X2.92 Y4.319
X2.838 Y4.371
X2.754 Y4.437
Z2 F1500.0
X0.934 Y79.288
Z-7.365
F300.0
Z-7.682
X0.941 Y79.29 Z-7.753
X0.964 Y79.296 Z-7.82
X1.001 Y79.306 Z-7.88
X1.049 Y79.319 Z-7.931
X1.107 Y79.334 Z-7.969
X1.172 Y79.351 Z-7.992
X1.24 Y79.37 Z-8
G3 X1.925 Y79.754 I-0.408 J1.529
G1 X2.068 Y79.9
X2.505 Y80.337
X2.652 Y80.483
X2.838 Y80.629
X2.92 Y80.681
X3.087 Y80.775
X3.504 Y80.987
X3.665 Y81.066
X3.967 Y81.212
X4.087 Y81.257
X4.233 Y81.3
X4.379 Y81.326
X5.007 Y81.462
X5.641 Y81.56
X6.279 Y81.635
X6.919 Y81.689
X7.56 Y81.725
X8.202 Y81.749
X8.844 Y81.764
X9.486 Y81.773
X10.128 Y81.779
X10.77 Y81.782
X12.055 Y81.786
X14.623 Y81.787
X54.439
X83.337
X83.979 Y81.765
X84.606 Y81.625
X84.819 Y81.515
X84.936 Y81.462
X85.057 Y81.423
X85.183 Y81.396
X85.475 Y81.35
X85.621 Y81.326
X85.767 Y81.3
X85.913 Y81.257
X86.033 Y81.212
X86.35 Y81.059
X86.496 Y80.987
X86.913 Y80.775
X86.933 Y80.764
G3 X87.363 Y81.182 I0.142 J0.284
G1 X87.333 Y81.246 Z-7.992
X87.305 Y81.307 Z-7.969
X87.279 Y81.362 Z-7.931
X87.258 Y81.407 Z-7.88
X87.242 Y81.441 Z-7.82
X87.232 Y81.463 Z-7.753
X87.228 Y81.47 Z-7.682
Z2 F1500.0
X89.066 Y5.712
Z-7.365
F300.0
Z-7.682
X89.059 Y5.71 Z-7.753
X89.036 Y5.704 Z-7.82
X89 Y5.694 Z-7.88
X88.951 Y5.681 Z-7.931
X88.893 Y5.666 Z-7.969
X88.828 Y5.649 Z-7.992
X88.76 Y5.63 Z-8
G3 X88.075 Y5.246 I0.408 J-1.529
G1 X87.932 Y5.1
X87.495 Y4.663
X87.348 Y4.517
X87.162 Y4.371
X87.08 Y4.319
X86.914 Y4.225
X86.496 Y4.013
X86.335 Y3.934
X86.033 Y3.788
X85.913 Y3.743
X85.767 Y3.7
X85.621 Y3.674
X84.993 Y3.538
X84.359 Y3.44
X83.721 Y3.365
X83.081 Y3.311
X82.44 Y3.275
X81.798 Y3.251
X81.156 Y3.236
X80.514 Y3.227
X79.872 Y3.221
X79.23 Y3.218
X77.945 Y3.214
X75.377 Y3.213
X35.561
X7.947
X7.305
X6.663 Y3.234
X6.035 Y3.366
X5.925 Y3.415
X5.772 Y3.472
X5.613 Y3.507
X5.45 Y3.52
X5.4
X5.254 Y3.539
X4.962 Y3.581
X4.525 Y3.65
X4.304 Y3.687
X4.233 Y3.7
X4.087 Y3.743
X3.967 Y3.788
X3.954 Y3.794
Z2 F1500.0
X3.304 Y81.537
Z-7.365
F300.0
Z-7.682
X3.311 Y81.534 Z-7.753
X3.333 Y81.526 Z-7.82
X3.368 Y81.512 Z-7.88
X3.415 Y81.494 Z-7.931
X3.471 Y81.472 Z-7.969
X3.534 Y81.447 Z-7.992
X3.599 Y81.421 Z-8
G3 X4.379 Y81.326 I0.576 J1.474
G1 X4.671 Y81.373
X4.962 Y81.419
X5.254 Y81.461
X5.4 Y81.48
X5.838 Y81.484
X84.162
X84.6 Y81.48
X84.746 Y81.461
X85.038 Y81.419
X85.183 Y81.396
G3 X85.445 Y81.936 I0.037 J0.315
G1 X85.395 Y81.986 Z-7.992
X85.348 Y82.033 Z-7.969
X85.305 Y82.076 Z-7.931
X85.27 Y82.112 Z-7.88
X85.243 Y82.138 Z-7.82
X85.226 Y82.155 Z-7.753
