(topo-surf-finish-1mm-ball)
(Machine)
(  vendor: Autodesk)
(  model: Sainsmart 3018pro)
(  description: 3018)
G90 G94
G17
G21
(When using Fusion 360 for Personal Use, the feedrate of)
(rapid moves is reduced to match the feedrate of cutting)
(moves, which can increase machining time. Unrestricted rapid)
(moves are available with a Fusion 360 Subscription.)

(1mm Ball Finish)
G54
M8
G0 Z20.218 F1500
G0 X82.477 Y-0.008
S5000 M3
G1 Z7.89 F400
Z6.36
G18 G3 X81.999 Z5.86 I-0.5 K0
G1 X78.199 Z5.693
X74.043 Z5.8
X72.681 Z5.739
X71.065 Z5.557
X70.634 Z5.518
X69.651 Z5.391
X67.091 Z4.875
X65.315 Z4.469
X64.177 Z4.377
X63.593 Z4.412
X62.5 Z4.446
X61.242 Z4.435
X59.266 Z4.521
X58.337 Z4.546
X56.854 Z4.486
X54.383 Z4.536
X53.117 Z4.547
X51.924 Z4.618
X51.103 Z4.615
X49.422 Z4.505
X46.222 Z4.538
X44.527 Z4.536
X42.777 Z4.482
X41.708 Z4.54
X39.899 Z4.398
X37.657 Z4.325
X35.971 Z4.227
X34.674 Z4.123
X33.821 Z4.184
X32.922 Z4.218
X31.788 Z4.111
X30.962 Z4.098
X29.158 Z4.18
X28.061 Z4.104
X26.171 Z3.831
X24.525 Z3.604
X21.89 Z3.627
X21.302 Z3.624
X18.957 Z3.404
X18.315 Z3.337
X15.106 Z2.847
X12.099 Z2.66
X2.96 Z2.639
X2.938 Z2.644
X2.916 Z2.649
X2.023
X1.991 Y-0.001
X1.965 Y0.02
X1.95 Y0.05
Y0.084
X1.965 Y0.114
X1.991 Y0.134
X2.023 Y0.142
X2.045 Z2.644
X2.068 Z2.639
X11.556 Z2.659
X12.519 Z2.669
X14.81 Z2.809
X15.308 Z2.864
X16.5 Z3.044
X17.775 Z3.241
X18.507 Z3.35
X20.2 Z3.514
X21.156 Z3.608
X21.512 Z3.637
X22.667 Z3.625
X24.728 Z3.618
X26.002 Z3.791
X26.731 Z3.909
X28.053 Z4.105
X29.097 Z4.179
X29.64 Z4.177
X30.488 Z4.141
X30.939 Z4.105
X31.567 Z4.112
X31.947 Z4.135
X32.683 Z4.215
X33.065 Z4.24
X33.64 Z4.22
X34.307 Z4.166
X34.74 Z4.129
X34.916 Z4.152
X35.231 Z4.18
X36.297 Z4.277
X37.109 Z4.325
X37.929 Z4.356
X39.51 Z4.374
X39.832 Z4.396
X40.305 Z4.446
X41.778 Z4.554
X42.801 Z4.497
X43.075 Z4.496
X44.661 Z4.56
X46.466 Z4.557
X48.106 Z4.521
X49.146 Z4.518
X49.693 Z4.529
X50.757 Z4.606
X51.461 Z4.644
X51.789 Z4.647
X52.53 Z4.584
X53.46 Z4.563
X54.59 Z4.554
X55.118 Z4.532
X56.857 Z4.493
X57.224 Z4.519
X57.988 Z4.555
X58.754 Z4.557
X59.396 Z4.544
X59.829 Z4.507
X61.116 Z4.445
X62.538 Z4.457
X63.687 Z4.423
X64.286 Z4.375
X65.341 Z4.464
X67.116 Z4.874
X67.419 Z4.944
X69.404 Z5.345
X69.709 Z5.409
X70.644 Z5.528
X71.063 Z5.569
X72.532 Z5.74
X72.953 Z5.78
X73.555 Z5.809
X73.938 Z5.812
X75.469 Z5.781
X78.313 Z5.698
X80.209 Z5.774
X81.412 Z5.844
X82.937 Z5.913
X82.957 Z5.918
X82.979 Z5.923
X83.349
X83.366 Y0.144
X83.382 Y0.149 Z5.924
X83.397 Y0.158 Z5.926
X83.409 Y0.17 Z5.929
X83.418 Y0.184 Z5.931
X83.423 Y0.2 Z5.934
X83.425 Y0.217 Z5.938
X83.423 Y0.234 Z5.941
X83.418 Y0.249 Z5.944
X83.409 Y0.264 Z5.947
X83.397 Y0.276 Z5.949
X83.382 Y0.284 Z5.951
X83.366 Y0.29 Z5.952
X83.349 Y0.292
X83.327 Z5.947
X83.307 Z5.942
X81.781 Z5.875
X79.818 Z5.755
X78.396 Z5.708
X74.484 Z5.822
X73.29 Z5.825
X72.609 Z5.766
X71.777 Z5.671
X70.615 Z5.532
X69.651 Z5.406
X68.537 Z5.17
X67.717 Z5.003
X67.194 Z4.889
X66.267 Z4.664
X65.326 Z4.455
X65.008 Z4.416
X64.573 Z4.379
X64.354 Z4.377
X63.663 Z4.437
X62.57 Z4.469
X60.929 Z4.457
X59.976 Z4.504
X59.288 Z4.571
X57.785 Z4.566
X56.779 Z4.501
X56.632 Z4.514
X55.155 Z4.545
X54.613 Z4.574
X53.481 Z4.578
X52.497 Z4.601
X51.764 Z4.665
X51.545 Z4.662
X50.732 Z4.617
X49.716 Z4.538
X48.291 Z4.531
X46.487 Z4.576
X44.846 Z4.585
X44.026 Z4.557
X42.999 Z4.509
X42.777 Z4.516
X41.902 Z4.563
X41.738 Z4.565
X40.051 Z4.441
X39.549 Z4.393
X38.13 Z4.38
X36.981 Z4.345
X36.599 Z4.324
X35.227 Z4.19
X34.79 Z4.142
X33.396 Z4.259
X33.177 Z4.261
X32.631 Z4.229
X31.949 Z4.148
X31.402 Z4.114
X30.891
X30.197 Z4.172
X29.093 Z4.182
X28.063 Z4.109
X26.811 Z3.927
X25.142 Z3.648
X24.927 Z3.631
X22.952 Z3.635
X21.716 Z3.649
X21.1 Z3.602
X20.472 Z3.527
X19.088 Z3.395
X18.563 Z3.342
X17.485 Z3.171
X16.428 Z2.996
X14.691 Z2.78
X14.357 Z2.742
X13.346 Z2.695
X12.416 Z2.664
X10.925 Z2.658
X1.69 Z2.639
X1.668 Z2.644
X1.667 Z2.645
X1.645 Z2.65
X1.376
X1.344 Y0.299
X1.318 Y0.32
X1.303 Y0.35
Y0.384
X1.318 Y0.414
X1.344 Y0.434
X1.376 Y0.442
X1.398 Z2.645
X1.42 Z2.64
X11.262 Z2.657
X12.733 Z2.668
X14.535 Z2.735
X15.935 Z2.903
X16.535 Z2.978
X18.629 Z3.326
X18.937 Z3.363
X20.155 Z3.486
X21.062 Z3.598
X21.657 Z3.643
X21.976 Z3.659
X22.961 Z3.649
X24.783 Z3.643
X25.326 Z3.675
X25.844 Z3.764
X26.773 Z3.925
X27.092 Z3.968
X28.056 Z4.111
X29.07 Z4.183
X30.147 Z4.177
X30.844 Z4.122
X31.336 Z4.118
X32.02 Z4.167
X32.532 Z4.238
X33.119 Z4.271
X33.447 Z4.279
X34.103 Z4.232
X34.374 Z4.207
X34.786 Z4.165
X35.034 Z4.189
X36.611 Z4.342
X36.884 Z4.357
X38.361 Z4.404
X39.455 Z4.413
X40.106 Z4.463
X41.781 Z4.579
X42.109 Z4.569
X42.996 Z4.522
X43.313 Z4.543
X44.024 Z4.579
X44.954 Z4.607
X45.939 Z4.602
X46.418 Z4.595
X48.332 Z4.546
X49.792 Z4.555
X50.87 Z4.64
X51.626 Z4.683
X51.899 Z4.674
X52.578 Z4.614
X53.235 Z4.598
X54.703 Z4.593
X55.463 Z4.551
X56.502 Z4.528
X56.65 Z4.517
X56.74 Z4.521
X57.596 Z4.58
X57.869 Z4.586
X59.291 Z4.594
X59.452 Z4.581
X60.07 Z4.506
X60.508 Z4.484
X60.768 Z4.463
X61.636 Z4.473
X62.752 Z4.48
X63.682 Z4.445
X64.387 Z4.382
X64.62 Z4.38
X64.893 Z4.391
X65.318 Z4.447
X65.842 Z4.556
X67.176 Z4.872
X67.875 Z5.033
X69.772 Z5.432
X71.76 Z5.689
X72.484 Z5.769
X72.808 Z5.8
X73.377 Z5.842
X73.869 Z5.846
X74.142 Z5.835
X74.635 Z5.838
X76.002 Z5.8
X78.453 Z5.727
X79.765 Z5.768
X81.618 Z5.881
X83.581 Z5.967
X83.601 Z5.972
X83.623 Z5.977
X83.844
X83.861 Y0.444
X83.877 Y0.449 Z5.978
X83.891 Y0.458 Z5.979
X83.903 Y0.47 Z5.981
X83.912 Y0.484 Z5.983
X83.918 Y0.5 Z5.986
X83.92 Y0.517 Z5.988
X83.918 Y0.534 Z5.991
X83.912 Y0.549 Z5.994
X83.903 Y0.564 Z5.996
X83.891 Y0.576 Z5.998
X83.877 Y0.584 Z5.999
X83.861 Y0.59 Z6
X83.844 Y0.592
X83.822 Z5.995
X83.802 Z5.99
X81.511 Z5.89
X79.713 Z5.78
X78.564 Z5.746
X76.406 Z5.803
X75.257 Z5.846
X74.765 Z5.854
X73.999 Z5.848
X73.642 Z5.865
X72.817 Z5.812
X72.341 Z5.772
X71.808 Z5.714
X69.975 Z5.47
X68.375 Z5.134
X67.456 Z4.923
X65.996 Z4.581
X65.378 Z4.449
X64.953 Z4.394
X64.486 Z4.386
X63.699 Z4.453
X63.207 Z4.478
X62.606 Z4.491
X61.691
X60.761 Z4.475
X60.229 Z4.503
X59.343 Z4.617
X58.134 Z4.611
X57.368 Z4.593
X56.787 Z4.55
X56.488 Z4.537
X55.689 Z4.563
X54.786 Z4.613
X53.043 Z4.616
X52.66 Z4.627
X52.035 Z4.682
X51.638 Z4.7
X50.896 Z4.657
X49.871 Z4.577
X48.832 Z4.561
X48.098 Z4.569
X46.512 Z4.615
X45.943 Z4.617
X45.792 Z4.63
X45.027 Z4.629
X43.933 Z4.597
X43.288 Z4.561
X42.96 Z4.536
X42.615 Z4.566
X41.795 Z4.59
X41.092 Z4.548
X40.01 Z4.472
X39.575 Z4.44
X38.755 Z4.432
X36.895 Z4.374
X36.526 Z4.349
X35.038 Z4.21
X34.783 Z4.187
X34.373 Z4.234
X34.16 Z4.259
X33.723 Z4.287
X33.176 Z4.285
X32.459 Z4.245
X32.01 Z4.179
X31.247 Z4.126
X30.81 Z4.129
X30.089 Z4.183
X29.022
X28.046 Z4.112
X27.287 Z3.997
X26.672 Z3.911
X25.954 Z3.786
X25.544 Z3.709
X24.861 Z3.664
X24.259 Z3.655
X22.313 Z3.665
X21.876 Z3.656
X21.347 Z3.616
X20.188 Z3.476
X18.92 Z3.334
X18.401 Z3.256
X16.637 Z2.956
X15.999 Z2.875
X15.786 Z2.86
X14.732 Z2.736
X12.982 Z2.671
X11.066 Z2.655
X9.607 Z2.656
X1.199 Z2.641
X1.177 Z2.646
X1.175
X1.153 Z2.651
X0.972
X0.94 Y0.599
X0.914 Y0.62
X0.899 Y0.65
Y0.684
X0.914 Y0.714
X0.94 Y0.734
X0.972 Y0.742
X0.994 Z2.646
X1.016 Z2.641
X9.523 Z2.656
X10.924 Z2.653
X13.21 Z2.674
X14.96 Z2.738
X15.8 Z2.835
X16.125 Z2.852
X16.869 Z2.953
X17.279 Z3.03
X18.314 Z3.209
X19.151 Z3.334
X19.791 Z3.404
X20.417 Z3.487
X21.577 Z3.628
X21.994 Z3.662
X22.65 Z3.672
X24.289 Z3.667
X24.945 Z3.685
X25.428 Z3.728
X25.845 Z3.765
X26.058 Z3.806
X26.554 Z3.892
X27.074 Z3.967
X28.033 Z4.113
X29.029 Z4.186
X30.045 Z4.188
X30.691 Z4.141
X31.149 Z4.135
X31.906 Z4.184
X32.319 Z4.238
X32.525 Z4.262
X33.176 Z4.296
X34.132 Z4.291
X34.779 Z4.21
X36.556 Z4.368
X36.871 Z4.39
X39.059 Z4.458
X39.66 Z4.466
X40.686 Z4.536
X41.849 Z4.602
X42.204 Z4.591
X42.626 Z4.582
X42.788 Z4.578
X43.002 Z4.557
X43.407 Z4.59
X43.833 Z4.614
X45.091 Z4.652
X45.747 Z4.653
X45.952 Z4.631
X46.443 Z4.637
X48.084 Z4.586
X48.968 Z4.578
X49.897 Z4.597
X50.977 Z4.678
X51.624 Z4.716
X52.224 Z4.686
X52.796 Z4.635
X54.161
X54.946 Z4.629
X56.199 Z4.557
X56.519 Z4.56
X57.151 Z4.607
X57.534 Z4.616
X58.628 Z4.639
X59.339 Z4.633
X59.445 Z4.623
X60.285 Z4.513
X60.831 Z4.486
X61.637 Z4.507
X62.66 Z4.503
X63.262 Z4.489
X63.986 Z4.441
X64.614 Z4.394
X65.089 Z4.409
X65.407 Z4.446
X66.12 Z4.596
X67.685 Z4.962
X68.5 Z5.15
X69.025 Z5.258
X70.156 Z5.503
X71.834 Z5.731
X72.463 Z5.798
X73.606 Z5.872
X73.934 Z5.855
X74.458 Z5.863
X75.223 Z5.868
X76.263 Z5.824
X78.638 Z5.765
X79.677 Z5.793
X81.366 Z5.897
X83.985 Z6.009
X84.005 Z6.014
X84.027 Z6.019
X84.188
X84.205 Y0.744
X84.221 Y0.749 Z6.02
X84.235 Y0.758 Z6.021
X84.247 Y0.77 Z6.022
X84.256 Y0.784 Z6.024
X84.262 Y0.8 Z6.025
X84.264 Y0.817 Z6.027
X84.262 Y0.834 Z6.029
X84.256 Y0.849 Z6.031
X84.247 Y0.864 Z6.032
X84.235 Y0.876 Z6.034
X84.221 Y0.884 Z6.035
X84.205 Y0.89
X84.188 Y0.892
X84.166 Z6.03
X84.146 Z6.025
X83.544 Z6.009
X81.198 Z5.903
X79.564 Z5.804
X78.635 Z5.786
X77.213 Z5.828
X76.338 Z5.839
X75.244 Z5.888
X73.803 Z5.867
X73.564 Z5.878
X72.748 Z5.832
X72.529 Z5.821
X71.698 Z5.726
X70.34 Z5.537
X69 Z5.243
X68.392 Z5.113
X66.211 Z4.604
X65.591 Z4.478
X65.382 Z4.436
X65.166 Z4.422
X64.718 Z4.404
X63.528 Z4.484
X63.09 Z4.508
X62.543 Z4.513
X61.583 Z4.523
X60.87 Z4.499
X60.323 Z4.524
X59.59 Z4.62
X59.377 Z4.644
X59.107 Z4.655
X58.669 Z4.662
X57.794 Z4.635
X57.028 Z4.621
X56.559 Z4.586
X56.268 Z4.574
X55.584 Z4.619
X54.818 Z4.654
X53.144 Z4.653
X52.87 Z4.65
X52.344 Z4.696
X51.621 Z4.733
X50.988 Z4.694
X49.961 Z4.619
X48.835 Z4.592
X47.905 Z4.607
X46.429 Z4.662
X45.991 Z4.648
X45.677 Z4.677
X44.939 Z4.669
X43.736 Z4.631
X43.2 Z4.593
X43.036 Z4.58
X42.767 Z4.599
X42.23 Z4.602
X41.902 Z4.613
X40.326 Z4.528
X39.791 Z4.494
X38.916 Z4.469
X36.893 Z4.407
X36.578 Z4.386
X34.778 Z4.234
X34.146 Z4.302
X33.161 Z4.306
X32.485 Z4.268
X32.12 Z4.223
X31.744 Z4.184
X31.042 Z4.144
X30.527 Z4.157
X30.018 Z4.194
X28.998 Z4.186
X28.039 Z4.116
X26.745 Z3.921
X26.332 Z3.856
X26.119 Z3.816
X25.705 Z3.785
X25.18 Z3.734
X24.923 Z3.707
X24.212 Z3.68
X23.136 Z3.688
X22.096 Z3.667
X21.703 Z3.628
X20.65 Z3.499
X19.812 Z3.381
X19.385 Z3.334
X18.229 Z3.163
X17.723 Z3.074
X16.997 Z2.935
X16.147 Z2.821
X15.768 Z2.804
X15.196 Z2.74
X13.501 Z2.678
X10.727 Z2.651
X9.165 Z2.656
X0.854 Z2.642
X0.832 Z2.647
X0.83 Z2.648
X0.808 Z2.653
X0.673
X0.641 Y0.899
X0.614 Y0.92
X0.6 Y0.95
Y0.984
X0.614 Y1.014
X0.641 Y1.034
X0.673 Y1.042
X0.695 Z2.648
X0.717 Z2.643
X8.753 Z2.655
X10.53 Z2.649
X13.739 Z2.681
X15.435 Z2.742
X15.746 Z2.774
X16.238 Z2.8
X17.088 Z2.912
X18.176 Z3.119
X19.04 Z3.249
X20.917 Z3.516
X21.875 Z3.633
X22.325 Z3.682
X23.145 Z3.707
X24.168 Z3.697
X24.924 Z3.732
X25.28 Z3.773
X25.854 Z3.829
X26.386 Z3.866
X27.222 Z3.996
X28.014 Z4.115
X28.98 Z4.19
X29.991 Z4.199
X30.308 Z4.177
X30.99 Z4.153
X31.857 Z4.206
X32.219 Z4.251
X32.422 Z4.272
X33.073 Z4.313
X33.675 Z4.315
X34.164 Z4.31
X34.755 Z4.253
X35.507 Z4.31
X36.685 Z4.411
X37.889 Z4.457
X39.803 Z4.515
X41.928 Z4.624
X42.147 Z4.619
X42.81 Z4.616
X42.972 Z4.612
X43.07 Z4.602
X43.673 Z4.65
X44.603 Z4.68
X45.641 Z4.7
X45.904 Z4.669
X46.195 Z4.679
X46.524 Z4.681
X48.11 Z4.621
X48.821 Z4.609
X49.951 Z4.638
X51.142 Z4.721
X51.625 Z4.75
X52.387 Z4.711
X52.809 Z4.676
X54.543 Z4.677
X55.145 Z4.662
X55.91 Z4.624
X56.317 Z4.59
X56.521 Z4.604
X57.011 Z4.634
X57.831 Z4.652
X58.706 Z4.678
X59.144 Z4.67
X59.36 Z4.66
X59.786 Z4.611
X60.361 Z4.535
X60.818 Z4.515
X61.529 Z4.539
X62.813 Z4.526
X63.305 Z4.509
X64.819 Z4.414
X65.46 Z4.441
X66.29 Z4.609
X68.273 Z5.071
X68.869 Z5.207
X70.125 Z5.481
X70.617 Z5.587
X71.742 Z5.745
X72.532 Z5.836
X73.452 Z5.88
X73.641 Z5.881
X75.373 Z5.911
X76.262 Z5.871
X77.055 Z5.862
X78.723 Z5.809
X79.437 Z5.824
X79.804 Z5.845
X81.22 Z5.933
X81.385 Z5.936
X83.572 Z6.029
X84.283 Z6.043
X84.304 Z6.048
X84.326 Z6.053
X84.447
X84.464 Y1.044 Z6.054
X84.48 Y1.049
X84.494 Y1.058 Z6.056
X84.506 Y1.07 Z6.057
X84.515 Y1.084 Z6.059
X84.521 Y1.1 Z6.061
X84.523 Y1.117 Z6.063
X84.521 Y1.134 Z6.065
X84.515 Y1.149 Z6.067
X84.506 Y1.164 Z6.069
X84.494 Y1.176 Z6.071
X84.48 Y1.184 Z6.072
X84.464 Y1.19
X84.447 Y1.192 Z6.073
X84.425 Z6.068
X84.404 Z6.063
X83.583 Z6.048
X81.56 Z5.964
X81.013 Z5.951
X79.815 Z5.873
X79.505 Z5.849
X78.785 Z5.839
X76.761 Z5.897
X76.214 Z5.906
X75.613 Z5.932
X75.339 Z5.933
X74.851 Z5.915
X73.324 Z5.884
X72.504 Z5.847
X71.578 Z5.737
X70.963 Z5.647
X70.563 Z5.572
X68.618 Z5.138
X66.321 Z4.605
X65.585 Z4.457
X65.261 Z4.437
X64.926 Z4.423
X62.971 Z4.537
X61.475 Z4.556
X60.75 Z4.531
X60.368 Z4.55
X59.85 Z4.617
X59.263 Z4.682
X58.777 Z4.691
X57.738 Z4.667
X56.863 Z4.639
X56.548 Z4.617
X56.373 Z4.602
X56.267 Z4.616
X55.779 Z4.656
X54.576 Z4.699
X52.799 Z4.701
X52.538 Z4.717
X52.268 Z4.736
X51.613 Z4.766
X51.076 Z4.731
X49.99 Z4.659
X48.75 Z4.629
X48.208 Z4.639
X46.62 Z4.7
X46.237 Z4.705
X45.91 Z4.691
X45.559 Z4.723
X44.083 Z4.687
X43.654 Z4.668
X43.084 Z4.627
X42.777 Z4.633
X42.064 Z4.635
X41.462 Z4.609
X39.931 Z4.536
X38.017 Z4.476
X36.704 Z4.429
X35.415 Z4.319
X34.844 Z4.274
X34.517 Z4.283
X34.208 Z4.315
X34.101 Z4.323
X33.062
X32.466 Z4.286
X32.108 Z4.249
X31.804 Z4.215
X30.882 Z4.161
X30.198 Z4.189
X29.936 Z4.205
X28.952 Z4.194
X28.009 Z4.117
X27.206 Z4
X26.722 Z3.925
X26.015 Z3.874
X25.488 Z3.824
X24.912 Z3.756
X24.483 Z3.733
X24.194 Z3.713
X23.319 Z3.728
X22.663 Z3.71
X22.252 Z3.669
X21.21 Z3.537
X18.094 Z3.06
X17.297 Z2.906
X16.499 Z2.802
X15.624 Z2.743
X13.819 Z2.682
X10.334 Z2.647
X8.34 Z2.655
X0.698 Z2.644
X0.597
X0.575 Z2.649
X0.573 Z2.65
X0.551 Z2.655
X0.447
X0.414 Y1.199
X0.388 Y1.22
X0.374 Y1.25
Y1.284
X0.388 Y1.314
X0.414 Y1.334
X0.447 Y1.342
X0.469 Z2.65
X0.491 Z2.645
X0.739 Z2.644
X7.928 Z2.654
X10.137 Z2.645
X14.047 Z2.686
X15.961 Z2.752
X16.726 Z2.802
X17.313 Z2.873
X17.934 Z2.987
X19.629 Z3.254
X20.995 Z3.464
X21.299 Z3.526
X21.553 Z3.571
X22.435 Z3.684
X23.056 Z3.741
X23.384 Z3.746
X24.143 Z3.73
X25.007 Z3.786
X25.634 Z3.868
X25.957 Z3.899
X27.141 Z3.996
X27.814 Z4.11
X28.924 Z4.198
X29.97 Z4.209
X30.855 Z4.17
X31.782 Z4.226
X32.094 Z4.26
X32.404 Z4.29
X33.038 Z4.332
X34.09 Z4.333
X34.347 Z4.31
X34.893 Z4.295
X35.339 Z4.329
X36.68 Z4.443
X37.714 Z4.486
X37.933 Z4.491
X40.066 Z4.553
X41.98 Z4.645
X43.135 Z4.648
X43.669 Z4.691
X44.161 Z4.711
X45.528 Z4.743
X45.635 Z4.738
X45.73 Z4.725
X45.932 Z4.713
X46.233 Z4.728
X46.752 Z4.718
X48.229 Z4.658
X48.663 Z4.649
X50.033 Z4.68
X51.609 Z4.782
X52.311 Z4.753
X52.57 Z4.733
X52.898 Z4.725
X54.564 Z4.72
X55.767 Z4.68
X56.307 Z4.633
X56.413 Z4.618
X56.729 Z4.644
X57.276 Z4.668
X58.971 Z4.706
X59.297 Z4.694
X59.936 Z4.619
X60.013 Z4.605
X60.122 Z4.595
X60.43 Z4.558
X60.648 Z4.548
X61.371 Z4.57
X62.957 Z4.55
X65.03 Z4.433
X65.616 Z4.457
X66.457 Z4.622
X68.952 Z5.202
X70.814 Z5.619
X71.236 Z5.694
X71.627 Z5.756
X72.512 Z5.863
X73.491 Z5.902
X74.858 Z5.932
X75.346 Z5.954
X75.565 Z5.958
X76.44 Z5.932
X78.792 Z5.869
X79.506 Z5.875
X79.925 Z5.912
X80.959 Z5.978
X81.779 Z5.992
X83.639 Z6.069
X84.4 Z6.078
X84.509 Z6.072
X84.534 Z6.077
X84.556 Z6.082
X84.648
X84.664 Y1.344
X84.68 Y1.349
X84.694 Y1.358 Z6.083
X84.706 Y1.37 Z6.084
X84.715 Y1.384
X84.721 Y1.4 Z6.085
X84.723 Y1.417 Z6.087
X84.721 Y1.434 Z6.088
X84.715 Y1.449 Z6.089
X84.706 Y1.464 Z6.09
X84.694 Y1.476
X84.68 Y1.484 Z6.091
X84.664 Y1.49
X84.648 Y1.492
X84.626 Z6.086
X84.602 Z6.081
X84.196 Z6.096
X83.512 Z6.083
X81.981 Z6.02
X80.887 Z6.003
X80.017 Z5.948
X79.489 Z5.906
X78.908 Z5.897
X75.627 Z5.982
X75.408 Z5.979
X74.811 Z5.949
X73.553 Z5.916
X73.299 Z5.907
X72.493 Z5.875
X71.77 Z5.787
X70.841 Z5.62
X69.456 Z5.307
X68.899 Z5.174
X67.98 Z4.962
X66.519 Z4.624
X65.783 Z4.48
X65.677 Z4.464
X65.123 Z4.442
X63.154 Z4.557
X61.295 Z4.586
X60.529 Z4.565
X60.254 Z4.589
X60.114 Z4.592
X59.904 Z4.635
X59.319 Z4.704
X59.213 Z4.714
X58.83 Z4.717
X56.97 Z4.672
X56.492 Z4.636
X56.452 Z4.633
X56.24 Z4.661
X55.751 Z4.699
X54.548 Z4.741
X53.143 Z4.746
X52.487 Z4.76
X52.171 Z4.776
X51.572 Z4.797
X50.105 Z4.702
X48.576 Z4.669
X48.197 Z4.68
X47.048 Z4.732
X46.282 Z4.75
X45.955 Z4.735
X45.699 Z4.745
X45.508 Z4.763
X44.236 Z4.735
X43.689 Z4.714
X43.157 Z4.669
X41.955 Z4.66
X40.648 Z4.588
X39.883 Z4.566
X38.297 Z4.516
X37.695 Z4.502
X36.604 Z4.452
X35.369 Z4.348
X34.89 Z4.317
X34.232 Z4.332
X34.082 Z4.343
X32.968 Z4.336
X32.35 Z4.295
X32.04 Z4.265
X31.673 Z4.233
X30.861 Z4.183
X29.78 Z4.215
X28.852 Z4.198
X27.616 Z4.103
X27.097 Z4.032
X25.859 Z3.922
X25.509 Z3.869
X24.922 Z3.803
X24.105 Z3.746
X23.318 Z3.76
X23.059 Z3.739
X22.523 Z3.686
X21.883 Z3.604
X21.611 Z3.559
X21.411 Z3.517
X20.992 Z3.429
X19.204 Z3.142
X17.828 Z2.923
X17.416 Z2.852
X16.827 Z2.792
X16.171 Z2.756
X14.366 Z2.694
X12.342 Z2.664
X9.901 Z2.643
X7.46 Z2.654
X0.724 Z2.645
X0.399 Z2.646
X0.377 Z2.651
X0.375 Z2.652
X0.353 Z2.657
X0.273
X0.241 Y1.499
X0.215 Y1.52
X0.2 Y1.55
Y1.584
X0.215 Y1.614
X0.241 Y1.634
X0.273 Y1.642
X0.295 Z2.652
X0.317 Z2.647
X0.764 Z2.646
X7.267 Z2.654
X9.877 Z2.642
X13.413 Z2.676
X15.272 Z2.718
X17.077 Z2.794
X17.667 Z2.854
X20.09 Z3.244
X21.041 Z3.402
X21.718 Z3.552
X22.235 Z3.64
X22.674 Z3.697
X23.139 Z3.74
X23.622 Z3.767
X24.055 Z3.763
X24.266 Z3.777
X24.915 Z3.809
X25.648 Z3.897
X25.99 Z3.964
X26.93 Z4.058
X27.344 Z4.104
X27.711 Z4.134
X27.93 Z4.141
X28.794 Z4.2
X29.833 Z4.227
X30.973 Z4.205
X31.684 Z4.247
X32.276 Z4.298
X32.805 Z4.337
X33.844 Z4.351
X34.947 Z4.337
X35.36 Z4.364
X36.444 Z4.453
X36.75 Z4.476
X37.732 Z4.521
X38.388 Z4.536
X39.919 Z4.581
X40.63 Z4.601
X41.927 Z4.679
X43.075 Z4.69
X43.716 Z4.739
X44.208 Z4.756
X45.466 Z4.782
X45.62 Z4.772
X45.977 Z4.758
X46.305 Z4.77
X47.125 Z4.751
X48.489 Z4.689
X50.221 Z4.728
X51.583 Z4.815
X52.203 Z4.793
X53.133 Z4.767
X54.479 Z4.763
X55.463 Z4.732
X56.173 Z4.687
X56.486 Z4.648
X56.857 Z4.678
X58.005 Z4.713
X59.181 Z4.73
X59.421 Z4.706
X59.951 Z4.638
X60.151 Z4.596
X60.462 Z4.583
X61.173 Z4.601
X63.087 Z4.574
X64.727 Z4.485
X65.164 Z4.452
X65.737 Z4.47
X65.949 Z4.504
X66.58 Z4.626
X68.459 Z5.061
X69.077 Z5.193
X69.992 Z5.42
X70.959 Z5.64
X71.828 Z5.796
X72.041 Z5.829
X72.505 Z5.891
X73.076 Z5.915
X73.294 Z5.911
X73.629 Z5.932
X74.777 Z5.962
X75.152 Z5.984
X75.579 Z6.008
X77.493 Z5.963
X79.13 Z5.926
X79.622 Z5.947
X80.099 Z5.984
X80.75 Z6.025
X82.172 Z6.048
X83.429 Z6.098
X83.976 Z6.111
X84.25 Z6.105
X84.683 Z6.091
X84.707 Z6.096
X84.729 Z6.101
X84.799
X84.816 Y1.644
X84.832 Y1.649 Z6.102
X84.846 Y1.658
X84.858 Y1.67 Z6.103
X84.867 Y1.684 Z6.104
X84.872 Y1.7 Z6.105
X84.874 Y1.717 Z6.106
X84.872 Y1.734 Z6.107
X84.867 Y1.749 Z6.108
X84.858 Y1.764 Z6.109
X84.846 Y1.776 Z6.11
X84.832 Y1.784
X84.816 Y1.79 Z6.111
X84.799 Y1.792
X84.777 Z6.106
X84.754 Z6.101
X84.316 Z6.11
X83.938 Z6.128
X83.391 Z6.115
X82.352 Z6.075
X80.602 Z6.046
X80.169 Z6.018
X79.141 Z5.954
X75.696 Z6.028
X75.532 Z6.024
X74.679 Z5.973
X73.694 Z5.947
X73.221 Z5.918
X72.893 Z5.921
X72.515 Z5.903
X71.957 Z5.816
X71.547 Z5.74
X71.24 Z5.691
X70.842 Z5.606
X70.248 Z5.462
X69.208 Z5.205
X68.276 Z5.004
X66.71 Z4.643
X66.185 Z4.538
X65.762 Z4.476
X65.205 Z4.463
X64.331 Z4.525
X63.128 Z4.587
X60.995 Z4.615
X60.503 Z4.602
X60.186 Z4.605
X59.92 Z4.655
X59.17 Z4.746
X57.712 Z4.715
X56.785 Z4.684
X56.527 Z4.663
X56.212 Z4.703
X55.447 Z4.752
X54.462 Z4.784
X53.123 Z4.788
X52.138 Z4.818
X51.591 Z4.834
X50.375 Z4.754
X48.511 Z4.709
X47.749 Z4.747
X46.929 Z4.778
X46.273 Z4.789
X45.91 Z4.782
X45.558 Z4.797
X45.377 Z4.8
X44.283 Z4.78
X43.683 Z4.758
X43.097 Z4.714
X42.44 Z4.702
X41.839 Z4.694
X40.488 Z4.609
X39.831 Z4.595
X38.409 Z4.555
X37.863 Z4.545
X36.771 Z4.49
X36.552 Z4.479
X35.481 Z4.388
X35.04 Z4.358
X34.057 Z4.368
X33.127 Z4.346
X32.635 Z4.336
X32.229 Z4.304
X31.636 Z4.256
X30.977 Z4.223
X29.991 Z4.241
X29.717 Z4.237
X28.733 Z4.201
X27.759 Z4.164
X27.148 Z4.117
X26.181 Z4.015
X25.571 Z3.899
X25.146 Z3.846
X24.945 Z3.813
X23.413 Z3.751
X22.779 Z3.702
X22.387 Z3.643
X21.923 Z3.564
X21.045 Z3.367
X18.645 Z2.966
X18.011 Z2.867
X17.38 Z2.799
X15.411 Z2.721
X13.442 Z2.676
X9.907 Z2.642
X6.416 Z2.652
X0.586 Z2.647
X0.246
X0.224 Z2.653
X0.223
X0.201 Z2.658
X0.141
X0.109 Y1.799
X0.083 Y1.82
X0.068 Y1.85
Y1.884
X0.083 Y1.914
X0.109 Y1.934
X0.141 Y1.942
X0.163 Z2.653
X0.185 Z2.648
X0.298
X5.895 Z2.651
X9.882 Z2.642
X13.428 Z2.675
X15.67 Z2.727
X17.694 Z2.806
X18.381 Z2.882
X20.259 Z3.19
X21.07 Z3.337
X22.134 Z3.577
X22.887 Z3.7
X23.52 Z3.75
X24.16 Z3.782
X24.918 Z3.816
X25.225 Z3.864
X25.638 Z3.921
X26.353 Z4.063
X26.972 Z4.131
X27.865 Z4.198
X28.791 Z4.228
X28.992 Z4.226
X29.867 Z4.258
X30.141 Z4.251
X31.07 Z4.237
X31.562 Z4.259
X32.464 Z4.335
X32.902 Z4.346
X33.613 Z4.376
X34.214 Z4.384
X35.072 Z4.379
X35.455 Z4.403
X36.267 Z4.469
X36.635 Z4.499
X37.891 Z4.563
X38.438 Z4.574
X39.422 Z4.601
X40.078 Z4.612
X40.625 Z4.632
X41.802 Z4.712
X42.349 Z4.72
X43.115 Z4.739
X43.648 Z4.777
X44.359 Z4.803
X45.398 Z4.821
X46.018 Z4.803
X46.346 Z4.811
X47.276 Z4.79
X48.409 Z4.729
X50.453 Z4.778
X51.519 Z4.849
X51.696
X52.128 Z4.84
X53.113 Z4.809
X54.567 Z4.805
X55.77 Z4.753
X56.358 Z4.704
X56.57 Z4.678
X56.742 Z4.692
X57.179 Z4.711
X58.929 Z4.754
X59.23 Z4.75
X59.671 Z4.697
X60.095 Z4.642
X60.2 Z4.619
X60.819 Z4.628
X62.842 Z4.606
X63.334 Z4.593
X64.537 Z4.529
X65.222 Z4.475
X65.875 Z4.486
X66.298 Z4.553
X66.824 Z4.656
X68.17 Z4.967
X68.8 Z5.097
X69.532 Z5.261
X71.211 Z5.682
X71.577 Z5.738
X71.997 Z5.818
X72.552 Z5.917
X72.819 Z5.932
X73.11 Z5.926
X73.762 Z5.962
X74.692 Z5.985
X74.949 Z6.002
X75.596 Z6.041
X75.979 Z6.046
X79.062 Z5.98
X80.554 Z6.073
X82.522 Z6.103
X83.233 Z6.127
X83.835 Z6.145
X84.268 Z6.122
X84.815 Z6.11
X84.838 Z6.115
X84.86 Z6.12
X84.912
X84.929 Y1.944 Z6.121
X84.945 Y1.949
X84.959 Y1.958 Z6.122
X84.971 Y1.97
X84.98 Y1.984 Z6.123
X84.985 Y2 Z6.124
X84.987 Y2.017 Z6.125
X84.985 Y2.034 Z6.127
X84.98 Y2.049 Z6.128
X84.971 Y2.064 Z6.129
X84.959 Y2.076
X84.945 Y2.084 Z6.13
X84.929 Y2.09
X84.912 Y2.092
X84.89 Z6.125
X84.867 Z6.12
X84.215 Z6.135
X83.723 Z6.161
X83.066 Z6.138
X80.386 Z6.093
X79.045 Z6.003
X77.685 Z6.032
X76.318 Z6.065
X75.607 Z6.055
X74.916 Z6.012
X74.659 Z5.997
X73.838 Z5.977
X73.074 Z5.931
X72.667 Z5.939
X72.398 Z5.896
X72.164 Z5.844
X71.542 Z5.726
X71.33 Z5.691
X69.688 Z5.278
X68.747 Z5.067
X67.918 Z4.894
X66.884 Z4.657
X66.358 Z4.559
X65.934 Z4.493
X65.281 Z4.483
X64.361 Z4.557
X63.267 Z4.61
X62.775 Z4.62
X60.642 Z4.642
X60.198 Z4.637
X60.055 Z4.661
X59.307 Z4.751
X58.938 Z4.766
X57.352 Z4.726
X56.696 Z4.7
X56.598 Z4.694
X55.92 Z4.761
X55.318 Z4.796
X54.388 Z4.827
X53.102 Z4.83
X52.172 Z4.861
X51.509 Z4.868
X50.655 Z4.804
X48.432 Z4.756
X47.557 Z4.805
X46.354 Z4.831
X45.949 Z4.818
X45.411 Z4.841
X44.44 Z4.828
X43.675 Z4.801
X43.142 Z4.764
X42.158 Z4.737
X41.694 Z4.726
X40.756 Z4.662
X40.264 Z4.628
X39.389 Z4.617
X38.186 Z4.588
X37.912 Z4.581
X36.492 Z4.506
X35.42 Z4.418
X35.092 Z4.4
X33.498 Z4.395
X32.305 Z4.332
X31.396 Z4.258
X30.674 Z4.252
X30.073 Z4.27
X29.854 Z4.273
X29.215 Z4.248
X28.941 Z4.266
X27.902 Z4.228
X27.162 Z4.176
X26.542 Z4.114
X25.617 Z3.929
X25.204 Z3.866
X24.887 Z3.818
X24.457 Z3.797
X23.454 Z3.736
X22.943 Z3.682
X22.305 Z3.579
X21.014 Z3.288
X19.855 Z3.075
X18.797 Z2.902
X18.062 Z2.818
X16.096 Z2.738
X13.471 Z2.676
X9.912 Z2.642
X5.373 Z2.65
X0.133 Z2.649
X0.111 Z2.654
X0.11 Z2.655
X0.088 Z2.66
X0.046
X0.014 Y2.099
X-0.012 Y2.12
X-0.027 Y2.15
Y2.184
X-0.012 Y2.214
X0.014 Y2.234
X0.046 Y2.242
X0.068 Z2.655
X0.09 Z2.65
X4.851
X9.942 Z2.642
X13.481 Z2.675
X16.489 Z2.748
X18.399 Z2.836
X19.082 Z2.908
X19.823 Z3.024
X20.982 Z3.238
X22.317 Z3.546
X22.517 Z3.585
X23.036 Z3.67
X23.713 Z3.743
X24.864 Z3.82
X25.469 Z3.914
X26.447 Z4.108
X26.791 Z4.164
X27.328 Z4.219
X27.998 Z4.261
X28.996 Z4.299
X29.403 Z4.272
X29.922 Z4.291
X30.551 Z4.265
X31.416 Z4.268
X32.356 Z4.358
X33.286 Z4.408
X35.19 Z4.421
X36.378 Z4.511
X38.016 Z4.603
X39.329 Z4.631
X40.04 Z4.641
X40.696 Z4.678
X41.65 Z4.744
X42.266 Z4.755
X43.195 Z4.79
X43.673 Z4.823
X44.493 Z4.852
X45.399 Z4.863
X45.839 Z4.818
X46.014 Z4.844
X46.396 Z4.851
X47.162 Z4.834
X47.818 Z4.822
X48.474 Z4.785
X49.15 Z4.799
X50.79 Z4.83
X51.457 Z4.884
X52.053 Z4.883
X53.092 Z4.851
X54.367 Z4.848
X55.296 Z4.816
X55.898 Z4.781
X56.099 Z4.757
X56.62 Z4.709
X57.225 Z4.733
X58.893 Z4.776
X59.276 Z4.758
X59.481 Z4.743
X60.211 Z4.651
X60.519 Z4.656
X62.926 Z4.634
X64.238 Z4.581
X65.326 Z4.493
X66.088 Z4.514
X66.933 Z4.656
X67.758 Z4.844
X68.808 Z5.06
X69.957 Z5.322
X71.449 Z5.698
X71.801 Z5.765
X72.212 Z5.831
X72.512 Z5.911
X72.661 Z5.942
X73 Z5.937
X73.892 Z5.991
X74.712 Z6.01
X75.024 Z6.038
X75.672 Z6.073
X76.601 Z6.084
X77.422 Z6.062
X78.57 Z6.029
X79.141
X79.343 Z6.051
X80.293 Z6.116
X81.852 Z6.138
X83.602 Z6.177
X84.254 Z6.141
X84.91 Z6.13
X84.933 Z6.136
X84.955 Z6.141
X84.99
X85.007 Y2.244
X85.023 Y2.249
X85.037 Y2.258 Z6.142
X85.049 Y2.27 Z6.143
X85.058 Y2.284 Z6.144
X85.064 Y2.3 Z6.145
X85.065 Y2.317 Z6.146
X85.064 Y2.334 Z6.147
X85.058 Y2.349 Z6.148
X85.049 Y2.364 Z6.149
X85.037 Y2.376 Z6.15
X85.023 Y2.384 Z6.151
X85.007 Y2.39
X84.99 Y2.392
X84.968 Z6.146
X84.945 Z6.141
X84.18 Z6.156
X83.474 Z6.194
X80.903 Z6.15
X80.141 Z6.134
X79.379 Z6.079
X79.07 Z6.051
X78.362 Z6.052
X76.83 Z6.1
X75.627 Z6.085
X75.025 Z6.052
X74.717 Z6.023
X73.951 Z6.004
X72.969 Z5.935
X72.534 Z5.894
X72.196 Z5.807
X71.621 Z5.719
X70.129 Z5.343
X68.77 Z5.033
X67.568 Z4.786
X67.114 Z4.685
X66.269 Z4.54
X66.108 Z4.524
X65.356 Z4.504
X64.169 Z4.601
X62.911 Z4.648
X60.942 Z4.666
X60.218 Z4.662
X59.467 Z4.753
X58.787 Z4.786
X56.612 Z4.723
X56.067 Z4.774
X55.759 Z4.809
X54.939 Z4.851
X54.337 Z4.869
X53.081 Z4.873
X52.152 Z4.9
X51.434 Z4.901
X50.88 Z4.854
X49.13 Z4.825
X48.517 Z4.815
X48.025 Z4.839
X47.204 Z4.851
X46.384 Z4.871
X46.001 Z4.864
X45.842 Z4.836
X45.404 Z4.885
X44.508 Z4.876
X43.639 Z4.843
X43.002 Z4.799
X42.293 Z4.772
X41.747 Z4.767
X41.315 Z4.743
X40.286 Z4.674
X39.466 Z4.651
X38.044 Z4.621
X36.405 Z4.53
X35.117 Z4.437
X33.093 Z4.422
X32.382 Z4.383
X31.346 Z4.284
X30.592 Z4.278
X29.936 Z4.306
X29.624 Z4.294
X29.071 Z4.334
X28.093 Z4.293
X27.438 Z4.256
X27.044 Z4.209
X26.406 Z4.111
X25.785 Z3.982
X25.435 Z3.906
X24.906 Z3.82
X23.962 Z3.753
X23.107 Z3.654
X22.706 Z3.587
X22.354 Z3.516
X20.867 Z3.173
X19.919 Z2.995
X19.389 Z2.916
X18.867 Z2.862
X17.011 Z2.767
X13.73 Z2.679
X9.972 Z2.642
X4.493 Z2.649
X0.055 Z2.651
X0.033 Z2.656
X0.032 Z2.657
X0.01 Z2.662
X-0.015
X-0.048 Y2.399
X-0.074 Y2.42
X-0.089 Y2.45
Y2.484
X-0.074 Y2.514
X-0.048 Y2.534
X-0.015 Y2.542
X0.007 Z2.657
X0.029 Z2.651
X3.807 Z2.648
X10.002 Z2.642
X13.515 Z2.675
X16.305 Z2.743
X17.398 Z2.784
X19.252 Z2.883
X19.894 Z2.946
X20.841 Z3.125
X22.432 Z3.497
X22.9 Z3.59
X23.196 Z3.64
X23.504 Z3.678
X24.156 Z3.761
X24.882 Z3.812
X25.516 Z3.918
X26.224 Z4.085
X26.424 Z4.122
X27.452 Z4.275
X27.971 Z4.313
X29.132 Z4.368
X29.777 Z4.321
X29.941
X30.714 Z4.292
X31.368 Z4.305
X32.405 Z4.408
X32.952 Z4.439
X35.14 Z4.457
X36.233 Z4.533
X38.072 Z4.64
X39.001 Z4.658
X40.259 Z4.697
X41.288 Z4.762
X41.72 Z4.784
X42.267 Z4.79
X42.669 Z4.799
X43.586 Z4.86
X44.512 Z4.898
X45.114 Z4.907
X45.442 Z4.902
X45.84 Z4.855
X45.989 Z4.884
X46.426 Z4.892
X47.247 Z4.868
X48.341 Z4.855
X48.559 Z4.844
X48.778 Z4.848
X50.896 Z4.877
X51.409 Z4.919
X52.251 Z4.917
X53.071 Z4.894
X54.242 Z4.891
X54.734 Z4.879
X55.719 Z4.831
X56.037 Z4.79
X56.46 Z4.749
X56.597 Z4.743
X57.222 Z4.766
X57.427 Z4.768
X58.719 Z4.796
X59.611 Z4.746
X60.219 Z4.675
X60.482 Z4.677
X62.943 Z4.662
X64.146 Z4.616
X64.732 Z4.565
X65.427 Z4.517
X65.92 Z4.533
X66.354 Z4.551
X67.199 Z4.697
X68.869 Z5.035
X70.331 Z5.371
X71.36 Z5.629
X71.711 Z5.709
X72.18 Z5.783
X72.414 Z5.843
X72.678 Z5.871
X72.984 Z5.918
X73.293 Z5.955
X74.019 Z6.016
X74.782 Z6.039
X75.09 Z6.073
X75.446 Z6.094
X77.114 Z6.108
X78.262 Z6.074
X79.053 Z6.075
X79.578 Z6.125
X80.172 Z6.159
X83.399 Z6.213
X83.837 Z6.193
X84.316 Z6.164
X84.972 Z6.152
X84.995 Z6.157
X85.017 Z6.162
X85.034
X85.051 Y2.544
X85.066 Y2.549
X85.081 Y2.558 Z6.163
X85.093 Y2.57 Z6.164
X85.102 Y2.584 Z6.165
X85.107 Y2.6 Z6.166
X85.109 Y2.617 Z6.167
X85.107 Y2.634 Z6.168
X85.102 Y2.649 Z6.17
X85.093 Y2.664 Z6.171
X85.081 Y2.675 Z6.172
X85.066 Y2.684
X85.051 Y2.69 Z6.173
X85.034 Y2.692
X85.012 Z6.168
X84.989 Z6.163
X84.332 Z6.18
X84.129 Z6.196
X83.427 Z6.234
X80.145 Z6.182
X79.609 Z6.153
X79.146 Z6.103
X78.163 Z6.095
X77.397 Z6.115
X76.276 Z6.113
X75.593 Z6.102
X75.169 Z6.096
X74.74 Z6.049
X74.086 Z6.028
X73.774 Z5.997
X73.061 Z5.91
X72.544 Z5.821
X72.33 Z5.799
X72.142 Z5.753
X71.932 Z5.722
X71.732 Z5.682
X71.115 Z5.542
X70.084 Z5.294
X68.83 Z5.008
X67.675 Z4.774
X67.357 Z4.725
X66.418 Z4.56
X65.543 Z4.529
X64.894 Z4.562
X64.414 Z4.604
X64.24 Z4.625
X62.955 Z4.676
X60.439 Z4.688
X60.194 Z4.691
X59.562 Z4.756
X58.634 Z4.806
X57.705 Z4.789
X57.18 Z4.791
X56.587 Z4.764
X56.526 Z4.757
X55.998 Z4.808
X55.626 Z4.856
X54.315 Z4.912
X53.061 Z4.915
X52.404 Z4.934
X51.385 Z4.937
X50.896 Z4.896
X48.339 Z4.873
X47.245 Z4.886
X46.425 Z4.913
X45.987 Z4.905
X45.839 Z4.873
X45.533 Z4.915
X45.29 Z4.931
X44.552 Z4.922
X43.577 Z4.881
X42.63 Z4.813
X42.24 Z4.807
X41.747 Z4.804
X41.261 Z4.781
X40.068 Z4.714
X38.756 Z4.673
X38.099 Z4.658
X36.471 Z4.567
X35.168 Z4.476
X32.741 Z4.453
X32.371 Z4.427
X31.323 Z4.323
X30.779 Z4.314
X30.053 Z4.339
X29.196 Z4.402
X28.661 Z4.373
X27.683 Z4.304
X27.231 Z4.25
X26.498 Z4.137
X26.238 Z4.086
X25.624 Z3.935
X24.885 Z3.809
X24.341 Z3.767
X23.3 Z3.629
X22.584 Z3.495
X20.832 Z3.08
X20.201 Z2.96
X19.665 Z2.906
X17.535 Z2.79
X16.332 Z2.744
X13.488 Z2.675
X9.977 Z2.642
X3.668 Z2.648
X0.011 Z2.652
X-0.01 Z2.657
X-0.012 Z2.658
X-0.034 Z2.663
X-0.043
X-0.075 Y2.699
X-0.101 Y2.72
X-0.116 Y2.75
Y2.784
X-0.101 Y2.814
X-0.075 Y2.834
X-0.043 Y2.842
X-0.021 Z2.658
X0.001 Z2.653
X10.062 Z2.642
X13.507 Z2.675
X16.296 Z2.743
X17.5 Z2.788
X19.465 Z2.894
X20.549 Z2.982
X20.87 Z3.045
X22.586 Z3.459
X23.413 Z3.619
X24.482 Z3.768
X24.797 Z3.795
X25.642 Z3.937
X26.152 Z4.061
X26.762 Z4.18
X27.142 Z4.244
X27.674 Z4.306
X28.136 Z4.352
X28.949 Z4.414
X29.264 Z4.437
X29.362 Z4.433
X29.881 Z4.398
X30.165 Z4.361
X30.876 Z4.336
X31.264 Z4.34
X32.516 Z4.464
X33.5 Z4.497
X33.924 Z4.484
X35.196 Z4.496
X36.608 Z4.593
X38.127 Z4.676
X38.51 Z4.687
X40.041 Z4.737
X41.392 Z4.81
X41.666 Z4.82
X42.596 Z4.827
X43.138 Z4.868
X43.66 Z4.91
X44.535 Z4.944
X45.191 Z4.954
X45.49 Z4.94
X45.833 Z4.893
X46.004 Z4.929
X46.493 Z4.936
X47.259 Z4.904
X48.352 Z4.89
X48.583 Z4.897
X49.13 Z4.905
X50.872 Z4.915
X51.361 Z4.955
X52.504 Z4.951
X53.05 Z4.936
X54.284 Z4.933
X55.542 Z4.88
X55.967 Z4.824
X56.484 Z4.774
X56.595 Z4.787
X57.138 Z4.815
X57.357 Z4.814
X58.517 Z4.815
X59.501 Z4.766
X60.136 Z4.709
X60.451 Z4.699
X62.912 Z4.69
X64.278 Z4.638
X64.532 Z4.603
X65.122 Z4.563
X65.664 Z4.541
X66.591 Z4.584
X67.318 Z4.717
X67.954 Z4.814
X68.899 Z5.003
X70.571 Z5.389
X71.804 Z5.666
X72.274 Z5.758
X73.183 Z5.909
X73.444 Z5.941
X74.155 Z6.04
X74.593 Z6.056
X74.799 Z6.068
X75.329 Z6.103
X75.822 Z6.109
X76.642 Z6.126
X78.064 Z6.117
X79.048 Z6.123
X79.669 Z6.181
X80.101 Z6.204
X83.409 Z6.255
X84.084 Z6.217
X84.342 Z6.196
X84.999 Z6.174
X85.022 Z6.179
X85.044 Z6.184
X85.054
X85.071 Y2.844
X85.086 Y2.849
X85.101 Y2.858 Z6.185
X85.113 Y2.87 Z6.186
X85.122 Y2.884 Z6.187
X85.127 Y2.9 Z6.188
X85.129 Y2.917 Z6.19
X85.127 Y2.934 Z6.191
X85.122 Y2.949 Z6.192
X85.113 Y2.964 Z6.193
X85.101 Y2.975 Z6.194
X85.086 Y2.984 Z6.195
X85.071 Y2.99
X85.054 Y2.992
X85.032 Z6.19
X85.008 Z6.185
X84.449 Z6.203
X84.084 Z6.236
X83.382 Z6.275
X80.483 Z6.236
X79.882 Z6.218
X79.247 Z6.162
X78.99 Z6.146
X78.134 Z6.13
X76.781 Z6.135
X76.015 Z6.115
X75.632 Z6.107
X74.544 Z6.051
X74.271 Z6.04
X73.877 Z5.99
X73.262 Z5.901
X72.072 Z5.693
X70.908 Z5.435
X70.342 Z5.316
X68.848 Z4.974
X68.323 Z4.869
X67.369 Z4.725
X66.641 Z4.596
X66.261 Z4.571
X65.769 Z4.554
X65.132 Z4.577
X64.542 Z4.619
X64.314 Z4.65
X62.919 Z4.704
X60.47 Z4.71
X59.86 Z4.74
X59.494 Z4.772
X58.466 Z4.831
X57.26 Z4.838
X56.987 Z4.833
X56.558 Z4.805
X56.441 Z4.79
X55.914 Z4.843
X55.436 Z4.906
X54.289 Z4.954
X53.04 Z4.957
X52.602 Z4.968
X51.474 Z4.974
X51.31 Z4.97
X50.955 Z4.936
X50 Z4.941
X48.688 Z4.927
X48.365 Z4.906
X47.326 Z4.921
X46.506 Z4.958
X46.009 Z4.951
X45.832 Z4.915
X45.488 Z4.961
X45.188 Z4.977
X44.532 Z4.967
X43.534 Z4.923
X42.717 Z4.85
X42.35 Z4.84
X41.748 Z4.839
X41.204 Z4.821
X40.003 Z4.76
X38.253 Z4.7
X36.734 Z4.618
X35.485 Z4.53
X35.103 Z4.513
X34.048 Z4.503
X33.895 Z4.518
X33.348 Z4.53
X32.589 Z4.5
X31.144 Z4.354
X30.255 Z4.383
X30.15 Z4.402
X29.778 Z4.45
X29.411 Z4.464
X29.179 Z4.452
X28.439 Z4.385
X28.028 Z4.349
X27.209 Z4.253
X27.103 Z4.238
X26.387 Z4.102
X26.025 Z4.026
X25.677 Z3.941
X24.779 Z3.788
X24.027 Z3.684
X23.603 Z3.621
X22.665 Z3.44
X20.9 Z3.011
X19.438 Z2.892
X17.527 Z2.788
X16.269 Z2.742
X13.48 Z2.674
X10.008 Z2.642
X-0.008 Z2.654
X-0.03 Z2.659
X-0.032 Z2.66
X-0.054 Z2.665
X-0.086 Y2.999
X-0.112 Y3.02
X-0.127 Y3.05
Y3.084
X-0.112 Y3.114
X-0.086 Y3.134
X-0.054 Y3.142
X-0.053
X-0.031 Z2.66
X-0.009 Z2.655
X10.079 Z2.642
X13.525 Z2.675
X16.314 Z2.743
X17.626 Z2.792
X19.646 Z2.904
X21.163 Z3.037
X22.517 Z3.365
X22.82 Z3.437
X23.651 Z3.599
X24.605 Z3.74
X24.962 Z3.812
X25.637 Z3.932
X25.939 Z4
X26.464 Z4.11
X27.074 Z4.227
X28.212 Z4.372
X29.26 Z4.477
X29.479 Z4.482
X29.86 Z4.48
X30.125 Z4.444
X30.336 Z4.406
X31.149 Z4.377
X31.801 Z4.441
X32.43 Z4.515
X32.634 Z4.536
X33.227 Z4.565
X34.006 Z4.545
X34.149 Z4.525
X35.131 Z4.532
X35.514 Z4.55
X36.871 Z4.644
X37.9 Z4.7
X39.486 Z4.765
X40.744 Z4.819
X41.475 Z4.855
X41.831 Z4.859
X42.49 Z4.857
X42.818 Z4.875
X43.607 Z4.948
X44.53 Z4.989
X45.187 Z5
X45.515 Z4.979
X45.831 Z4.936
X46.027 Z4.975
X46.519 Z4.98
X47.504 Z4.936
X48.269 Z4.924
X48.776 Z4.956
X50.198 Z4.97
X50.909 Z4.957
X51.299 Z4.989
X52.373 Z4.984
X53.03 Z4.979
X54.35 Z4.974
X55.388 Z4.928
X55.907 Z4.856
X56.329 Z4.814
X56.561 Z4.831
X56.986 Z4.861
X57.369 Z4.858
X58.408 Z4.848
X58.736 Z4.825
X59.491 Z4.777
X59.802 Z4.751
X60.358 Z4.726
X60.741 Z4.723
X62.984 Z4.718
X64.351 Z4.662
X64.552 Z4.635
X65.142 Z4.592
X65.936 Z4.564
X66.48 Z4.589
X66.905 Z4.64
X67.316 Z4.715
X68.799 Z4.944
X69.624 Z5.131
X70.557 Z5.333
X70.956 Z5.411
X71.898 Z5.618
X72.401 Z5.726
X73.388 Z5.9
X74.168 Z6.005
X74.482 Z6.034
X75.943 Z6.112
X76.872 Z6.139
X78.076 Z6.127
X78.189 Z6.137
X79.064 Z6.169
X79.987 Z6.247
X81.013 Z6.267
X83.364 Z6.296
X84.067 Z6.255
X84.484 Z6.217
X85.009 Z6.204
X85.032 Z6.209
X85.054 Z6.214
X85.071 Y3.144
X85.087 Y3.149 Z6.215
X85.101 Y3.158 Z6.216
X85.113 Y3.17 Z6.217
X85.122 Y3.184 Z6.219
X85.128 Y3.2 Z6.221
X85.13 Y3.217 Z6.223
X85.128 Y3.234 Z6.225
X85.122 Y3.249 Z6.227
X85.113 Y3.264 Z6.229
X85.101 Y3.275 Z6.23
X85.087 Y3.284 Z6.231
X85.071 Y3.29 Z6.232
X85.054 Y3.292
X85.032 Z6.227
X85.009 Z6.222
X84.685 Z6.223
X84.317 Z6.251
X84.103 Z6.271
X83.348 Z6.317
X81.106 Z6.291
X80.067 Z6.273
X78.983 Z6.173
X78.273 Z6.144
X78.058 Z6.126
X77.019 Z6.136
X76.308 Z6.119
X74.782 Z6.036
X74.145 Z5.977
X73.518 Z5.893
X73.116 Z5.826
X72.541 Z5.722
X71.887 Z5.58
X70.84 Z5.355
X70.534 Z5.3
X68.994 Z4.967
X67.331 Z4.717
X67.025 Z4.666
X66.386 Z4.591
X66.061 Z4.576
X65.201 Z4.603
X64.562 Z4.651
X64.467 Z4.666
X64.307 Z4.678
X63.049 Z4.728
X61.34 Z4.731
X60.465 Z4.735
X59.689 Z4.767
X58.346 Z4.865
X57.416 Z4.877
X56.924 Z4.884
X56.499 Z4.853
X56.403 Z4.843
X56.174 Z4.841
X55.755 Z4.889
X55.447 Z4.936
X55.245 Z4.956
X54.37 Z4.994
X53.053 Z5.001
X51.559 Z5.007
X51.285 Z5.008
X50.972 Z4.987
X50.399 Z4.996
X48.868 Z4.985
X48.108 Z4.942
X47.572 Z4.956
X46.532 Z5.003
X46.04 Z4.997
X45.891 Z4.971
X45.822 Z4.958
X45.508 Z5
X45.125 Z5.022
X44.524 Z5.011
X43.649 Z4.973
X42.976 Z4.904
X42.484 Z4.874
X41.815 Z4.876
X41.651 Z4.873
X41.416 Z4.879
X39.996 Z4.808
X38.191 Z4.734
X36.998 Z4.67
X35.476 Z4.565
X34.82 Z4.545
X34.261 Z4.544
X34.067 Z4.573
X33.14 Z4.599
X32.757 Z4.58
X32.445 Z4.549
X31.509 Z4.435
X31.118 Z4.405
X30.417 Z4.43
X30.313 Z4.454
X29.996 Z4.5
X29.78 Z4.504
X29.26 Z4.494
X28.721 Z4.437
X27.042 Z4.214
X26.537 Z4.117
X25.86 Z3.977
X25.429 Z3.895
X24.491 Z3.696
X23.644 Z3.568
X22.953 Z3.429
X21.898 Z3.175
X21.387 Z3.058
X20.566 Z2.98
X19.366 Z2.886
X17.51 Z2.786
X16.197 Z2.74
X13.517 Z2.674
X10.072 Z2.642
X-0.009 Z2.655
X-0.031 Z2.66
X-0.033 Z2.661
X-0.055 Z2.666
X-0.087 Y3.299
X-0.113 Y3.32
X-0.128 Y3.35
Y3.384
X-0.113 Y3.414
X-0.087 Y3.434
X-0.055 Y3.442
X-0.054
X-0.032 Z2.661
X-0.01 Z2.656
X10.118 Z2.643
X13.508 Z2.674
X16.298 Z2.742
X17.61 Z2.791
X19.302 Z2.882
X20.884 Z3.006
X21.689 Z3.088
X23.213 Z3.448
X23.693 Z3.545
X24.224 Z3.626
X25.376 Z3.871
X26.406 Z4.083
X27.015 Z4.203
X27.866 Z4.313
X28.915 Z4.466
X29.257 Z4.51
X30.077 Z4.524
X30.289 Z4.497
X30.498 Z4.454
X31.087 Z4.432
X31.307 Z4.443
X31.725 Z4.487
X32.458 Z4.584
X32.877 Z4.623
X33.151 Z4.636
X33.888 Z4.615
X34.173 Z4.585
X34.37 Z4.562
X35.281 Z4.573
X35.982 Z4.617
X37.131 Z4.696
X38.16 Z4.752
X40.511 Z4.854
X41.111 Z4.882
X41.462 Z4.906
X41.765 Z4.895
X42.147
X42.745 Z4.905
X43.22 Z4.948
X43.69 Z4.998
X44.51 Z5.033
X45.057 Z5.045
X45.331 Z5.033
X45.601 Z5.011
X45.813 Z4.98
X45.999 Z5.015
X46.546 Z5.025
X48.035 Z4.959
X48.905 Z5.01
X50.163 Z5.025
X50.655 Z5.015
X51.233 Z5.023
X51.506 Z5.025
X54.38 Z5.014
X55.158 Z4.981
X55.412 Z4.957
X55.507 Z4.941
X56.009 Z4.87
X56.282 Z4.869
X56.908 Z4.909
X57.236 Z4.899
X58.276 Z4.882
X59.576 Z4.782
X60.462 Z4.75
X61.501 Z4.739
X63.113 Z4.738
X64.316 Z4.692
X64.525 Z4.675
X65.211 Z4.617
X66.159 Z4.589
X66.374 Z4.602
X67.416 Z4.729
X69.177 Z4.98
X70.471 Z5.257
X70.836 Z5.32
X71.988 Z5.567
X72.805 Z5.743
X73.227 Z5.819
X73.64 Z5.884
X74.15 Z5.954
X74.992 Z6.029
X76.618 Z6.122
X77.11 Z6.133
X78.04 Z6.125
X78.386 Z6.155
X79.041 Z6.183
X79.898 Z6.267
X80.158 Z6.287
X81.361 Z6.316
X83.33 Z6.337
X83.978 Z6.298
X84.667 Z6.238
X85.01 Z6.241
X85.032 Z6.246
X85.054 Z6.251
X85.07 Y3.444
X85.086 Y3.449 Z6.252
X85.101 Y3.458 Z6.253
X85.113 Y3.47 Z6.254
X85.122 Y3.484 Z6.256
X85.127 Y3.5 Z6.258
X85.129 Y3.517 Z6.26
X85.127 Y3.534 Z6.262
X85.122 Y3.549 Z6.264
X85.113 Y3.564 Z6.266
X85.101 Y3.575 Z6.267
X85.086 Y3.584 Z6.268
X85.07 Y3.59 Z6.269
X85.054 Y3.592
X85.053
X85.031 Z6.264
X85.01 Z6.259
X84.682 Z6.252
X83.962 Z6.317
X83.333 Z6.358
X82.102 Z6.345
X80.516 Z6.306
X79.915 Z6.275
X78.905 Z6.184
X78.522 Z6.167
X77.991 Z6.125
X77.257 Z6.13
X76.819 Z6.118
X75.196 Z6.022
X74.232 Z5.938
X73.875 Z5.892
X73.308 Z5.806
X73.002 Z5.75
X72.08 Z5.552
X70.822 Z5.287
X70.316 Z5.195
X69.384 Z4.996
X67.474 Z4.729
X67.161 Z4.7
X66.271 Z4.6
X65.177 Z4.635
X64.385 Z4.703
X63.236 Z4.748
X61.663
X60.503 Z4.761
X59.519 Z4.795
X58.251 Z4.899
X57.13 Z4.918
X56.857 Z4.924
X56.483 Z4.906
X56.264 Z4.897
X55.88 Z4.896
X55.305 Z4.986
X55.037 Z5.008
X54.381 Z5.034
X51.631 Z5.042
X51.194 Z5.045
X50.593 Z5.044
X50.101 Z5.052
X49.007 Z5.04
X48.052 Z4.98
X46.575 Z5.047
X46.028 Z5.04
X45.818 Z4.999
X45.607 Z5.031
X45.282 Z5.057
X45.008 Z5.068
X44.461 Z5.054
X43.696 Z5.019
X43.226 Z4.967
X42.86 Z4.932
X41.904 Z4.915
X41.496 Z4.931
X41.127 Z4.903
X37.848 Z4.756
X37.205 Z4.717
X36.057 Z4.637
X35.309 Z4.593
X34.479 Z4.58
X34.053 Z4.619
X33.785 Z4.654
X33.143 Z4.672
X32.979 Z4.664
X32.405 Z4.609
X31.942 Z4.549
X31.53 Z4.489
X31.056 Z4.46
X30.58 Z4.477
X30.291 Z4.535
X30.131 Z4.546
X29.393 Z4.532
X29.198 Z4.508
X28.255 Z4.364
X26.98 Z4.19
X25.773 Z3.944
X24.224 Z3.608
X23.828 Z3.538
X23.471 Z3.467
X22.066 Z3.143
X21.855 Z3.109
X21.001 Z3.018
X19.313 Z2.882
X17.621 Z2.791
X16.254 Z2.741
X13.52 Z2.674
X10.184 Z2.643
X-0.01 Z2.657
X-0.032 Z2.662
X-0.033 Z2.663
X-0.055 Z2.668
X-0.088 Y3.599
X-0.114 Y3.62
X-0.129 Y3.65
Y3.684
X-0.114 Y3.714
X-0.088 Y3.734
X-0.055 Y3.742
X-0.054
X-0.032 Z2.663
X-0.01 Z2.658
X10.221 Z2.643
X13.557 Z2.674
X16.291 Z2.742
X17.658 Z2.792
X19.299 Z2.88
X21.031 Z3.027
X22.205 Z3.152
X23.765 Z3.496
X24.489 Z3.645
X25.733 Z3.924
X26.96 Z4.18
X28.235 Z4.358
X29.177 Z4.501
X29.582 Z4.552
X30.238 Z4.567
X30.393 Z4.559
X30.661 Z4.501
X30.97 Z4.49
X31.515 Z4.514
X32.045 Z4.592
X32.389 Z4.64
X33.126 Z4.708
X33.726 Z4.689
X34.033 Z4.643
X34.562 Z4.599
X35.301 Z4.611
X36.111 Z4.656
X37.578 Z4.761
X41.133 Z4.925
X41.547 Z4.958
X41.967 Z4.939
X43.006 Z4.961
X43.262 Z4.989
X43.721 Z5.042
X44.487 Z5.078
X45.034 Z5.091
X45.471 Z5.064
X45.632 Z5.049
X45.811 Z5.02
X46.016 Z5.06
X46.618 Z5.07
X48.079 Z5.004
X49.096 Z5.069
X50.354 Z5.078
X50.737 Z5.059
X51.288 Z5.069
X51.945 Z5.056
X53.097 Z5.059
X54.41 Z5.054
X54.957 Z5.033
X55.279 Z5.005
X55.48 Z4.974
X55.892 Z4.913
X56.798 Z4.938
X57.564 Z4.926
X58.206 Z4.91
X59.461 Z4.807
X60.445 Z4.776
X61.769 Z4.757
X63.322 Z4.758
X64.416 Z4.715
X65.264 Z4.644
X66.334 Z4.616
X67.08 Z4.695
X67.723 Z4.753
X68.23 Z4.816
X69.608 Z5.016
X70.132 Z5.127
X71.048 Z5.303
X72.097 Z5.52
X73.218 Z5.761
X73.456 Z5.801
X74.204 Z5.911
X75.397 Z6.014
X77.02 Z6.114
X77.348 Z6.126
X77.949 Z6.124
X78.491 Z6.165
X78.86 Z6.189
X79.872 Z6.278
X80.857 Z6.325
X81.732 Z6.346
X82.388 Z6.369
X83.318 Z6.379
X83.865 Z6.344
X84.658 Z6.269
X85.01 Z6.277
X85.031 Z6.283
X85.053 Z6.288
X85.07 Y3.744
X85.086 Y3.749 Z6.289
X85.1 Y3.758 Z6.29
X85.112 Y3.77 Z6.291
X85.121 Y3.784 Z6.293
X85.127 Y3.8 Z6.295
X85.129 Y3.817 Z6.297
X85.127 Y3.834 Z6.299
X85.121 Y3.849 Z6.301
X85.112 Y3.864 Z6.303
X85.1 Y3.875 Z6.304
X85.086 Y3.884 Z6.305
X85.07 Y3.89 Z6.306
X85.053 Y3.892
X85.031 Z6.301
X85.01 Z6.296
X84.572 Z6.29
X83.672 Z6.377
X83.289 Z6.399
X82.633 Z6.391
X81.867 Z6.36
X81.101 Z6.34
X79.74 Z6.273
X77.962 Z6.123
X77.413 Z6.122
X75.598 Z6.006
X74.249 Z5.885
X73.857 Z5.827
X73.327 Z5.74
X72.917 Z5.662
X71.47 Z5.357
X70.112 Z5.094
X69.703 Z5.015
X68.536 Z4.844
X68.057 Z4.782
X66.962 Z4.686
X66.536 Z4.638
X66.117 Z4.631
X65.351 Z4.654
X64.504 Z4.725
X63.41 Z4.768
X61.884 Z4.767
X60.353 Z4.789
X59.368 Z4.822
X58.236 Z4.914
X57.361 Z4.946
X56.814 Z4.955
X56.24 Z4.942
X55.991 Z4.92
X55.884 Z4.934
X55.669 Z4.955
X55.241 Z5.026
X54.946 Z5.053
X54.456 Z5.074
X53.088 Z5.082
X52.313 Z5.072
X51.602 Z5.088
X51.328 Z5.092
X50.836 Z5.077
X50.648 Z5.087
X50.541 Z5.097
X50.16 Z5.107
X49.176 Z5.098
X48.137 Z5.029
X46.606 Z5.092
X46.004 Z5.081
X45.804 Z5.041
X45.54 Z5.08
X44.995 Z5.114
X44.338 Z5.094
X43.737 Z5.064
X43.428 Z5.03
X43.12 Z4.989
X42.3 Z4.973
X41.917 Z4.97
X41.576 Z4.983
X41.101 Z4.944
X39.789 Z4.888
X37.711 Z4.787
X36.135 Z4.674
X35.269 Z4.63
X34.638 Z4.616
X34.036 Z4.664
X33.621 Z4.726
X33.076 Z4.734
X32.405 Z4.675
X31.579 Z4.546
X30.993 Z4.516
X30.743 Z4.525
X30.533 Z4.57
X30.318 Z4.584
X29.826 Z4.576
X29.155 Z4.493
X28.105 Z4.338
X27.255 Z4.219
X26.949 Z4.167
X25.827 Z3.933
X25.419 Z3.841
X24.374 Z3.604
X23.86 Z3.498
X22.405 Z3.178
X20.802 Z3.014
X19.191 Z2.875
X17.769 Z2.797
X16.347 Z2.743
X13.558 Z2.674
X10.222 Z2.643
X-0.01 Z2.658
X-0.032 Z2.663
X-0.033 Z2.664
X-0.055 Z2.669
X-0.088 Y3.899
X-0.114 Y3.92
X-0.129 Y3.95
Y3.984
X-0.114 Y4.014
X-0.088 Y4.034
X-0.055 Y4.042
X-0.054
X-0.032 Z2.664
X-0.01 Z2.659
X10.263 Z2.643
X13.6 Z2.675
X16.389 Z2.744
X17.92 Z2.803
X19.123 Z2.874
X20.721 Z3.013
X22.646 Z3.208
X23.922 Z3.492
X24.33 Z3.578
X25.479 Z3.845
X26.296 Z4.023
X27.01 Z4.167
X27.528 Z4.253
X27.953 Z4.314
X29.109 Z4.482
X30.043 Z4.598
X30.652 Z4.582
X30.798 Z4.554
X30.962 Z4.543
X31.511 Z4.568
X32.41 Z4.7
X33.009 Z4.753
X33.283 Z4.752
X33.663 Z4.739
X34.024 Z4.687
X34.644 Z4.64
X35.355 Z4.651
X35.957 Z4.681
X37.796 Z4.81
X40.093 Z4.926
X41.133 Z4.967
X41.605 Z5.007
X41.917 Z4.997
X42.3 Z5
X43.229 Z5.025
X43.728 Z5.084
X44.275 Z5.113
X44.986 Z5.137
X45.559 Z5.099
X45.797 Z5.061
X46.047 Z5.106
X46.758 Z5.112
X48.173 Z5.053
X49.253 Z5.126
X50.21 Z5.135
X50.454 Z5.125
X50.767 Z5.096
X50.876
X51.396 Z5.117
X52.244 Z5.09
X53.106 Z5.106
X54.309 Z5.095
X54.747 Z5.085
X55.124 Z5.053
X55.336 Z5.025
X55.631 Z4.973
X55.794 Z4.962
X55.953 Z4.945
X56.147 Z4.963
X56.861 Z4.972
X57.812 Z4.942
X58.358 Z4.912
X59.327 Z4.833
X60.038 Z4.808
X61.569 Z4.782
X63.496 Z4.778
X64.535 Z4.737
X65.438 Z4.664
X66.184 Z4.642
X66.619 Z4.651
X67.144 Z4.708
X67.9 Z4.771
X68.431 Z4.814
X68.855 Z4.874
X70.021 Z5.05
X71.694 Z5.372
X72.664 Z5.573
X73.438 Z5.719
X73.85 Z5.788
X74.158 Z5.831
X74.766 Z5.9
X76.206 Z6.025
X77.586 Z6.117
X77.969 Z6.122
X79.92 Z6.282
X81.277 Z6.351
X81.934 Z6.372
X82.863 Z6.412
X83.356 Z6.419
X83.627 Z6.398
X84.151 Z6.344
X84.571 Z6.309
X85.01 Z6.314
X85.031 Z6.319
X85.053 Z6.325
X85.07 Y4.044
X85.086 Y4.049
X85.101 Y4.058 Z6.327
X85.113 Y4.07 Z6.328
X85.122 Y4.084 Z6.33
X85.127 Y4.1 Z6.332
X85.129 Y4.117 Z6.334
X85.127 Y4.134 Z6.336
X85.122 Y4.149 Z6.338
X85.113 Y4.164 Z6.34
X85.101 Y4.175 Z6.341
X85.086 Y4.184 Z6.342
X85.07 Y4.19 Z6.343
X85.053 Y4.192
X85.031 Z6.338
X85.01 Z6.333
X84.58 Z6.328
X84.265 Z6.346
X83.742 Z6.401
X83.307 Z6.441
X82.001 Z6.384
X81.235 Z6.352
X80.157 Z6.293
X77.884 Z6.119
X77.05 Z6.061
X75.534 Z5.936
X74.91 Z5.876
X74.08 Z5.778
X73.677 Z5.722
X72.423 Z5.487
X70.235 Z5.06
X69.822 Z5.002
X68.762 Z4.846
X68.015 Z4.783
X67.206 Z4.714
X66.837 Z4.68
X66.624 Z4.665
X65.948 Z4.66
X65.511 Z4.674
X64.607 Z4.747
X63.568 Z4.788
X61.418 Z4.795
X59.723 Z4.827
X59.285 Z4.844
X58.425 Z4.914
X57.878 Z4.949
X56.73 Z4.989
X56.073 Z4.986
X55.91 Z4.971
X55.736 Z4.986
X55.572 Z4.994
X55.317 Z5.035
X54.893 Z5.091
X54.623 Z5.111
X53.146 Z5.131
X52.381 Z5.116
X51.454 Z5.141
X50.798 Z5.113
X50.368 Z5.154
X50.206 Z5.162
X49.304 Z5.152
X48.19 Z5.078
X47.074 Z5.12
X46.637 Z5.136
X46.01 Z5.126
X45.79 Z5.082
X45.552 Z5.122
X44.925 Z5.159
X43.831 Z5.114
X43.626 Z5.093
X43.369 Z5.064
X42.877 Z5.041
X41.892 Z5.026
X41.64 Z5.033
X41.107 Z4.987
X40.232 Z4.956
X37.88 Z4.845
X36.967 Z4.771
X35.719 Z4.687
X34.703 Z4.66
X34.002 Z4.712
X33.852 Z4.734
X33.639 Z4.758
X33.478 Z4.766
X32.931 Z4.771
X32.472 Z4.731
X31.615 Z4.603
X30.896 Z4.574
X30.715 Z4.595
X30.1 Z4.604
X28.968 Z4.457
X27.812 Z4.29
X27.082 Z4.17
X26.378 Z4.029
X25.445 Z3.827
X24.005 Z3.492
X22.855 Z3.236
X20.652 Z3.013
X19.045 Z2.872
X17.951 Z2.804
X16.365 Z2.744
X13.63 Z2.675
X10.294 Z2.643
X-0.01 Z2.66
X-0.032 Z2.665
X-0.033 Z2.666
X-0.055 Z2.671
X-0.088 Y4.199
X-0.114 Y4.22
X-0.129 Y4.25
Y4.284
X-0.114 Y4.314
X-0.088 Y4.334
X-0.055 Y4.342
X-0.054
X-0.032 Z2.666
X-0.01 Z2.66
X2.541 Z2.656
X10.338 Z2.644
X13.619 Z2.675
X16.354 Z2.743
X17.775 Z2.796
X18.979 Z2.871
X20.478 Z3.003
X22.799 Z3.236
X23.117 Z3.282
X23.64 Z3.397
X25.404 Z3.808
X26.452 Z4.034
X27.062 Z4.154
X28.014 Z4.313
X28.936 Z4.449
X30.153 Z4.609
X30.865 Z4.601
X31.158 Z4.607
X31.647 Z4.628
X32.532 Z4.761
X32.868 Z4.791
X33.538 Z4.782
X33.977 Z4.736
X34.736 Z4.682
X35.808 Z4.713
X37.274 Z4.816
X37.857 Z4.869
X38.13 Z4.88
X40.318 Z4.984
X41.083 Z5.007
X41.679 Z5.059
X41.881 Z5.054
X42.774 Z5.066
X43.43 Z5.097
X43.781 Z5.13
X44.869 Z5.182
X45.516 Z5.149
X45.772 Z5.105
X46.047 Z5.157
X46.679 Z5.159
X47.5 Z5.125
X48.232 Z5.102
X49.367 Z5.183
X50.187 Z5.19
X50.294 Z5.184
X50.791 Z5.133
X51.474 Z5.163
X51.856 Z5.157
X52.586 Z5.143
X53.133 Z5.154
X54.555 Z5.135
X54.689 Z5.127
X55.454 Z5.024
X55.61 Z5.011
X55.866 Z4.997
X55.977 Z5.007
X56.524 Z5.011
X57.891 Z4.957
X59.408 Z4.846
X61.268 Z4.809
X63.692 Z4.798
X64.677 Z4.756
X65.208 Z4.713
X65.8 Z4.676
X66.76 Z4.683
X67.348 Z4.725
X68.317 Z4.813
X69.066 Z4.874
X69.797 Z4.983
X70.329 Z5.053
X71.78 Z5.333
X73.704 Z5.687
X74.177 Z5.748
X74.912 Z5.835
X75.638 Z5.912
X77.63 Z6.076
X78.185 Z6.13
X80.062 Z6.279
X81.079 Z6.345
X82.688 Z6.423
X83.428 Z6.446
X83.856 Z6.405
X84.262 Z6.359
X84.59 Z6.347
X85.01 Z6.351
X85.031 Z6.356
X85.053 Z6.361
X85.07 Y4.344 Z6.362
X85.086 Y4.349
X85.101 Y4.358 Z6.364
X85.113 Y4.37 Z6.365
X85.122 Y4.384 Z6.367
X85.127 Y4.4 Z6.369
X85.129 Y4.417 Z6.371
X85.127 Y4.434 Z6.373
X85.122 Y4.449 Z6.375
X85.113 Y4.464 Z6.376
X85.101 Y4.475 Z6.378
X85.086 Y4.484 Z6.379
X85.07 Y4.49 Z6.38
X85.053 Y4.492
X85.031 Z6.375
X85.01 Z6.37
X84.599 Z6.365
X84.162 Z6.385
X83.853 Z6.419
X83.532 Z6.449
X82.266 Z6.408
X80.015 Z6.269
X78.762 Z6.167
X77.943 Z6.069
X75.776 Z5.891
X74.537 Z5.75
X73.686 Z5.643
X72.748 Z5.469
X72.536 Z5.441
X70.976 Z5.15
X70.461 Z5.052
X69.621 Z4.939
X69.314 Z4.894
X68.267 Z4.808
X67.408 Z4.731
X66.889 Z4.7
X65.756 Z4.689
X64.746 Z4.766
X63.707 Z4.81
X61.171 Z4.822
X60.077 Z4.842
X59.202 Z4.866
X58.396 Z4.928
X57.806 Z4.97
X56.274 Z5.032
X55.864 Z5.026
X55.536 Z5.035
X55.317 Z5.054
X54.596 Z5.153
X53.177 Z5.179
X52.739 Z5.172
X52.04 Z5.19
X51.493 Z5.189
X50.815 Z5.157
X50.348 Z5.208
X50.187 Z5.217
X49.322 Z5.207
X48.308 Z5.126
X47.706 Z5.141
X46.722 Z5.181
X46.07 Z5.185
X45.948 Z5.166
X45.764 Z5.126
X45.499 Z5.176
X44.858 Z5.205
X43.819 Z5.155
X42.739 Z5.093
X41.691 Z5.082
X41.112 Z5.029
X40.456 Z5.015
X38.323 Z4.913
X37.887 Z4.898
X37.254 Z4.836
X35.843 Z4.735
X34.769 Z4.704
X33.903 Z4.76
X33.594 Z4.795
X33.378 Z4.803
X32.804 Z4.811
X32.529 Z4.78
X31.692 Z4.656
X31.424 Z4.637
X30.548 Z4.614
X30.204
X28.491 Z4.38
X27.137 Z4.157
X26.633 Z4.057
X25.72 Z3.866
X25.312 Z3.776
X23.432 Z3.342
X22.905 Z3.254
X21.097 Z3.074
X20.466 Z3.008
X18.97 Z2.874
X17.602 Z2.789
X16.29 Z2.741
X13.665 Z2.676
X10.383 Z2.644
X2.79 Z2.656
X-0.01 Z2.661
X-0.032 Z2.666
X-0.033 Z2.667
X-0.055 Z2.672
X-0.088 Y4.499
X-0.114 Y4.52
X-0.129 Y4.55
Y4.584
X-0.114 Y4.614
X-0.088 Y4.634
X-0.055 Y4.642
X-0.054
X-0.032 Z2.667
X-0.01 Z2.662
X3.038 Z2.656
X10.423 Z2.644
X13.704 Z2.676
X16.165 Z2.738
X17.423 Z2.781
X18.9 Z2.873
X20.396 Z3.007
X21.205 Z3.097
X22.827 Z3.252
X23.673 Z3.39
X25.24 Z3.749
X25.637 Z3.838
X26.257 Z3.961
X26.875 Z4.094
X27.18 Z4.154
X28.697 Z4.405
X30.254 Z4.619
X31.326 Z4.657
X31.704 Z4.68
X32.552 Z4.803
X32.726 Z4.829
X33.504 Z4.819
X33.827 Z4.785
X33.991 Z4.777
X34.802 Z4.726
X35.92 Z4.76
X37.113 Z4.848
X37.901 Z4.927
X38.499 Z4.945
X40.467 Z5.038
X41.068 Z5.053
X41.726 Z5.107
X42.765 Z5.124
X43.53 Z5.163
X44.84 Z5.228
X45.468 Z5.204
X45.738 Z5.15
X45.767 Z5.153
X45.967 Z5.194
X46.116 Z5.217
X46.499 Z5.211
X47.585 Z5.171
X48.241 Z5.152
X48.506 Z5.162
X49.323 Z5.233
X49.966 Z5.244
X50.294 Z5.24
X50.508 Z5.221
X50.814 Z5.18
X51.495 Z5.219
X52.114 Z5.224
X52.88 Z5.202
X53.161
X54.527 Z5.177
X55.302 Z5.071
X55.724 Z5.051
X56.071 Z5.053
X57.876 Z4.976
X59.216 Z4.872
X60.309 Z4.853
X61.184 Z4.833
X63.617 Z4.822
X64.766 Z4.778
X65.703 Z4.706
X66.304 Z4.708
X67.015
X67.466 Z4.737
X68.324 Z4.816
X69.513 Z4.912
X70.576 Z5.049
X72.462 Z5.395
X72.77 Z5.441
X73.192 Z5.512
X73.709 Z5.605
X74.773 Z5.736
X76.007 Z5.876
X78.066 Z6.048
X79.465 Z6.217
X80.147 Z6.269
X82.418 Z6.41
X83.074 Z6.438
X83.699 Z6.449
X84.062 Z6.411
X84.609 Z6.384
X85.01 Z6.388
X85.031 Z6.393
X85.053 Z6.398
X85.07 Y4.644 Z6.399
X85.086 Y4.649
X85.101 Y4.658 Z6.401
X85.113 Y4.67 Z6.402
X85.122 Y4.684 Z6.404
X85.127 Y4.7 Z6.406
X85.129 Y4.717 Z6.408
X85.127 Y4.734 Z6.41
X85.122 Y4.749 Z6.412
X85.113 Y4.764 Z6.414
X85.101 Y4.775 Z6.416
X85.086 Y4.784 Z6.417
X85.07 Y4.79 Z6.418
X85.053 Y4.792
X85.031 Z6.413
X85.01 Z6.408
X84.682 Z6.401
X83.953 Z6.439
X83.723 Z6.454
X82.789 Z6.427
X81.568 Z6.344
X80.652 Z6.289
X79.733 Z6.217
X78.158 Z6.025
X76.334 Z5.868
X74.959 Z5.716
X73.693 Z5.561
X73.492 Z5.528
X72.965 Z5.437
X72.646 Z5.395
X70.97 Z5.085
X69.812 Z4.935
X68.308 Z4.817
X67.557 Z4.744
X67.01 Z4.717
X66.414 Z4.722
X65.678 Z4.72
X65.384 Z4.748
X64.74 Z4.792
X63.591 Z4.833
X61.198 Z4.846
X60.377 Z4.866
X59.119 Z4.887
X57.945 Z4.981
X55.812 Z5.074
X55.509 Z5.083
X55.181 Z5.103
X54.459 Z5.202
X53.216 Z5.227
X52.133 Z5.258
X51.477 Z5.247
X50.888 Z5.212
X50.817 Z5.203
X50.499 Z5.251
X50.283 Z5.268
X49.846 Z5.271
X49.326 Z5.26
X48.553 Z5.189
X48.334 Z5.176
X47.712 Z5.19
X46.958 Z5.226
X46.795 Z5.234
X46.138 Z5.245
X45.835 Z5.196
X45.727 Z5.171
X45.528 Z5.217
X45.423 Z5.232
X44.822 Z5.253
X43.621 Z5.196
X42.856 Z5.158
X41.817 Z5.141
X40.974 Z5.076
X40.427 Z5.06
X38.678 Z4.977
X37.912 Z4.954
X37.016 Z4.862
X35.932 Z4.784
X34.837 Z4.749
X34.072 Z4.799
X33.744 Z4.811
X33.542 Z4.833
X32.806 Z4.848
X32.622 Z4.835
X31.843 Z4.719
X31.468 Z4.684
X30.65 Z4.652
X30.326 Z4.629
X28.909 Z4.432
X28.411 Z4.36
X27.425 Z4.185
X27.095 Z4.126
X26.408 Z3.972
X25.356 Z3.766
X23.894 Z3.434
X23.072 Z3.288
X21.387 Z3.128
X20.332 Z3.007
X18.837 Z2.872
X17.305 Z2.776
X15.774 Z2.727
X13.75 Z2.677
X10.469 Z2.644
X3.287 Z2.655
X-0.01 Z2.663
X-0.032 Z2.668
X-0.033 Z2.669
X-0.055 Z2.674
X-0.088 Y4.799
X-0.114 Y4.82
X-0.129 Y4.85
Y4.884
X-0.114 Y4.914
X-0.088 Y4.934
X-0.055 Y4.942
X-0.054
X-0.032 Z2.669
X-0.01 Z2.663
X3.426 Z2.655
X10.525 Z2.644
X13.916 Z2.679
X17.143 Z2.769
X18.783 Z2.872
X20.278 Z3.008
X21.331 Z3.132
X21.974 Z3.197
X23.348 Z3.325
X23.981 Z3.441
X25.413 Z3.767
X26.36 Z3.949
X27.361 Z4.174
X28.148 Z4.322
X28.716 Z4.401
X29.129 Z4.463
X30.419 Z4.644
X30.884 Z4.676
X31.481 Z4.707
X31.907 Z4.749
X32.592 Z4.85
X32.847 Z4.861
X33.448 Z4.855
X33.705 Z4.831
X34.088 Z4.823
X34.873 Z4.775
X35.912 Z4.806
X37.108 Z4.892
X37.942 Z4.984
X38.868 Z5.01
X40.289 Z5.075
X40.836 Z5.099
X41.487 Z5.144
X41.906 Z5.174
X42.781 Z5.188
X43.328 Z5.208
X44.473 Z5.268
X44.966 Z5.275
X45.455 Z5.253
X45.7 Z5.195
X45.899 Z5.234
X46.155 Z5.274
X46.483 Z5.27
X46.975 Z5.258
X47.181 Z5.241
X47.783 Z5.212
X48.338 Z5.201
X48.666 Z5.223
X49.355 Z5.289
X50.12 Z5.3
X50.394 Z5.289
X50.818 Z5.227
X50.929 Z5.24
X51.454 Z5.274
X52.204 Z5.292
X53.298 Z5.253
X54.296 Z5.23
X54.457 Z5.218
X55.083 Z5.131
X55.646 Z5.099
X58.011 Z4.987
X59.078 Z4.898
X60.391 Z4.88
X61.266 Z4.858
X63.562 Z4.843
X64.656 Z4.808
X65.192 Z4.778
X65.636 Z4.735
X66.415
X67.126 Z4.724
X67.642 Z4.754
X68.336 Z4.822
X70.166 Z4.966
X71.217 Z5.102
X72.683 Z5.37
X73.108 Z5.425
X73.626 Z5.511
X75.105 Z5.692
X76.693 Z5.864
X78.294 Z6.006
X79.869 Z6.197
X81.051 Z6.298
X81.531 Z6.329
X83.051 Z6.435
X83.837 Z6.456
X84.624 Z6.425
X85.01 Z6.428
X85.032 Z6.433
X85.054 Z6.439
X85.071 Y4.944
X85.087 Y4.949 Z6.44
X85.101 Y4.958 Z6.441
X85.113 Y4.97 Z6.442
X85.122 Y4.984 Z6.444
X85.128 Y5 Z6.447
X85.13 Y5.017 Z6.449
X85.128 Y5.034 Z6.451
X85.122 Y5.049 Z6.453
X85.113 Y5.064 Z6.455
X85.101 Y5.075 Z6.457
X85.087 Y5.084 Z6.458
X85.071 Y5.09 Z6.459
X85.054 Y5.092
X85.032 Z6.454
X85.01 Z6.449
X84.574
X84.041 Z6.467
X83.209 Z6.443
X81.282 Z6.294
X79.987 Z6.176
X78.52 Z5.995
X77.032 Z5.858
X75.122 Z5.656
X73.526 Z5.455
X72.64 Z5.331
X71.55 Z5.13
X70.39 Z4.984
X68.876 Z4.866
X68.342 Z4.825
X67.658 Z4.759
X67.169 Z4.732
X66.307 Z4.747
X65.646 Z4.745
X65.056 Z4.804
X63.634 Z4.852
X62.759 Z4.862
X61.388 Z4.868
X60.459 Z4.893
X58.982 Z4.916
X58.069 Z4.993
X56.21 Z5.086
X55.78 Z5.128
X55.52 Z5.129
X55.362 Z5.131
X55.034 Z5.154
X54.514 Z5.227
X54.274 Z5.253
X53.378 Z5.27
X53.159 Z5.288
X52.284 Z5.322
X51.464 Z5.305
X50.986 Z5.27
X50.82 Z5.25
X50.355 Z5.319
X50.083 Z5.328
X49.372 Z5.317
X48.629 Z5.245
X48.3 Z5.227
X47.744 Z5.238
X47.318 Z5.263
X46.965 Z5.291
X46.172 Z5.302
X45.81 Z5.244
X45.687 Z5.218
X45.427 Z5.28
X45.101 Z5.296
X44.773 Z5.301
X44.062 Z5.276
X43.026 Z5.226
X41.987 Z5.207
X40.703 Z5.121
X39.063 Z5.043
X38.055 Z5.023
X37.257 Z4.938
X37.158 Z4.916
X36.681 Z4.884
X35.806 Z4.826
X34.962 Z4.799
X34.15 Z4.845
X33.604 Z4.859
X33.453 Z4.873
X32.906 Z4.875
X32.548 Z4.862
X31.963 Z4.779
X31.169 Z4.702
X30.507 Z4.658
X29.632 Z4.53
X29.207 Z4.47
X28.795 Z4.406
X28.274 Z4.338
X27.779 Z4.266
X27.508 Z4.209
X26.753 Z4.029
X26.125 Z3.895
X25.493 Z3.772
X25.295 Z3.729
X23.969 Z3.425
X23.652 Z3.367
X22.793 Z3.285
X22.477 Z3.262
X21.419 Z3.153
X20.153 Z3.002
X18.712 Z2.871
X16.962 Z2.761
X13.899 Z2.679
X10.509 Z2.644
X3.511 Z2.655
X-0.01 Z2.664
X-0.032 Z2.669
X-0.033 Z2.67
X-0.055 Z2.675
X-0.088 Y5.099
X-0.114 Y5.12
X-0.129 Y5.15
Y5.184
X-0.114 Y5.214
X-0.088 Y5.234
X-0.055 Y5.242
X-0.054
X-0.032 Z2.67
X-0.01 Z2.665
X3.596 Z2.655
X10.507 Z2.644
X13.952 Z2.68
X16.851 Z2.756
X18.656 Z2.871
X19.989 Z2.993
X21.48 Z3.17
X22.632 Z3.295
X22.96 Z3.316
X23.82 Z3.393
X24.031 Z3.423
X24.333 Z3.49
X25.25 Z3.707
X25.565 Z3.776
X25.974 Z3.857
X26.603 Z3.99
X27.427 Z4.186
X27.719 Z4.256
X28.239 Z4.331
X28.877 Z4.411
X29.337 Z4.486
X29.703 Z4.538
X30.587 Z4.671
X30.852 Z4.693
X32.021 Z4.808
X32.507 Z4.875
X33.242 Z4.894
X34.158 Z4.869
X35.024 Z4.824
X35.758 Z4.847
X36.797 Z4.917
X37.219 Z4.942
X37.412 Z4.983
X38.157 Z5.062
X39.275 Z5.077
X40.041 Z5.108
X42.09 Z5.242
X43.129 Z5.26
X43.947 Z5.298
X44.767 Z5.325
X45.205 Z5.317
X45.42 Z5.305
X45.669 Z5.242
X45.828 Z5.273
X46.039 Z5.307
X46.244 Z5.334
X46.955 Z5.321
X47.118 Z5.314
X47.76 Z5.262
X48.25 Z5.252
X48.578 Z5.265
X49.319 Z5.339
X49.592 Z5.349
X50.248 Z5.353
X50.432 Z5.335
X50.821 Z5.273
X51.044 Z5.3
X51.465 Z5.334
X52.34 Z5.348
X53.215 Z5.313
X53.378 Z5.295
X53.488 Z5.288
X54.218 Z5.277
X54.573 Z5.235
X54.986 Z5.176
X55.314 Z5.151
X55.458 Z5.163
X55.841 Z5.158
X56.659 Z5.075
X58.026 Z5.004
X58.995 Z4.931
X60.472 Z4.907
X61.456 Z4.879
X62.835 Z4.874
X63.819 Z4.858
X65.132 Z4.807
X65.596 Z4.761
X66.198 Z4.759
X67.204 Z4.741
X67.693 Z4.766
X68.377 Z4.831
X69.736 Z4.93
X70.763 Z5.016
X71.817 Z5.15
X72.554 Z5.282
X72.85 Z5.331
X75.168 Z5.626
X75.442 Z5.65
X77.311 Z5.845
X78.587 Z5.969
X80.214 Z6.165
X81.385 Z6.276
X81.886 Z6.334
X82.791 Z6.411
X83.376 Z6.453
X84.196 Z6.479
X84.47 Z6.474
X85.01 Z6.469
X85.032 Z6.474
X85.054 Z6.48
X85.071 Y5.244
X85.087 Y5.249 Z6.481
X85.102 Y5.258 Z6.482
X85.114 Y5.27 Z6.483
X85.123 Y5.284 Z6.485
X85.128 Y5.3 Z6.488
X85.13 Y5.317 Z6.49
X85.128 Y5.333 Z6.492
X85.123 Y5.349 Z6.494
X85.114 Y5.364 Z6.496
X85.102 Y5.375 Z6.498
X85.087 Y5.384 Z6.499
X85.071 Y5.39 Z6.5
X85.054 Y5.392
X85.032 Z6.495
X85.01 Z6.49
X84.365 Z6.492
X83.545 Z6.463
X82.796 Z6.411
X82.276 Z6.362
X81.85 Z6.297
X81.577 Z6.263
X80.621 Z6.172
X80.006 Z6.088
X77.799 Z5.85
X77.38 Z5.81
X75.671 Z5.632
X75.138 Z5.586
X72.926 Z5.311
X72.713 Z5.279
X72.091 Z5.171
X71.134 Z5.048
X70.001 Z4.95
X68.985 Z4.876
X68.399 Z4.835
X67.714 Z4.771
X67.277 Z4.751
X66.245 Z4.775
X65.586 Z4.773
X65.208 Z4.809
X64.607 Z4.842
X63.568 Z4.874
X62.693 Z4.887
X61.524 Z4.891
X60.485 Z4.92
X59.063 Z4.943
X58.626 Z4.967
X58.093 Z5.009
X57.054 Z5.067
X55.955 Z5.184
X55.465 Z5.199
X55.156 Z5.178
X54.938 Z5.197
X54.525 Z5.257
X54.153 Z5.301
X53.552 Z5.306
X53.443 Z5.311
X53.268 Z5.335
X52.943 Z5.353
X52.341 Z5.374
X51.74 Z5.372
X51.466 Z5.364
X51.002 Z5.318
X50.823 Z5.297
X50.504 Z5.341
X50.41 Z5.363
X50.305 Z5.377
X49.977 Z5.383
X49.321 Z5.366
X48.638 Z5.295
X48.31 Z5.278
X47.927 Z5.28
X47.097 Z5.348
X46.249 Z5.362
X45.833 Z5.299
X45.657 Z5.268
X45.398 Z5.333
X44.799 Z5.351
X43.869 Z5.323
X43.216 Z5.294
X42.177 Z5.275
X40.332 Z5.149
X39.566 Z5.114
X38.277 Z5.101
X37.552 Z5.027
X37.279 Z4.967
X36.748 Z4.938
X35.654 Z4.867
X35.087 Z4.849
X34.275 Z4.891
X33.345 Z4.908
X32.461 Z4.887
X31.617 Z4.788
X31.031 Z4.737
X30.722 Z4.702
X30.109 Z4.595
X29.579 Z4.52
X28.955 Z4.416
X28.104 Z4.309
X27.796 Z4.263
X27.596 Z4.226
X26.785 Z4.026
X25.947 Z3.843
X25.538 Z3.758
X25.224 Z3.688
X24.423 Z3.493
X24.215 Z3.443
X23.306 Z3.357
X22.704 Z3.319
X21.341 Z3.163
X19.754 Z2.976
X18.625 Z2.873
X16.711 Z2.752
X13.977 Z2.681
X10.476 Z2.644
X3.68 Z2.655
X-0.01 Z2.666
X-0.032 Z2.671
X-0.033 Z2.672
X-0.055 Z2.677
X-0.088 Y5.399
X-0.114 Y5.42
X-0.129 Y5.45
Y5.483
X-0.114 Y5.514
X-0.088 Y5.534
X-0.055 Y5.542
X-0.054
X-0.032 Z2.672
X-0.01 Z2.666
X3.765 Z2.655
X10.477 Z2.644
X14.032 Z2.682
X16.712 Z2.751
X18.545 Z2.871
X19.78 Z2.985
X22.004 Z3.254
X22.835 Z3.349
X23.545 Z3.394
X24.44 Z3.478
X24.657 Z3.535
X25.26 Z3.686
X26.715 Z4.005
X27.432 Z4.183
X27.631 Z4.229
X28.033 Z4.296
X28.99 Z4.415
X29.519 Z4.503
X30.027 Z4.582
X30.541 Z4.685
X30.895 Z4.747
X31.157 Z4.776
X31.636 Z4.814
X32.415 Z4.899
X33.454 Z4.932
X34.22 Z4.916
X35.149 Z4.874
X35.496 Z4.885
X36.7 Z4.959
X37.34 Z4.992
X37.504 Z5.031
X37.693 Z5.07
X38.368 Z5.138
X39.133 Z5.15
X39.691 Z5.143
X39.964 Z5.151
X40.663 Z5.201
X42.18 Z5.302
X42.667 Z5.315
X43.703 Z5.342
X44.742 Z5.374
X45.289 Z5.364
X45.421 Z5.353
X45.643 Z5.296
X45.738 Z5.308
X46.247 Z5.389
X47.133 Z5.377
X47.991 Z5.306
X48.265 Z5.303
X48.593 Z5.317
X49.303 Z5.391
X50.042 Z5.411
X50.313 Z5.404
X50.564 Z5.351
X50.807 Z5.323
X51.155 Z5.364
X51.467 Z5.394
X51.685 Z5.4
X52.451 Z5.398
X53.174 Z5.37
X53.516 Z5.326
X54.008
X54.169 Z5.318
X54.594 Z5.263
X54.99 Z5.204
X55.323 Z5.23
X55.883 Z5.221
X57.395 Z5.06
X58.106 Z5.018
X58.486 Z4.989
X59.076 Z4.958
X60.498 Z4.934
X61.537 Z4.904
X62.496 Z4.899
X63.316 Z4.889
X64.519 Z4.856
X65.23 Z4.814
X65.556 Z4.786
X66.333 Z4.793
X67.426 Z4.766
X67.707 Z4.775
X68.286 Z4.827
X68.989 Z4.872
X70.056 Z4.954
X71.18 Z5.05
X71.492 Z5.075
X72.427 Z5.199
X72.816 Z5.266
X73.445 Z5.344
X75.136 Z5.551
X75.902 Z5.614
X77.397 Z5.77
X77.927 Z5.817
X80.061 Z6.042
X81.042 Z6.18
X81.842 Z6.256
X82.163 Z6.315
X82.847 Z6.413
X83.594 Z6.465
X84.135 Z6.489
X85.01 Z6.504
X85.031 Z6.509
X85.053 Z6.514
X85.054
X85.07 Y5.544
X85.086 Y5.549
X85.1 Y5.558
X85.112 Y5.57 Z6.513
X85.121 Y5.584
X85.127 Y5.6 Z6.512
X85.129 Y5.617
X85.127 Y5.633 Z6.511
X85.121 Y5.649
X85.112 Y5.664 Z6.51
X85.1 Y5.675
X85.086 Y5.684 Z6.509
X85.07 Y5.69
X85.054 Y5.692
X85.032 Z6.504
X85.01 Z6.499
X84.408 Z6.493
X83.917 Z6.475
X83.01 Z6.408
X82.348 Z6.309
X81.937 Z6.233
X81.412 Z6.182
X80.161 Z6.001
X78.346 Z5.811
X77.386 Z5.726
X76.104 Z5.594
X75.133 Z5.515
X73.441 Z5.31
X72.909 Z5.248
X71.707 Z5.089
X71.337 Z5.062
X69.191 Z4.879
X68.102 Z4.812
X67.708 Z4.781
X66.749 Z4.802
X66.476 Z4.812
X65.477 Z4.805
X64.432 Z4.87
X62.682 Z4.916
X61.522 Z4.92
X60.428 Z4.949
X59.116 Z4.971
X58.362 Z5.009
X57.816 Z5.044
X56.974 Z5.138
X55.93 Z5.25
X55.317 Z5.266
X54.89 Z5.234
X54.625 Z5.273
X54.049 Z5.347
X53.588 Z5.341
X53.154 Z5.398
X52.504 Z5.423
X51.629 Z5.428
X51.362 Z5.414
X51.016 Z5.373
X50.814 Z5.343
X50.6 Z5.365
X50.297 Z5.432
X50.027 Z5.439
X49.316 Z5.419
X48.526 Z5.338
X48.198 Z5.329
X47.99 Z5.336
X47.146 Z5.407
X46.306 Z5.42
X45.796 Z5.347
X45.65 Z5.318
X45.407 Z5.381
X45.191 Z5.39
X44.753 Z5.399
X42.511 Z5.345
X42.189 Z5.331
X40.951 Z5.25
X40.24 Z5.195
X39.926 Z5.174
X39.691 Z5.179
X38.98 Z5.185
X38.46 Z5.175
X37.812 Z5.111
X37.519 Z5.047
X37.2 Z5.01
X36.666 Z4.981
X35.298 Z4.901
X35.048 Z4.907
X34.337 Z4.939
X33.516 Z4.955
X32.477 Z4.924
X31.965 Z4.87
X31.035 Z4.787
X30.494 Z4.692
X29.697 Z4.527
X29.064 Z4.419
X28.011 Z4.288
X27.61 Z4.219
X27.504 Z4.198
X26.589 Z3.972
X26.02 Z3.841
X25.168 Z3.651
X24.886 Z3.577
X24.612 Z3.506
X24.194 Z3.471
X23.768 Z3.429
X23.571 Z3.422
X22.927 Z3.375
X22.321 Z3.304
X20.726 Z3.102
X20.086 Z3.031
X19.35 Z2.951
X18.558 Z2.874
X16.809 Z2.756
X14.129 Z2.683
X10.465 Z2.645
X3.849 Z2.655
X-0.01 Z2.667
X-0.032 Z2.672
X-0.033 Z2.673
X-0.055 Z2.678
X-0.088 Y5.699
X-0.114 Y5.72
X-0.128 Y5.75
Y5.783
X-0.114 Y5.814
X-0.088 Y5.834
X-0.055 Y5.842
X-0.054
X-0.032 Z2.673
X-0.01 Z2.668
X3.934 Z2.655
X10.442 Z2.645
X14.052 Z2.682
X16.239 Z2.737
X17.004 Z2.768
X18.535 Z2.871
X18.82 Z2.904
X19.687 Z2.992
X20.102 Z3.042
X21.061 Z3.151
X22.905 Z3.388
X23.692 Z3.457
X23.874 Z3.456
X24.159 Z3.482
X24.388 Z3.515
X24.786 Z3.539
X24.851 Z3.569
X24.973 Z3.612
X25.173 Z3.647
X25.751 Z3.765
X26.203 Z3.877
X26.563 Z3.961
X27.42 Z4.175
X27.572 Z4.207
X28.021 Z4.283
X29.132 Z4.423
X29.66 Z4.517
X30.451 Z4.696
X31.097 Z4.811
X31.526 Z4.856
X32.54 Z4.95
X33.579 Z4.978
X34.399 Z4.964
X35.274 Z4.924
X36.932 Z5.02
X37.626 Z5.088
X37.92 Z5.15
X38.553 Z5.213
X38.717 Z5.22
X39.483 Z5.219
X39.93 Z5.202
X40.211 Z5.213
X40.354 Z5.234
X41.223 Z5.298
X42.355 Z5.369
X44.718 Z5.423
X45.371 Z5.41
X45.674 Z5.344
X45.795 Z5.375
X46.283 Z5.446
X47.199 Z5.432
X48.131 Z5.357
X48.459 Z5.358
X49.303 Z5.444
X49.959 Z5.465
X50.258 Z5.462
X50.683 Z5.376
X50.792 Z5.369
X50.954 Z5.394
X51.274 Z5.433
X51.521 Z5.456
X52.505 Z5.449
X53.052 Z5.431
X53.213 Z5.418
X53.641 Z5.359
X54.002 Z5.364
X54.337 Z5.32
X54.801 Z5.266
X55.184 Z5.297
X55.854 Z5.288
X57.152 Z5.15
X58.207 Z5.031
X59.234 Z4.981
X60.492 Z4.968
X61.367 Z4.941
X62.833 Z4.93
X64.223 Z4.889
X65.5 Z4.816
X66.601 Z4.831
X67.038 Z4.812
X67.876 Z4.797
X69.073 Z4.869
X71.428 Z5.068
X72.068 Z5.113
X73.013 Z5.241
X73.551 Z5.29
X75.191 Z5.486
X76.285 Z5.572
X77.302 Z5.675
X78.589 Z5.788
X80.191 Z5.953
X81.737 Z6.177
X82.071 Z6.214
X82.553 Z6.307
X83.228 Z6.406
X83.76 Z6.446
X84.572 Z6.494
X85.01
X85.032 Z6.499
X85.054 Z6.504
X85.071 Y5.844
X85.087 Y5.849
X85.101 Y5.858 Z6.503
X85.113 Y5.87
X85.122 Y5.884 Z6.502
X85.127 Y5.9
X85.129 Y5.917 Z6.501
X85.127 Y5.933
X85.122 Y5.949 Z6.5
X85.113 Y5.964
X85.101 Y5.975 Z6.499
X85.087 Y5.984
X85.071 Y5.99
X85.054 Y5.992
X85.032 Z6.493
X85.01 Z6.488
X84.737
X83.768 Z6.428
X83.428 Z6.396
X81.745 Z6.125
X80.26 Z5.909
X78.763 Z5.759
X77.683 Z5.665
X77.259 Z5.628
X76.507 Z5.554
X75.195 Z5.451
X74.14 Z5.328
X73.121 Z5.235
X72.286 Z5.126
X71.588 Z5.08
X68.951 Z4.857
X68.026 Z4.807
X67.23 Z4.826
X66.738 Z4.85
X65.425 Z4.835
X64.143 Z4.901
X62.886 Z4.942
X62.677 Z4.953
X61.686 Z4.957
X60.992 Z4.969
X60.5 Z4.99
X59.571 Z5
X59.352 Z5.004
X59.187
X58.366 Z5.043
X57.364 Z5.158
X55.84 Z5.321
X55.185 Z5.333
X54.802 Z5.311
X54.68 Z5.3
X54.422 Z5.318
X54.017 Z5.378
X53.691
X53.159 Z5.45
X52.797 Z5.471
X51.467 Z5.483
X50.997 Z5.43
X50.795 Z5.4
X50.631 Z5.405
X50.273 Z5.486
X50.113 Z5.495
X49.32 Z5.473
X48.448 Z5.383
X48.229 Z5.38
X47.211 Z5.46
X46.883 Z5.467
X46.288 Z5.473
X45.857 Z5.416
X45.691 Z5.37
X45.531 Z5.398
X45.385 Z5.433
X44.732 Z5.448
X43.857 Z5.429
X43.24 Z5.423
X42.474 Z5.404
X41.342 Z5.337
X40.44 Z5.269
X40.157 Z5.233
X39.767 Z5.246
X38.782 Z5.257
X38.576 Z5.243
X38.064 Z5.191
X37.957 Z5.176
X37.653 Z5.12
X36.742 Z5.035
X35.276 Z4.952
X34.447 Z4.989
X33.682 Z5.003
X32.588 Z4.974
X31.314 Z4.849
X31.111 Z4.822
X30.594 Z4.731
X29.675 Z4.519
X29.042 Z4.41
X28.038 Z4.28
X27.425 Z4.173
X26.255 Z3.878
X25.737 Z3.746
X25.278 Z3.653
X25.117 Z3.645
X24.938 Z3.611
X24.852 Z3.579
X24.595 Z3.559
X24.442 Z3.541
X24.242 Z3.505
X24.026 Z3.482
X23.728 Z3.486
X23.194 Z3.436
X20.973 Z3.152
X20.179 Z3.061
X19.823 Z3.014
X19.075 Z2.94
X18.554 Z2.871
X17.187 Z2.779
X16.313 Z2.738
X14.07 Z2.683
X10.461 Z2.645
X4.019 Z2.655
X-0.01 Z2.669
X-0.032 Z2.674
X-0.033 Z2.675
X-0.055 Z2.68
X-0.088 Y5.999
X-0.114 Y6.02
X-0.128 Y6.05
Y6.083
X-0.114 Y6.114
X-0.088 Y6.134
X-0.055 Y6.142
X-0.054
X-0.032 Z2.675
X-0.01 Z2.669
X4.103 Z2.655
X10.419 Z2.645
X14.083 Z2.683
X16.271 Z2.736
X17.418 Z2.793
X18.564 Z2.872
X19.155 Z2.953
X19.821 Z3.022
X20.341 Z3.092
X20.874 Z3.152
X23.356 Z3.469
X23.797 Z3.512
X24.144 Z3.509
X24.626 Z3.588
X25.113 Z3.645
X25.312 Z3.631
X25.436 Z3.667
X25.699 Z3.722
X26.424 Z3.91
X27.406 Z4.164
X28.054 Z4.276
X29.01 Z4.405
X29.539 Z4.492
X30.772 Z4.772
X30.984 Z4.809
X31.28 Z4.854
X32.053 Z4.94
X32.626 Z4.997
X33.774 Z5.027
X34.485 Z5.015
X35.36 Z4.978
X36.54 Z5.047
X37.772 Z5.164
X37.971 Z5.198
X38.078 Z5.216
X38.781 Z5.291
X39.558 Z5.287
X40.214 Z5.259
X40.527 Z5.303
X41.402 Z5.37
X42.593 Z5.44
X43.687 Z5.462
X43.981 Z5.456
X44.692 Z5.472
X45.347 Z5.462
X45.492 Z5.432
X45.705 Z5.398
X45.829 Z5.435
X46.063 Z5.475
X46.293 Z5.501
X47.004 Z5.497
X47.277 Z5.485
X48.137 Z5.417
X48.418 Z5.406
X49.314 Z5.499
X50.189 Z5.522
X50.283 Z5.507
X50.62 Z5.437
X50.744 Z5.432
X50.839 Z5.437
X51.469 Z5.515
X52.618 Z5.507
X53.066 Z5.485
X53.746 Z5.395
X53.944 Z5.398
X54.375 Z5.335
X54.46 Z5.343
X54.603 Z5.341
X55.116 Z5.366
X55.826 Z5.354
X57.563 Z5.168
X58.458 Z5.063
X59.278 Z5.024
X59.436 Z5.037
X59.853 Z5.024
X60.4 Z5.013
X61.234 Z4.981
X61.727 Z4.976
X62.673 Z4.972
X62.991 Z4.95
X64.139 Z4.915
X65.454 Z4.85
X66.849 Z4.869
X67.413 Z4.838
X68.156 Z4.819
X69.031 Z4.861
X71.721 Z5.089
X72.585 Z5.145
X73.319 Z5.24
X75.139 Z5.408
X76.288 Z5.501
X77.209 Z5.58
X77.961 Z5.642
X80.324 Z5.865
X81.787 Z6.076
X82.411 Z6.178
X83.506 Z6.362
X84.172 Z6.431
X84.791 Z6.477
X85.01 Z6.483
X85.031 Z6.488
X85.053 Z6.493
X85.069 Y6.144
X85.085 Y6.149
X85.099 Y6.158 Z6.492
X85.111 Y6.17 Z6.491
X85.12 Y6.184 Z6.49
X85.126 Y6.2 Z6.489
X85.128 Y6.217 Z6.487
X85.126 Y6.233 Z6.486
X85.12 Y6.249 Z6.485
X85.111 Y6.264 Z6.484
X85.099 Y6.275 Z6.483
X85.085 Y6.284 Z6.482
X85.069 Y6.29
X85.053 Y6.292
X85.05
X85.028 Z6.477
X85.01 Z6.472
X84.493 Z6.427
X83.649 Z6.336
X82.72 Z6.179
X81.875 Z6.03
X80.411 Z5.823
X77.991 Z5.601
X75.273 Z5.393
X74.803 Z5.359
X73.377 Z5.229
X72.837 Z5.162
X71.81 Z5.095
X69.657 Z4.905
X69.168 Z4.87
X68.238 Z4.83
X67.432 Z4.846
X66.895 Z4.883
X65.473 Z4.864
X64.142 Z4.929
X62.993 Z4.966
X62.621 Z4.991
X61.713 Z4.997
X61.221 Z5.004
X60.515 Z5.031
X59.524 Z5.07
X59.26 Z5.048
X58.55 Z5.082
X57.879 Z5.166
X55.882 Z5.383
X55.666 Z5.391
X55.064 Z5.4
X54.463 Z5.37
X54.3 Z5.356
X53.948 Z5.412
X53.786 Z5.415
X53.045 Z5.514
X52.397 Z5.544
X51.577 Z5.547
X51.364 Z5.538
X50.794 Z5.461
X50.622 Z5.464
X50.379 Z5.517
X50.221 Z5.545
X49.95 Z5.546
X49.293 Z5.523
X48.395 Z5.431
X47.057 Z5.527
X46.298 Z5.528
X46.068 Z5.504
X45.913 Z5.483
X45.714 Z5.425
X45.455 Z5.466
X45.314 Z5.488
X44.702 Z5.497
X44.101 Z5.484
X43.752 Z5.495
X42.603 Z5.472
X41.364 Z5.396
X40.605 Z5.337
X40.25 Z5.29
X39.638 Z5.321
X38.845 Z5.325
X38.143 Z5.247
X37.835 Z5.203
X36.399 Z5.065
X35.36 Z5.008
X34.523 Z5.04
X33.812 Z5.049
X32.691 Z5.022
X32.199 Z4.972
X31.629 Z4.904
X31.414 Z4.88
X31.011 Z4.822
X30.811 Z4.784
X29.474 Z4.479
X28.839 Z4.379
X28.095 Z4.277
X27.577 Z4.191
X27.471 Z4.17
X26.87 Z4.02
X26.155 Z3.829
X25.588 Z3.683
X25.376 Z3.659
X25.175 Z3.669
X24.602 Z3.607
X24.198 Z3.537
X23.874 Z3.539
X23.562 Z3.508
X20.809 Z3.156
X20.335 Z3.1
X19.873 Z3.035
X19.339 Z2.98
X18.713 Z2.891
X18.23 Z2.844
X16.426 Z2.741
X14.129 Z2.684
X10.41 Z2.645
X4.188 Z2.655
X-0.01 Z2.67
X-0.032 Z2.675
X-0.033 Z2.676
X-0.055 Z2.681
X-0.088 Y6.299
X-0.114 Y6.32
X-0.128 Y6.35
Y6.383
X-0.114 Y6.414
X-0.088 Y6.434
X-0.055 Y6.442
X-0.054
X-0.032 Z2.676
X-0.01 Z2.671
X4.273 Z2.655
X10.408 Z2.645
X13.963 Z2.682
X16.15 Z2.732
X18.227 Z2.842
X18.763 Z2.897
X19.494 Z3.003
X19.922 Z3.048
X20.44 Z3.124
X20.866 Z3.176
X23.726 Z3.542
X23.968 Z3.566
X24.149 Z3.567
X24.39 Z3.607
X25.283 Z3.699
X25.499 Z3.688
X25.91 Z3.755
X26.831 Z4.002
X27.227 Z4.096
X27.527 Z4.173
X27.632 Z4.196
X27.95 Z4.247
X29.423 Z4.468
X30.492 Z4.711
X31.03 Z4.834
X31.551 Z4.907
X31.765 Z4.929
X32.391 Z5.011
X32.756 Z5.048
X33.905 Z5.074
X34.506 Z5.067
X35.427 Z5.036
X36.193 Z5.079
X37.695 Z5.222
X38.906 Z5.359
X39.654 Z5.355
X40.022 Z5.337
X40.238 Z5.319
X40.699 Z5.372
X41.382 Z5.427
X42.613 Z5.505
X43.816 Z5.527
X44.217 Z5.512
X44.655 Z5.52
X45.311 Z5.513
X45.418 Z5.5
X45.724 Z5.453
X45.87 Z5.497
X45.966 Z5.52
X46.302 Z5.556
X47.021 Z5.557
X48.402 Z5.459
X49.292 Z5.549
X49.778 Z5.571
X50.186 Z5.576
X50.424 Z5.537
X50.635 Z5.486
X50.85 Z5.497
X51.062 Z5.527
X51.414 Z5.576
X52.234 Z5.58
X52.944 Z5.547
X53.105 Z5.533
X53.742 Z5.446
X53.921 Z5.428
X54.212 Z5.381
X54.339 Z5.398
X55.066 Z5.437
X55.856 Z5.417
X57.336 Z5.248
X57.947 Z5.191
X58.697 Z5.095
X59.206 Z5.073
X59.617 Z5.103
X60.341 Z5.071
X61.206 Z5.026
X61.753 Z5.016
X62.569 Z5.01
X63.106 Z4.973
X64.145 Z4.944
X65.466 Z4.881
X66.859 Z4.894
X67.396 Z4.859
X68.326 Z4.841
X69.363 Z4.881
X69.853 Z4.917
X71.892 Z5.099
X73.137 Z5.181
X73.5 Z5.226
X74.47 Z5.314
X75.16 Z5.361
X77.229 Z5.506
X78.104 Z5.566
X80.516 Z5.785
X81.878 Z5.975
X83.134 Z6.2
X83.757 Z6.305
X84.589 Z6.401
X85.01 Z6.437
X85.028 Z6.442
X85.05 Z6.447
X85.067 Y6.444
X85.083 Y6.449 Z6.445
X85.098 Y6.458 Z6.443
X85.11 Y6.47 Z6.44
X85.119 Y6.484 Z6.437
X85.125 Y6.5 Z6.433
X85.127 Y6.517 Z6.429
X85.125 Y6.533 Z6.426
X85.119 Y6.549 Z6.422
X85.11 Y6.564 Z6.419
X85.098 Y6.575 Z6.416
X85.083 Y6.584 Z6.414
X85.067 Y6.59 Z6.412
X85.05 Y6.592
X85.028 Z6.407
X85.01 Z6.402
X84.697 Z6.376
X83.914 Z6.282
X83.265 Z6.168
X82.105 Z5.958
X81.258 Z5.826
X80.727 Z5.756
X80.51 Z5.735
X80.255 Z5.707
X79.787 Z5.673
X78.171 Z5.527
X77.46 Z5.482
X76.765 Z5.444
X75.07 Z5.332
X74.153 Z5.271
X73.614 Z5.221
X73.193 Z5.185
X72.003 Z5.107
X69.858 Z4.912
X69.422 Z4.887
X68.454 Z4.853
X67.524 Z4.867
X67.042 Z4.894
X66.823 Z4.904
X65.692 Z4.897
X65.406 Z4.9
X64.148 Z4.958
X63.109 Z4.989
X62.572 Z5.029
X61.794 Z5.035
X60.973 Z5.06
X59.723 Z5.137
X59.242 Z5.1
X58.705 Z5.128
X58.184 Z5.198
X57.326 Z5.275
X55.857 Z5.447
X55.587 Z5.459
X54.985 Z5.47
X54.281 Z5.429
X54.138 Z5.407
X53.315 Z5.53
X52.983 Z5.572
X52.097 Z5.615
X51.321 Z5.601
X50.738 Z5.516
X50.629 Z5.514
X50.431 Z5.564
X50.194 Z5.602
X49.731 Z5.6
X49.294 Z5.58
X48.423 Z5.492
X47.022 Z5.588
X46.301 Z5.582
X45.993 Z5.542
X45.887 Z5.521
X45.73 Z5.481
X45.303 Z5.538
X44.661 Z5.545
X44.332 Z5.54
X43.881 Z5.56
X42.623 Z5.538
X41.438 Z5.46
X40.686 Z5.399
X40.2 Z5.348
X40.093 Z5.355
X39.998 Z5.371
X39.838 Z5.385
X38.976 Z5.394
X38.119 Z5.298
X36.146 Z5.105
X35.428 Z5.066
X34.769 Z5.093
X33.949 Z5.097
X32.8 Z5.071
X32.542 Z5.045
X31.288 Z4.879
X31.051 Z4.84
X30.273 Z4.654
X29.76 Z4.543
X29.341 Z4.452
X28.091 Z4.265
X27.631 Z4.19
X27.181 Z4.071
X26.772 Z3.98
X26.067 Z3.797
X25.605 Z3.717
X25.391 Z3.729
X24.102 Z3.596
X24.023 Z3.591
X20.461 Z3.134
X19.942 Z3.058
X19.633 Z3.023
X18.902 Z2.914
X18.208 Z2.839
X16.076 Z2.729
X13.779 Z2.68
X10.389 Z2.645
X4.357 Z2.655
X-0.01 Z2.672
X-0.032 Z2.677
X-0.033 Z2.678
X-0.055 Z2.683
X-0.088 Y6.599
X-0.114 Y6.62
X-0.128 Y6.65
Y6.683
X-0.114 Y6.714
X-0.088 Y6.734
X-0.055 Y6.742
X-0.054
X-0.032 Z2.678
X-0.01 Z2.672
X4.442 Z2.655
X10.363 Z2.645
X13.535 Z2.678
X15.997 Z2.726
X18.238 Z2.842
X18.931 Z2.919
X19.567 Z3.012
X20.596 Z3.158
X24.06 Z3.613
X25.432 Z3.756
X25.697 Z3.752
X25.896 Z3.789
X26.202 Z3.834
X26.608 Z3.934
X27.133 Z4.046
X27.734 Z4.205
X29.195 Z4.43
X29.5 Z4.484
X30.328 Z4.66
X30.942 Z4.806
X31.247 Z4.869
X31.543 Z4.92
X32.169 Z5.006
X32.839 Z5.094
X34.151 Z5.126
X34.862 Z5.123
X35.512 Z5.092
X36.349 Z5.154
X37.833 Z5.306
X38.211 Z5.333
X39.044 Z5.428
X39.865 Z5.419
X40.142 Z5.379
X40.791 Z5.445
X41.338 Z5.482
X42.632 Z5.57
X43.945 Z5.592
X44.382 Z5.571
X44.624 Z5.569
X45.307 Z5.563
X45.76 Z5.506
X45.905 Z5.543
X46.154 Z5.583
X46.456 Z5.61
X47.003 Z5.618
X47.927 Z5.554
X48.365 Z5.532
X48.529 Z5.538
X49.261 Z5.61
X49.638 Z5.628
X50.237 Z5.626
X50.396 Z5.598
X50.641 Z5.537
X50.999 Z5.587
X51.356 Z5.636
X52.16 Z5.643
X52.598 Z5.619
X53.021 Z5.593
X53.551 Z5.513
X53.75 Z5.474
X53.953 Z5.439
X54.305 Z5.474
X54.973 Z5.505
X55.616 Z5.485
X55.886 Z5.47
X57.249 Z5.311
X58.323 Z5.215
X58.631 Z5.174
X59.279 Z5.136
X59.545 Z5.157
X59.764 Z5.164
X61.178 Z5.077
X61.835 Z5.054
X62.52 Z5.048
X63.221 Z4.997
X64.151 Z4.973
X65.48 Z4.911
X66.136 Z4.915
X66.842
X67.06 Z4.903
X67.597 Z4.877
X68.582 Z4.864
X69.935 Z4.913
X72.15 Z5.117
X73.799 Z5.224
X76.624 Z5.405
X78.255 Z5.49
X79.646 Z5.614
X80.244 Z5.649
X80.608 Z5.698
X80.825 Z5.717
X81.252 Z5.767
X82.098 Z5.902
X83.469 Z6.15
X84.081 Z6.26
X84.709 Z6.338
X85.01 Z6.367
X85.027 Z6.372
X85.049 Z6.377
X85.066 Y6.744 Z6.376
X85.083 Y6.749 Z6.375
X85.097 Y6.758 Z6.373
X85.11 Y6.77 Z6.37
X85.119 Y6.784 Z6.367
X85.124 Y6.8 Z6.363
X85.126 Y6.817 Z6.359
X85.124 Y6.833 Z6.355
X85.119 Y6.849 Z6.352
X85.11 Y6.864 Z6.348
X85.097 Y6.875 Z6.345
X85.083 Y6.884 Z6.343
X85.066 Y6.89 Z6.342
X85.049 Y6.892
X85.048
X85.026 Z6.336
X85.01 Z6.332
X84.662 Z6.292
X84.222 Z6.232
X82.228 Z5.869
X81.171 Z5.699
X80.629 Z5.652
X80.16 Z5.587
X79.347 Z5.54
X78.387 Z5.456
X76.423 Z5.366
X74.181 Z5.234
X73.695 Z5.211
X72.492 Z5.139
X72.218 Z5.129
X71.759 Z5.076
X70.039 Z4.917
X68.71 Z4.875
X67.616 Z4.888
X67.069 Z4.912
X66.806 Z4.926
X66.143 Z4.928
X65.596 Z4.926
X63.989 Z4.991
X63.224 Z5.012
X62.469 Z5.067
X61.82 Z5.074
X61.34 Z5.094
X60.137 Z5.174
X59.754 Z5.19
X59.481 Z5.185
X59.273 Z5.174
X58.557 Z5.22
X58.355 Z5.243
X57.275 Z5.334
X55.913 Z5.494
X55.697 Z5.507
X54.858 Z5.539
X54.284 Z5.515
X53.867 Z5.476
X53.689 Z5.484
X53.323 Z5.564
X52.91 Z5.626
X52.017 Z5.673
X51.268 Z5.662
X50.801 Z5.591
X50.634 Z5.565
X50.373 Z5.63
X50.187 Z5.656
X49.51 Z5.655
X49.236 Z5.64
X48.659 Z5.585
X48.386 Z5.568
X47.85 Z5.593
X46.975 Z5.648
X46.135 Z5.594
X46.009 Z5.58
X45.757 Z5.535
X45.347 Z5.587
X44.502 Z5.599
X43.955 Z5.623
X42.642 Z5.603
X40.702 Z5.47
X40.127 Z5.408
X39.836 Z5.456
X39.092 Z5.461
X38.266 Z5.365
X37.664 Z5.327
X36.395 Z5.19
X35.528 Z5.122
X34.954 Z5.154
X34.353 Z5.156
X32.894 Z5.118
X31.654 Z4.939
X30.887 Z4.784
X30.376 Z4.665
X29.327 Z4.448
X27.844 Z4.217
X27.089 Z4.021
X26.866 Z3.969
X26.707 Z3.96
X26.466 Z3.903
X26.362 Z3.877
X25.998 Z3.823
X25.856 Z3.799
X25.507 Z3.783
X24.035 Z3.629
X23.111 Z3.505
X21.966 Z3.343
X20.807 Z3.192
X19.863 Z3.056
X19.015 Z2.929
X18.269 Z2.846
X15.922 Z2.723
X13.461 Z2.677
X10.343 Z2.645
X4.527 Z2.655
X-0.01 Z2.673
X-0.032 Z2.678
X-0.033 Z2.679
X-0.055 Z2.684
X-0.088 Y6.899
X-0.114 Y6.92
X-0.128 Y6.95
Y6.983
X-0.114 Y7.014
X-0.088 Y7.034
X-0.055 Y7.042
X-0.054
X-0.032 Z2.679
X-0.01 Z2.674
X4.612 Z2.655
X10.348 Z2.646
X13.411 Z2.676
X15.872 Z2.721
X18.168 Z2.842
X19.064 Z2.937
X20.184 Z3.108
X20.951 Z3.217
X21.897 Z3.341
X23.933 Z3.636
X25.671 Z3.822
X25.89 Z3.833
X26.21 Z3.876
X26.503 Z3.912
X26.658 Z3.954
X27.002 Z3.982
X27.719 Z4.159
X28.062 Z4.246
X29.386 Z4.453
X29.941 Z4.569
X30.82 Z4.76
X31.903 Z4.978
X32.687 Z5.093
X33.063 Z5.145
X34.511 Z5.185
X35.004
X35.596 Z5.153
X36.123 Z5.198
X37.447 Z5.342
X38.318 Z5.398
X39.155 Z5.495
X39.804 Z5.489
X40.111 Z5.441
X40.716 Z5.506
X42.676 Z5.638
X43.168 Z5.646
X43.923 Z5.662
X44.183 Z5.65
X44.843 Z5.62
X45.389 Z5.609
X45.758 Z5.562
X46.049 Z5.618
X46.796 Z5.679
X47.067 Z5.685
X47.833 Z5.634
X48.372 Z5.607
X48.768 Z5.631
X49.238 Z5.674
X49.402 Z5.682
X50.222 Z5.681
X50.434 Z5.643
X50.63 Z5.591
X50.805 Z5.627
X51.241 Z5.692
X51.973 Z5.702
X52.813 Z5.656
X53.078 Z5.617
X53.485 Z5.527
X53.785 Z5.528
X54.207 Z5.549
X54.531 Z5.568
X55.064 Z5.566
X55.778 Z5.529
X55.939 Z5.517
X57.195 Z5.37
X58.111 Z5.291
X59.314 Z5.209
X59.412 Z5.213
X59.85 Z5.216
X60.616 Z5.175
X61.435 Z5.115
X61.806 Z5.095
X62.444 Z5.086
X63.237 Z5.028
X63.992 Z5.005
X65.414 Z4.946
X65.658 Z4.943
X66.15 Z4.94
X66.805 Z4.937
X67.014 Z4.925
X67.671 Z4.899
X68.874 Z4.885
X70.167 Z4.924
X71.718 Z5.069
X71.968 Z5.102
X72.218 Z5.133
X72.711 Z5.148
X73.853 Z5.215
X74.947 Z5.257
X76.369 Z5.339
X78.552 Z5.429
X79.082 Z5.47
X80.17 Z5.531
X80.488 Z5.582
X80.691 Z5.61
X81.339 Z5.668
X82.291 Z5.825
X84.285 Z6.187
X84.901 Z6.271
X85.01 Z6.279
X85.029 Z6.284
X85.051 Z6.289
X85.066 Y7.043 Z6.288
X85.081 Y7.047 Z6.287
X85.095 Y7.054 Z6.284
X85.108 Y7.064 Z6.28
X85.118 Y7.075 Z6.276
X85.125 Y7.088 Z6.271
X85.13 Y7.102 Z6.265
X85.131 Y7.117 Z6.26
X85.13 Y7.131 Z6.254
X85.125 Y7.145 Z6.248
X85.118 Y7.158 Z6.243
X85.108 Y7.17 Z6.239
X85.095 Y7.179 Z6.235
X85.081 Y7.186 Z6.232
X85.066 Y7.19 Z6.231
X85.051 Y7.192 Z6.23
X85.049
X85.027 Z6.225
X85.01 Z6.22
X84.698 Z6.191
X84.284 Z6.133
X82.397 Z5.788
X81.444 Z5.635
X80.638 Z5.555
X80.065 Z5.468
X78.862 Z5.413
X76.456 Z5.321
X75.585 Z5.276
X73.835 Z5.208
X72.966 Z5.158
X72.255 Z5.14
X71.925 Z5.104
X71.701 Z5.063
X70.317 Z4.932
X69.096 Z4.894
X67.674 Z4.911
X66.89 Z4.944
X65.611 Z4.958
X63.995 Z5.02
X63.339 Z5.036
X62.42 Z5.105
X61.792 Z5.115
X60.502 Z5.211
X59.9 Z5.242
X59.321 Z5.247
X58.422 Z5.294
X57.135 Z5.403
X55.868 Z5.55
X55.223 Z5.584
X54.95 Z5.598
X54.28 Z5.599
X53.445 Z5.572
X53.16 Z5.594
X52.954 Z5.649
X52.69 Z5.688
X51.875 Z5.73
X51.213 Z5.723
X50.816 Z5.663
X50.606 Z5.62
X50.432 Z5.667
X50.307 Z5.697
X50.202 Z5.709
X49.327 Z5.711
X48.355 Z5.645
X47.652 Z5.686
X47.105 Z5.721
X46.722 Z5.717
X46.144 Z5.668
X45.89 Z5.62
X45.759 Z5.59
X45.484 Z5.626
X45.377 Z5.636
X45.161 Z5.643
X44.765 Z5.653
X44.082 Z5.696
X43.754 Z5.7
X43.436 Z5.683
X42.671 Z5.669
X40.71 Z5.541
X40.104 Z5.472
X39.765 Z5.523
X39.22 Z5.529
X38.373 Z5.43
X37.236 Z5.358
X36.619 Z5.286
X36.205 Z5.232
X35.665 Z5.189
X34.999 Z5.216
X34.562 Z5.21
X33.304 Z5.174
X33.065 Z5.156
X32.1 Z5.008
X30.811 Z4.749
X29.586 Z4.481
X28.268 Z4.272
X27.513 Z4.089
X27.21 Z4.017
X26.151 Z3.891
X25.733 Z3.851
X24.044 Z3.665
X21.962 Z3.356
X21.122 Z3.246
X20.367 Z3.14
X19.141 Z2.947
X18.097 Z2.839
X15.801 Z2.719
X13.23 Z2.675
X10.387 Z2.646
X4.751 Z2.654
X-0.01 Z2.675
X-0.032 Z2.68
X-0.035 Z2.681
X-0.057 Z2.686
X-0.089 Y7.199
X-0.115 Y7.22
X-0.13 Y7.25
Y7.283
X-0.115 Y7.314
X-0.089 Y7.334
X-0.057 Y7.342
X-0.054
X-0.032 Z2.681
X-0.01 Z2.676
X4.89 Z2.654
X10.384 Z2.646
X13.174 Z2.674
X15.744 Z2.717
X17.275 Z2.796
X18.256 Z2.855
X19.099 Z2.944
X19.935 Z3.071
X20.559 Z3.173
X22.035 Z3.376
X24.24 Z3.706
X25.497 Z3.844
X26.742 Z3.985
X26.961 Z3.997
X27.361 Z4.042
X28.431 Z4.29
X29.595 Z4.478
X29.911 Z4.54
X30.798 Z4.732
X32.376 Z5.053
X33.168 Z5.177
X33.516 Z5.202
X34.88 Z5.244
X35.317 Z5.24
X35.776 Z5.224
X36.208 Z5.259
X37.079 Z5.378
X38.401 Z5.461
X39.286 Z5.563
X39.668 Z5.558
X39.829 Z5.547
X40.136 Z5.503
X40.63 Z5.566
X42.693 Z5.703
X43.185 Z5.712
X43.612 Z5.739
X43.995 Z5.74
X44.145 Z5.726
X44.582 Z5.699
X44.786 Z5.68
X45.278 Z5.667
X45.547 Z5.646
X45.759 Z5.617
X45.878 Z5.646
X46.236 Z5.718
X46.596 Z5.751
X47.143 Z5.757
X48.323 Z5.683
X49.247 Z5.74
X49.904 Z5.737
X50.283 Z5.729
X50.408 Z5.698
X50.581 Z5.649
X50.813 Z5.697
X51.175 Z5.751
X51.832 Z5.759
X52.68 Z5.708
X53.023 Z5.626
X53.132 Z5.616
X53.791 Z5.638
X55.008 Z5.628
X55.336 Z5.605
X55.872 Z5.575
X57.131 Z5.436
X57.389 Z5.41
X58.308 Z5.332
X59.12 Z5.283
X59.995 Z5.269
X60.915 Z5.205
X61.888 Z5.136
X62.376 Z5.124
X63.342 Z5.052
X63.943 Z5.036
X64.873 Z5.002
X65.618 Z4.973
X66.757 Z4.958
X67.676 Z4.923
X69.317 Z4.903
X70.36 Z4.933
X71.517 Z5.042
X71.895 Z5.106
X72.271 Z5.145
X73.199 Z5.168
X73.959 Z5.21
X78.608 Z5.376
X79.1 Z5.387
X80.139 Z5.433
X80.511 Z5.485
X80.81 Z5.525
X81.453 Z5.591
X82.512 Z5.752
X84.4 Z6.097
X84.579 Z6.122
X85.01 Z6.162
X85.027 Z6.166
X85.049 Z6.172
X85.065 Y7.343 Z6.171
X85.08 Y7.347 Z6.169
X85.094 Y7.354 Z6.167
X85.106 Y7.364 Z6.163
X85.116 Y7.375 Z6.158
X85.124 Y7.388 Z6.153
X85.128 Y7.402 Z6.148
X85.13 Y7.417 Z6.142
X85.128 Y7.431 Z6.136
X85.124 Y7.445 Z6.131
X85.116 Y7.458 Z6.126
X85.106 Y7.47 Z6.121
X85.094 Y7.479 Z6.118
X85.08 Y7.486 Z6.115
X85.065 Y7.49 Z6.113
X85.049 Y7.492
X85.027 Z6.108
X85.01 Z6.103
X84.591 Z6.065
X84.484 Z6.054
X84.282 Z6.021
X82.595 Z5.712
X81.535 Z5.555
X80.678 Z5.462
X80.371 Z5.413
X79.281 Z5.36
X78.734 Z5.354
X76.929 Z5.294
X76 Z5.276
X73.921 Z5.202
X73.435 Z5.178
X72.287 Z5.149
X72.083 Z5.13
X71.447 Z5.032
X70.528 Z4.94
X69.539 Z4.913
X67.734 Z4.933
X66.705 Z4.968
X65.368 Z4.996
X63.946 Z5.051
X63.454 Z5.063
X62.325 Z5.142
X62.037 Z5.152
X59.826 Z5.303
X58.896 Z5.32
X57.603 Z5.417
X57.293 Z5.459
X56.334 Z5.55
X55.892 Z5.6
X55.274 Z5.641
X55.001 Z5.658
X53.36 Z5.679
X52.91 Z5.662
X52.651 Z5.723
X52.493 Z5.745
X51.788 Z5.787
X51.132 Z5.777
X50.822 Z5.733
X50.622 Z5.693
X50.557 Z5.678
X50.309 Z5.751
X50.152 Z5.765
X49.208 Z5.769
X48.563 Z5.736
X48.305 Z5.722
X47.177 Z5.793
X46.521 Z5.789
X46.319 Z5.766
X45.912 Z5.698
X45.758 Z5.644
X45.552 Z5.671
X45.284 Z5.693
X44.791 Z5.709
X44.696 Z5.724
X44.536 Z5.737
X44.207 Z5.756
X44.003 Z5.78
X43.511 Z5.782
X42.919 Z5.742
X42.648 Z5.732
X40.672 Z5.603
X40.161 Z5.535
X39.72 Z5.588
X39.364 Z5.595
X39.012 Z5.556
X38.48 Z5.495
X37.13 Z5.411
X36.145 Z5.28
X35.903 Z5.259
X35.136 Z5.276
X33.831 Z5.236
X33.264 Z5.197
X32.695 Z5.107
X32.484 Z5.069
X31.971 Z4.958
X31.036 Z4.766
X30.629 Z4.678
X30.219 Z4.597
X29.705 Z4.492
X28.656 Z4.32
X27.556 Z4.074
X27.135 Z4.03
X26.752 Z4.013
X24.299 Z3.728
X22.684 Z3.479
X20.75 Z3.206
X20.267 Z3.123
X19.112 Z2.946
X18 Z2.837
X15.764 Z2.718
X13.194 Z2.675
X10.35 Z2.646
X4.975 Z2.654
X-0.01 Z2.678
X-0.032 Z2.683
X-0.035 Z2.684
X-0.057 Z2.69
X-0.09 Y7.499
X-0.116 Y7.52
X-0.13 Y7.55
Y7.583
X-0.116 Y7.614
X-0.09 Y7.634
X-0.057 Y7.642
X-0.054
X-0.032 Z2.684
X-0.01 Z2.679
X5.223 Z2.654
X10.435 Z2.647
X13.497 Z2.678
X15.849 Z2.722
X17.976 Z2.838
X19.036 Z2.94
X20.403 Z3.144
X20.919 Z3.235
X23.031 Z3.539
X24.433 Z3.761
X26.768 Z4.042
X27.37 Z4.065
X27.837 Z4.116
X28.18 Z4.193
X28.893 Z4.348
X29.833 Z4.507
X30.833 Z4.695
X31.309 Z4.809
X32.278 Z5.007
X32.568 Z5.081
X33.381 Z5.221
X34.033 Z5.263
X35.236 Z5.303
X36.002 Z5.294
X36.127 Z5.305
X37.157 Z5.44
X37.919 Z5.487
X38.489 Z5.525
X39.318 Z5.616
X39.688 Z5.621
X40.186 Z5.567
X40.612 Z5.626
X42.027 Z5.723
X43.533 Z5.819
X44.026
X44.132 Z5.808
X44.227 Z5.793
X44.5 Z5.774
X44.661 Z5.76
X44.811 Z5.737
X45.303 Z5.719
X45.41 Z5.712
X45.718 Z5.673
X45.804 Z5.708
X45.929 Z5.746
X46.453 Z5.824
X47.246 Z5.83
X48.307 Z5.76
X49.371 Z5.802
X50.082 Z5.8
X50.241 Z5.788
X50.469 Z5.725
X50.544 Z5.712
X50.703 Z5.745
X51.004 Z5.795
X51.711 Z5.816
X52.41 Z5.771
X52.675 Z5.728
X52.778 Z5.705
X53.024 Z5.716
X55.02 Z5.687
X56.045 Z5.61
X57.383 Z5.487
X57.691 Z5.439
X58.821 Z5.353
X59.636 Z5.337
X60.228 Z5.298
X62.315 Z5.161
X63.566 Z5.074
X63.949 Z5.065
X65.371 Z5.01
X66.562 Z4.982
X67.792 Z4.943
X69.706 Z4.922
X70.63 Z4.945
X71.27 Z5.01
X72.098 Z5.131
X72.301 Z5.154
X73.559 Z5.185
X74.374 Z5.216
X76.452 Z5.276
X77.436 Z5.286
X78.749 Z5.328
X79.46 Z5.333
X80.444 Z5.382
X80.808 Z5.43
X81.662 Z5.524
X82.909 Z5.711
X84.484 Z5.994
X84.591 Z6.006
X85.01 Z6.044
X85.027 Z6.049
X85.049 Z6.054
X85.05
X85.065 Y7.643
X85.08 Y7.647 Z6.052
X85.094 Y7.654 Z6.049
X85.107 Y7.664 Z6.046
X85.117 Y7.675 Z6.041
X85.124 Y7.688 Z6.036
X85.129 Y7.702 Z6.031
X85.13 Y7.717 Z6.025
X85.129 Y7.731 Z6.019
X85.124 Y7.745 Z6.014
X85.117 Y7.758 Z6.009
X85.107 Y7.77 Z6.004
X85.094 Y7.779 Z6
X85.08 Y7.786 Z5.998
X85.065 Y7.79 Z5.996
X85.05 Y7.792
X85.028 Z5.99
X85.01 Z5.986
X84.698 Z5.958
X84.495 Z5.933
X83.135 Z5.688
X82.824 Z5.648
X81.764 Z5.49
X80.559 Z5.355
X79.629 Z5.305
X78.754 Z5.301
X77.933 Z5.277
X76.566 Z5.266
X73.23 Z5.183
X72.314 Z5.159
X71.59 Z5.052
X71.284 Z5.005
X70.643 Z4.945
X69.928 Z4.931
X67.904 Z4.949
X66.318 Z5.002
X65.17 Z5.033
X63.912 Z5.081
X63.538 Z5.096
X62.078 Z5.197
X60.129 Z5.327
X59.527 Z5.37
X58.871 Z5.381
X57.855 Z5.453
X57.547 Z5.499
X57.173 Z5.538
X55.715 Z5.667
X55.059 Z5.717
X52.926 Z5.752
X52.648 Z5.741
X52.281 Z5.802
X51.678 Z5.844
X50.933 Z5.819
X50.725 Z5.784
X50.562 Z5.746
X50.447 Z5.753
X50.242 Z5.813
X50.137 Z5.826
X50.03 Z5.834
X49.484
X48.455 Z5.798
X48.097 Z5.804
X47.259 Z5.863
X46.449 Z5.857
X45.924 Z5.788
X45.783 Z5.744
X45.677 Z5.7
X45.369 Z5.742
X44.824 Z5.765
X44.623 Z5.796
X44.517 Z5.809
X44.298 Z5.822
X44.097 Z5.853
X43.909 Z5.86
X43.554 Z5.85
X42.428 Z5.777
X40.678 Z5.663
X40.326 Z5.616
X40.203 Z5.599
X39.703 Z5.649
X39.318 Z5.639
X38.519 Z5.551
X38.039 Z5.518
X37.662 Z5.5
X37.176 Z5.468
X36.101 Z5.329
X35.445 Z5.341
X35.032 Z5.31
X33.941 Z5.265
X33.504 Z5.237
X33.313 Z5.209
X32.69 Z5.099
X32.585 Z5.073
X32.39 Z5.016
X31.654 Z4.867
X31.154 Z4.746
X30.864 Z4.67
X30.022 Z4.515
X29.513 Z4.441
X28.995 Z4.351
X28.074 Z4.153
X27.733 Z4.116
X27.045 Z4.089
X26.767 Z4.062
X25.406 Z3.894
X24.555 Z3.791
X23.19 Z3.571
X21.185 Z3.282
X21.09 Z3.267
X20.574 Z3.172
X19.101 Z2.948
X17.923 Z2.835
X16.063 Z2.733
X14.805 Z2.699
X10.594 Z2.648
X5.472 Z2.653
X-0.01 Z2.681
X-0.032 Z2.686
X-0.035 Z2.688
X-0.057 Z2.693
X-0.09 Y7.799
X-0.116 Y7.82
X-0.13 Y7.85
Y7.883
X-0.116 Y7.914
X-0.09 Y7.934
X-0.057 Y7.942
X-0.054
X-0.032 Z2.688
X-0.01 Z2.683
X6.596 Z2.649
X11.059 Z2.65
X15.052 Z2.704
X16.255 Z2.742
X17.896 Z2.831
X19.008 Z2.939
X20.798 Z3.21
X20.997 Z3.257
X21.41 Z3.324
X23.192 Z3.582
X24.758 Z3.833
X25.715 Z3.952
X26.757 Z4.081
X27.335 Z4.135
X27.658 Z4.149
X27.943 Z4.172
X28.349 Z4.189
X29.169 Z4.368
X29.854 Z4.461
X30.489 Z4.559
X31.012 Z4.672
X31.414 Z4.782
X31.798 Z4.88
X32.415 Z5.008
X32.751 Z5.103
X33.363 Z5.212
X33.72 Z5.254
X34.04 Z5.276
X34.693 Z5.303
X35.57 Z5.379
X36.184 Z5.366
X37.181 Z5.494
X37.943 Z5.544
X38.162 Z5.547
X38.624 Z5.583
X38.983 Z5.623
X39.394 Z5.669
X39.722 Z5.667
X40.189 Z5.626
X40.545 Z5.68
X40.757 Z5.694
X42.882 Z5.834
X43.523 Z5.878
X44.029 Z5.893
X44.271 Z5.866
X44.476 Z5.846
X44.797 Z5.8
X45.294 Z5.775
X45.651 Z5.725
X45.784 Z5.784
X45.931 Z5.828
X46.447 Z5.891
X47.124 Z5.892
X47.606 Z5.861
X48.372 Z5.831
X49.197 Z5.856
X49.553 Z5.865
X49.963 Z5.868
X50.202 Z5.845
X50.407 Z5.787
X50.566 Z5.78
X50.669 Z5.806
X50.859 Z5.842
X51.597 Z5.872
X52.224 Z5.832
X52.573 Z5.768
X52.892 Z5.79
X53.193 Z5.786
X55.052 Z5.747
X55.654 Z5.703
X57.166 Z5.569
X57.698 Z5.509
X58.009 Z5.468
X58.861 Z5.412
X59.353 Z5.404
X60.228 Z5.341
X62.281 Z5.207
X63.255 Z5.136
X63.902 Z5.096
X65.05 Z5.052
X66.691 Z5.01
X67.992 Z4.956
X70.125 Z4.941
X70.842 Z4.954
X71.375 Z5.008
X71.681 Z5.063
X72.2 Z5.141
X72.42 Z5.168
X74.58 Z5.208
X76.659 Z5.256
X78.682 Z5.272
X79.776 Z5.283
X80.815 Z5.338
X81.88 Z5.458
X82.929 Z5.615
X83.346 Z5.665
X84.496 Z5.871
X84.805 Z5.91
X85.01 Z5.927
X85.028 Z5.932
X85.05 Z5.937
X85.066 Y7.943 Z5.936
X85.081 Y7.947 Z5.935
X85.095 Y7.954 Z5.932
X85.107 Y7.964 Z5.928
X85.117 Y7.975 Z5.924
X85.124 Y7.988 Z5.919
X85.129 Y8.002 Z5.913
X85.13 Y8.017 Z5.908
X85.129 Y8.031 Z5.902
X85.124 Y8.045 Z5.896
X85.117 Y8.058 Z5.891
X85.107 Y8.07 Z5.887
X85.095 Y8.079 Z5.883
X85.081 Y8.086 Z5.88
X85.066 Y8.09 Z5.879
X85.05 Y8.092 Z5.878
X85.028 Z5.873
X85.01 Z5.868
X84.805 Z5.85
X84.449 Z5.801
X83.569 Z5.643
X83.195 Z5.597
X83.031 Z5.582
X81.982 Z5.425
X81.023 Z5.326
X79.932 Z5.269
X77.581 Z5.253
X76.706 Z5.244
X73.971 Z5.202
X72.494 Z5.166
X72.179 Z5.136
X71.776 Z5.074
X71.365 Z5.001
X70.939 Z4.957
X70.286 Z4.941
X68.81 Z4.957
X68.044 Z4.964
X66.688 Z5.022
X66.36 Z5.037
X64.993 Z5.068
X63.689 Z5.124
X62.336 Z5.229
X60.392 Z5.351
X59.189 Z5.437
X58.756 Z5.45
X58.045 Z5.495
X56.937 Z5.62
X55.53 Z5.743
X55.094 Z5.776
X52.879 Z5.822
X52.489 Z5.798
X52.172 Z5.862
X51.54 Z5.902
X50.783 Z5.865
X50.554 Z5.815
X50.403 Z5.813
X50.148 Z5.879
X49.99 Z5.896
X49.828 Z5.903
X49.281 Z5.885
X48.844 Z5.875
X48.483 Z5.866
X47.827 Z5.884
X46.962 Z5.921
X46.446 Z5.925
X45.912 Z5.86
X45.727 Z5.797
X45.616 Z5.753
X45.271 Z5.809
X44.822 Z5.826
X44.427 Z5.884
X44.149 Z5.908
X43.848 Z5.921
X43.497 Z5.906
X41.547 Z5.77
X40.726 Z5.721
X40.514 Z5.707
X40.181 Z5.656
X39.79 Z5.685
X39.352 Z5.69
X38.788 Z5.617
X38.197 Z5.576
X37.9 Z5.57
X37.26 Z5.527
X36.643 Z5.45
X36.231 Z5.397
X35.743 Z5.419
X34.418 Z5.299
X34.04 Z5.281
X33.357 Z5.204
X32.968 Z5.129
X32.56 Z5.035
X32.365 Z4.984
X31.941 Z4.892
X31.162 Z4.674
X31.017 Z4.648
X30.561 Z4.592
X30.062 Z4.466
X29.877 Z4.44
X29.505 Z4.393
X29.069 Z4.317
X28.865 Z4.274
X28.49 Z4.244
X28.167 Z4.229
X27.754 Z4.191
X26.799 Z4.107
X25.921 Z3.997
X24.763 Z3.846
X23.208 Z3.594
X21.638 Z3.367
X20.886 Z3.242
X20.605 Z3.188
X19.123 Z2.954
X17.864 Z2.828
X16.442 Z2.752
X15.075 Z2.704
X11.082 Z2.65
X6.735 Z2.648
X0.063 Z2.683
X-0.01 Z2.684
X-0.031 Z2.689
X-0.035 Z2.691
X-0.057 Z2.696
X-0.089 Y8.099
X-0.115 Y8.12
X-0.13 Y8.15
Y8.183
X-0.115 Y8.214
X-0.089 Y8.234
X-0.057 Y8.242
X-0.053
X-0.031 Z2.691
X-0.01 Z2.686
X0.148 Z2.683
X6.82 Z2.648
X11.001 Z2.65
X15.048 Z2.704
X16.525 Z2.757
X17.837 Z2.825
X19.012 Z2.942
X20.903 Z3.252
X21.951 Z3.423
X23.626 Z3.671
X24.921 Z3.882
X26.552 Z4.097
X27.066 Z4.153
X28.376 Z4.285
X28.644 Z4.299
X29.275 Z4.356
X30.21 Z4.537
X30.566 Z4.62
X31.128 Z4.698
X31.345 Z4.718
X31.544 Z4.742
X32.127 Z4.909
X32.569 Z5.018
X33.327 Z5.188
X34.097 Z5.281
X34.293 Z5.309
X34.556 Z5.338
X35.826 Z5.452
X36.26 Z5.428
X36.819 Z5.496
X37.546 Z5.573
X37.967 Z5.602
X38.295 Z5.605
X38.892 Z5.648
X39.416 Z5.714
X40.223 Z5.685
X40.484 Z5.734
X40.86 Z5.755
X42.11 Z5.834
X43.258 Z5.915
X43.754 Z5.949
X44.489 Z5.912
X44.838 Z5.854
X45.111 Z5.844
X45.319 Z5.833
X45.472 Z5.796
X45.578 Z5.781
X45.951 Z5.904
X46.444 Z5.959
X46.962 Z5.956
X47.829 Z5.918
X48.485 Z5.902
X48.859 Z5.906
X49.462 Z5.917
X49.854 Z5.933
X50.16 Z5.902
X50.399 Z5.838
X50.554 Z5.849
X50.64 Z5.864
X50.83 Z5.905
X51.48 Z5.932
X52.113 Z5.893
X52.243 Z5.869
X52.441 Z5.821
X52.807 Z5.851
X55.104 Z5.806
X55.322 Z5.79
X56.839 Z5.659
X58.109 Z5.518
X59.034 Z5.471
X60.828 Z5.341
X62.299 Z5.253
X62.846 Z5.216
X63.114 Z5.189
X63.856 Z5.131
X65.169 Z5.077
X66.317 Z5.056
X66.7 Z5.032
X68.111 Z4.972
X68.822 Z4.964
X70.408 Z4.943
X71.035 Z4.961
X71.354 Z4.993
X72.061 Z5.116
X72.595 Z5.166
X72.978 Z5.179
X73.962 Z5.205
X76.958 Z5.243
X80.042 Z5.253
X81.242 Z5.314
X82.262 Z5.417
X83.067 Z5.538
X83.279 Z5.557
X83.758 Z5.617
X84.486 Z5.745
X84.805 Z5.788
X85.01 Z5.809
X85.027 Z5.814
X85.049 Z5.819
X85.05
X85.065 Y8.243
X85.081 Y8.247 Z5.817
X85.095 Y8.254 Z5.814
X85.107 Y8.264 Z5.81
X85.117 Y8.275 Z5.805
X85.125 Y8.288 Z5.799
X85.13 Y8.302 Z5.793
X85.131 Y8.317 Z5.787
X85.13 Y8.331 Z5.781
X85.125 Y8.345 Z5.775
X85.117 Y8.358 Z5.769
X85.107 Y8.37 Z5.764
X85.095 Y8.379 Z5.76
X85.081 Y8.386 Z5.757
X85.065 Y8.39 Z5.755
X85.05 Y8.392
X85.028 Z5.749
X85.01 Z5.745
X84.805 Z5.726
X84.497 Z5.684
X83.98 Z5.595
X83.449 Z5.523
X83.124 Z5.498
X82.446 Z5.396
X81.889 Z5.343
X81.462 Z5.302
X80.152 Z5.238
X77.209 Z5.233
X76.991 Z5.239
X75.679 Z5.227
X73.983 Z5.209
X73.327 Z5.186
X72.78 Z5.172
X72.035 Z5.107
X71.269 Z4.978
X70.939 Z4.96
X70.622 Z4.943
X68.725 Z4.972
X68.178 Z4.98
X66.712 Z5.042
X66.22 Z5.076
X65.126 Z5.095
X63.978 Z5.142
X63.221 Z5.197
X62.806 Z5.243
X62.314 Z5.276
X61.663 Z5.309
X60.263 Z5.406
X58.796 Z5.51
X57.926 Z5.558
X56.659 Z5.706
X55.143 Z5.839
X53.433 Z5.872
X52.722 Z5.878
X52.369 Z5.85
X52.135 Z5.912
X51.704 Z5.947
X51.403 Z5.96
X50.829 Z5.939
X50.579 Z5.882
X50.399 Z5.864
X50.079 Z5.941
X49.867 Z5.958
X49.293 Z5.947
X48.651 Z5.936
X47.831 Z5.951
X47.018 Z5.992
X46.437 Z5.993
X45.952 Z5.94
X45.711 Z5.861
X45.56 Z5.806
X45.46 Z5.821
X45.264 Z5.87
X44.884 Z5.883
X44.577 Z5.938
X43.69 Z5.974
X42.244 Z5.868
X40.885 Z5.784
X40.461 Z5.757
X40.239 Z5.714
X39.469 Z5.737
X38.957 Z5.676
X38.355 Z5.633
X37.979 Z5.63
X37.289 Z5.566
X36.713 Z5.508
X36.359 Z5.467
X36.253 Z5.461
X35.855 Z5.479
X35.335 Z5.435
X34.593 Z5.365
X34.204 Z5.29
X34.005 Z5.25
X33.473 Z5.188
X33.366 Z5.17
X32.505 Z4.977
X31.868 Z4.806
X31.254 Z4.749
X30.638 Z4.663
X29.807 Z4.505
X29.1 Z4.381
X28.483 Z4.331
X26.74 Z4.14
X25.061 Z3.916
X23.861 Z3.72
X22.102 Z3.453
X19.691 Z3.056
X18.95 Z2.938
X17.776 Z2.82
X16.518 Z2.758
X14.932 Z2.702
X10.612 Z2.649
X6.412 Z2.651
X0.233 Z2.683
X-0.01 Z2.688
X-0.031 Z2.693
X-0.034 Z2.694
X-0.056 Z2.699
X-0.089 Y8.399
X-0.115 Y8.42
X-0.13 Y8.45
Y8.483
X-0.115 Y8.514
X-0.089 Y8.534
X-0.056 Y8.542
X-0.053
X-0.031 Z2.694
X-0.01 Z2.689
X0.262 Z2.684
X6.059 Z2.652
X10.401 Z2.648
X13.409 Z2.679
X15.214 Z2.71
X17.729 Z2.815
X18.531 Z2.895
X18.944 Z2.949
X19.263 Z2.994
X21.049 Z3.291
X22.32 Z3.495
X24.205 Z3.785
X25.189 Z3.947
X27.014 Z4.198
X28.997 Z4.419
X29.93 Z4.556
X30.751 Z4.711
X31.366 Z4.799
X32.225 Z4.882
X32.514 Z4.942
X32.781 Z5.011
X33.293 Z5.128
X33.494 Z5.168
X33.813 Z5.205
X34.232 Z5.292
X34.642 Z5.375
X34.927 Z5.423
X35.674 Z5.491
X35.936 Z5.506
X36.315 Z5.489
X36.625 Z5.527
X36.885 Z5.546
X37.355 Z5.591
X37.883 Z5.64
X38.375 Z5.661
X39.086 Z5.708
X39.462 Z5.755
X39.926 Z5.75
X40.254 Z5.744
X40.391 Z5.77
X40.555 Z5.788
X42.01 Z5.878
X43.158 Z5.959
X43.743 Z5.998
X44.671 Z5.964
X44.968 Z5.913
X45.238 Z5.903
X45.531 Z5.832
X45.805 Z5.925
X45.99 Z5.983
X46.437 Z6.027
X47.121
X47.769 Z5.988
X48.698 Z5.972
X49.883 Z5.982
X50.042 Z5.971
X50.399 Z5.889
X50.477 Z5.899
X50.686 Z5.94
X50.844 Z5.974
X51.364 Z5.991
X52.045 Z5.948
X52.302 Z5.878
X52.361 Z5.875
X52.676 Z5.908
X53.496 Z5.906
X54.426 Z5.882
X55.183 Z5.875
X55.29 Z5.869
X56.564 Z5.744
X57.83 Z5.593
X58.705 Z5.543
X60.282 Z5.431
X60.662 Z5.401
X61.679 Z5.33
X62.275 Z5.301
X62.712 Z5.274
X63.138 Z5.228
X63.671 Z5.182
X64.482 Z5.132
X65.084 Z5.114
X66.123 Z5.096
X66.725 Z5.053
X68.245 Z4.988
X69.175 Z4.973
X70.722 Z4.945
X71.262 Z4.971
X71.651 Z5.035
X72.184 Z5.109
X72.921 Z5.175
X73.303 Z5.186
X74.014 Z5.214
X75.764 Z5.23
X77.022 Z5.235
X77.513 Z5.221
X80.257 Z5.223
X81.622 Z5.288
X82.093 Z5.329
X82.614 Z5.373
X83.18 Z5.457
X83.553 Z5.485
X83.978 Z5.543
X84.496 Z5.621
X84.698 Z5.65
X85.01 Z5.679
X85.027 Z5.684
X85.049 Z5.689
X85.065 Y8.543
