(topo-surf-clearance-3.175mm-flat)
(Machine)
(  vendor: Autodesk)
(  model: Sainsmart 3018pro)
(  description: 3018)
G90 G94
G17
G21
(When using Fusion 360 for Personal Use, the feedrate of)
(rapid moves is reduced to match the feedrate of cutting)
(moves, which can increase machining time. Unrestricted rapid)
(moves are available with a Fusion 360 Subscription.)

(3mm Flat clear)
G54
G0 Z21.3 F1500
G0 X-0.303 Y-3.691
S5000 M3
G1 Z20.3 F300
Z17.435
F300.0
Z17.118
X-0.301 Y-3.683 Z17.047
X-0.295 Y-3.661 Z16.98
X-0.286 Y-3.624 Z16.92
X-0.273 Y-3.575 Z16.869
X-0.258 Y-3.517 Z16.831
X-0.242 Y-3.452 Z16.808
X-0.224 Y-3.384 Z16.8
G3 X0.024 Y-1.655 I-7.852 J2.011
G1 Y-1.537
X-0.449 Y-1.033
X-0.751 Y-0.411
X-0.918 Y0.26
X-1 Y0.947
X-1.036 Y1.638
X-1.051 Y2.329
X-1.057 Y3.021
X-1.06 Y3.713
X-1.061 Y5.788
X-1.043 Y48.67
X-1.033 Y73.916
X-0.953 Y74.252
X-0.796 Y74.56
X-0.366 Y75.102
X0.222 Y75.467
X0.88 Y75.68
X1.563 Y75.789
X2.252 Y75.84
X2.944 Y75.861
X3.635 Y75.87
X4.327 Y75.874
X5.71 Y75.875
X23.002 Y75.873
X73.492 Y75.864
X83.867 Y75.862
X84.213 Y75.849
X84.542 Y75.744
X84.84 Y75.568
X85.358 Y75.109
X85.699 Y74.508
X85.895 Y73.845
X85.994 Y73.16
X86.039 Y72.47
X86.058 Y71.779
X86.066 Y71.087
X86.07 Y70.395
X86.072 Y69.012
X86.076 Y37.196
X86.081 Y0.884
X85.995 Y0.549
X85.834 Y0.243
X85.398 Y-0.294
X84.807 Y-0.654
X84.148 Y-0.863
X83.465 Y-0.97
X82.775 Y-1.02
X82.084 Y-1.041
X81.392 Y-1.05
X80.7 Y-1.053
X79.317 Y-1.056
X73.092 Y-1.057
X22.601 Y-1.066
X1.852 Y-1.07
X1.507 Y-1.047
X1.175 Y-0.95
X0.868 Y-0.791
X0.321 Y-0.367
X-0.066 Y0.206
X-0.306 Y0.855
X-0.439 Y1.534
X-0.505 Y2.222
X-0.537 Y2.913
X-0.551 Y3.604
X-0.557 Y4.296
X-0.559 Y4.988
X-0.56 Y6.371
X-0.552 Y27.121
X-0.533 Y72.77
X-0.474 Y73.459
X-0.182 Y74.086
X0.3 Y74.582
X0.899 Y74.928
X1.556 Y75.143
X2.238 Y75.262
X2.927 Y75.323
X3.618 Y75.352
X4.309 Y75.365
X5.001 Y75.371
X5.692 Y75.374
X7.076 Y75.375
X53.417 Y75.367
X83.158 Y75.362
X83.499 Y75.303
X83.824 Y75.187
X84.426 Y74.845
X84.883 Y74.326
X85.192 Y73.707
X85.378 Y73.041
X85.479 Y72.357
X85.529 Y71.667
X85.553 Y70.976
X85.564 Y70.284
X85.568 Y69.593
X85.571 Y68.901
X85.572 Y66.826
X85.574 Y55.76
X85.58 Y5.269
X85.581 Y1.81
X85.513 Y1.471
X85.389 Y1.148
X85.035 Y0.554
X84.508 Y0.106
X83.884 Y-0.192
X83.216 Y-0.371
X82.531 Y-0.467
X81.841 Y-0.515
X81.15 Y-0.538
X80.458 Y-0.548
X79.767 Y-0.553
X79.075 Y-0.555
X76.308 Y-0.557
X39.651 Y-0.563
X2.993 Y-0.569
X2.301 Y-0.567
X1.633 Y-0.39
X1.058 Y-0.006
X0.621 Y0.53
X0.324 Y1.155
X0.142 Y1.822
X0.04 Y2.506
X-0.013 Y3.196
X-0.039 Y3.887
X-0.051 Y4.579
X-0.056 Y5.27
X-0.059 Y5.962
X-0.06 Y7.345
X-0.058 Y11.495
X-0.038 Y61.986
X-0.034 Y71.669
X-0.027 Y72.361
X0.103 Y73.04
X0.45 Y73.638
X0.961 Y74.105
X1.571 Y74.431
X2.231 Y74.636
X2.913 Y74.754
X3.602 Y74.816
X4.293 Y74.847
X4.984 Y74.863
X5.676 Y74.87
X6.368 Y74.873
X7.751 Y74.875
X37.492 Y74.87
X38.875
X82.45 Y74.862
X83.132 Y74.747
X83.744 Y74.425
X84.231 Y73.934
X84.578 Y73.335
X84.801 Y72.681
X84.932 Y72.002
X85.003 Y71.314
X85.039 Y70.623
X85.057 Y69.931
X85.065 Y69.24
X85.069 Y68.548
X85.072 Y67.165
X85.074 Y52.64
X85.079 Y18.749
X85.081 Y2.841
X85.029 Y2.151
X84.793 Y1.501
X84.362 Y0.96
X83.799 Y0.558
X83.162 Y0.288
X82.49 Y0.125
X81.804 Y0.035
X81.114 Y-0.012
X80.423 Y-0.035
X79.732 Y-0.046
X79.04 Y-0.052
X78.348 Y-0.054
X76.273 Y-0.056
X52.065 Y-0.061
X3.649 Y-0.069
X2.958 Y-0.066
X2.284 Y0.09
X1.693 Y0.45
X1.231 Y0.964
X0.905 Y1.574
X0.697 Y2.234
X0.574 Y2.915
X0.507 Y3.603
X0.472 Y4.294
X0.455 Y4.985
X0.447 Y5.677
X0.443 Y6.368
X0.441 Y7.06
Y9.135
X0.458 Y50.634
X0.466 Y70.692
X0.467 Y71.384
X0.504 Y72.075
X0.73 Y72.728
X1.147 Y73.28
X1.699 Y73.697
X2.329 Y73.983
X2.997 Y74.162
X3.681 Y74.265
X4.37 Y74.32
X5.061 Y74.349
X5.753 Y74.363
X6.444 Y74.369
X7.136 Y74.373
X8.519 Y74.375
X23.044 Y74.373
X28.577 Y74.372
X79.068 Y74.363
X81.835 Y74.362
X82.518 Y74.256
X83.138 Y73.949
X83.641 Y73.474
X84.007 Y72.888
X84.25 Y72.24
X84.399 Y71.565
X84.483 Y70.878
X84.527 Y70.188
X84.55 Y69.497
X84.562 Y68.805
X84.567 Y68.113
X84.57 Y67.422
X84.572 Y66.038
X84.577 Y27.997
X84.581 Y3.789
X84.57 Y3.098
X84.443 Y2.418
X84.114 Y1.809
X83.623 Y1.322
X83.027 Y0.971
X82.375 Y0.74
X81.698 Y0.601
X81.01 Y0.524
X80.32 Y0.484
X79.628 Y0.463
X78.937 Y0.453
X78.245 Y0.448
X77.554 Y0.446
X75.479 Y0.443
X60.262 Y0.441
X9.771 Y0.432
X4.238 Y0.431
X3.547 Y0.439
X2.872 Y0.59
X2.274 Y0.938
X1.799 Y1.44
X1.458 Y2.042
X1.234 Y2.697
X1.099 Y3.375
X1.022 Y4.062
X0.981 Y4.753
X0.96 Y5.444
X0.95 Y6.136
X0.945 Y6.827
X0.942 Y7.519
X0.941 Y8.902
X0.955 Y43.485
X0.966 Y70.46
X0.975 Y71.151
X1.095 Y71.832
X1.413 Y72.447
X1.895 Y72.943
X2.483 Y73.306
X3.131 Y73.549
X3.806 Y73.698
X4.493 Y73.783
X5.183 Y73.829
X5.874 Y73.852
X6.566 Y73.864
X7.257 Y73.87
X7.949 Y73.873
X9.332 Y73.875
X22.474 Y73.873
X72.965 Y73.864
X80.573 Y73.862
X81.264 Y73.861
X81.948 Y73.756
X82.571 Y73.456
X83.082 Y72.99
X83.46 Y72.411
X83.715 Y71.768
X83.875 Y71.095
X83.967 Y70.409
X84.018 Y69.72
X84.045 Y69.029
X84.059 Y68.337
X84.066 Y67.645
X84.069 Y66.954
X84.072 Y65.57
X84.074 Y55.196
X84.077 Y33.063
X84.081 Y4.705
X84.078 Y4.013
X84.032 Y3.323
X83.809 Y2.668
X83.4 Y2.111
X82.857 Y1.682
X82.234 Y1.381
X81.57 Y1.188
X80.888 Y1.074
X80.199 Y1.011
X79.508 Y0.978
X78.817 Y0.961
X78.125 Y0.952
X77.433 Y0.948
X76.742 Y0.945
X74.667 Y0.943
X64.292 Y0.941
X13.801 Y0.932
X4.81 Y0.931
X4.118 Y0.943
X3.442 Y1.089
X2.839 Y1.427
X2.354 Y1.92
X2.001 Y2.515
X1.765 Y3.165
X1.62 Y3.841
X1.535 Y4.528
X1.489 Y5.218
X1.465 Y5.909
X1.452 Y6.601
X1.446 Y7.292
X1.443 Y7.984
X1.442 Y9.367
X1.445 Y19.742
X1.454 Y40.492
X1.466 Y69.541
X1.468 Y70.233
X1.508 Y70.923
X1.718 Y71.582
X2.114 Y72.149
X2.647 Y72.59
X3.264 Y72.903
X3.925 Y73.107
X4.605 Y73.23
X5.294 Y73.299
X5.984 Y73.336
X6.676 Y73.356
X7.367 Y73.366
X8.059 Y73.37
X8.751 Y73.373
X10.134 Y73.375
X20.509 Y73.373
X70.999 Y73.364
X79.991 Y73.363
X80.683 Y73.361
X81.368 Y73.265
X81.996 Y72.977
X82.518 Y72.523
X82.91 Y71.953
X83.179 Y71.316
X83.35 Y70.646
X83.452 Y69.961
X83.509 Y69.272
X83.54 Y68.581
X83.556 Y67.89
X83.564 Y67.198
X83.568 Y66.506
X83.571 Y65.815
X83.573 Y63.74
X83.577 Y33.999
X83.58 Y4.949
X83.569 Y4.258
X83.453 Y3.576
X83.149 Y2.955
X82.68 Y2.446
X82.102 Y2.067
X81.46 Y1.809
X80.788 Y1.647
X80.102 Y1.552
X79.413 Y1.5
X78.722 Y1.473
X78.03 Y1.458
X77.338 Y1.451
X76.647 Y1.447
X75.263 Y1.444
X69.039 Y1.442
X64.197 Y1.441
X13.706 Y1.432
X5.406 Y1.431
X4.715 Y1.441
X4.036 Y1.572
X3.423 Y1.893
X2.924 Y2.372
X2.554 Y2.956
X2.303 Y3.601
X2.144 Y4.274
X2.051 Y4.959
X1.998 Y5.649
X1.97 Y6.34
X1.955 Y7.031
X1.948 Y7.723
X1.944 Y8.415
X1.942 Y9.798
X1.943 Y15.331
X1.954 Y41.614
X1.966 Y69.28
X1.975 Y69.972
X2.075 Y70.656
X2.359 Y71.287
X2.812 Y71.81
X3.38 Y72.205
X4.016 Y72.477
X4.685 Y72.651
X5.369 Y72.753
X6.058 Y72.811
X6.749 Y72.842
X7.441 Y72.858
X8.132 Y72.867
X8.824 Y72.871
X9.516 Y72.873
X11.591 Y72.875
X22.657 Y72.873
X73.148 Y72.864
X80.065 Y72.862
X80.752 Y72.782
X81.391 Y72.519
X81.93 Y72.085
X82.343 Y71.53
X82.631 Y70.902
X82.819 Y70.236
X82.932 Y69.553
X82.997 Y68.865
X83.033 Y68.174
X83.052 Y67.483
X83.062 Y66.791
X83.067 Y66.1
X83.07 Y65.408
X83.072 Y64.025
X83.075 Y46.042
X83.077 Y30.825
X83.08 Y5.926
X83.078 Y5.234
X83.045 Y4.543
X82.863 Y3.876
X82.498 Y3.288
X81.988 Y2.821
X81.385 Y2.482
X80.731 Y2.256
X80.054 Y2.118
X79.367 Y2.037
X78.676 Y1.993
X77.985 Y1.969
X77.294 Y1.957
X76.602 Y1.95
X75.91 Y1.947
X74.527 Y1.944
X66.919 Y1.942
X60.002 Y1.941
X9.511 Y1.932
X6.053 Y1.931
X5.361 Y1.935
X4.678 Y2.039
X4.049 Y2.328
X3.526 Y2.781
X3.131 Y3.348
X2.856 Y3.983
X2.679 Y4.651
X2.572 Y5.335
X2.511 Y6.024
X2.477 Y6.715
X2.459 Y7.406
X2.45 Y8.098
X2.446 Y8.789
X2.443 Y9.481
X2.442 Y10.864
X2.449 Y29.539
X2.456 Y46.83
X2.465 Y68.272
X2.467 Y68.963
X2.492 Y69.654
X2.647 Y70.328
X2.983 Y70.933
X3.472 Y71.422
X4.062 Y71.782
X4.709 Y72.026
X5.384 Y72.178
X6.07 Y72.268
X6.76 Y72.318
X7.451 Y72.345
X8.142 Y72.36
X8.834 Y72.367
X9.526 Y72.371
X10.909 Y72.374
X15.751
X28.892 Y72.372
X79.383 Y72.363
X80.072 Y72.309
X80.728 Y72.09
X81.295 Y71.693
X81.74 Y71.163
X82.059 Y70.55
X82.271 Y69.892
X82.403 Y69.213
X82.48 Y68.525
X82.523 Y67.835
X82.547 Y67.144
X82.559 Y66.452
X82.566 Y65.76
X82.569 Y65.069
X82.572 Y63.686
X82.574 Y56.769
X82.578 Y23.57
X82.58 Y6.278
X82.575 Y5.587
X82.517 Y4.897
X82.287 Y4.245
X81.885 Y3.682
X81.351 Y3.243
X80.734 Y2.931
X80.073 Y2.727
X79.393 Y2.602
X78.705 Y2.53
X78.014 Y2.489
X77.323 Y2.467
X76.631 Y2.456
X75.94 Y2.45
X75.248 Y2.446
X73.865 Y2.444
X66.257 Y2.442
X51.732 Y2.439
X6.774 Y2.431
X6.083 Y2.433
X5.394 Y2.497
X4.743 Y2.731
X4.185 Y3.14
X3.75 Y3.677
X3.438 Y4.295
X3.232 Y4.955
X3.104 Y5.635
X3.029 Y6.322
X2.988 Y7.013
X2.965 Y7.704
X2.953 Y8.395
X2.947 Y9.087
X2.944 Y9.779
X2.942 Y11.162
X2.944 Y17.387
X2.96 Y56.12
X2.965 Y67.878
X2.968 Y68.569
X3.009 Y69.26
X3.198 Y69.925
X3.563 Y70.512
X4.072 Y70.981
X4.674 Y71.321
X5.328 Y71.548
X6.005 Y71.69
X6.691 Y71.773
X7.381 Y71.82
X8.072 Y71.846
X8.764 Y71.86
X9.455 Y71.867
X10.147 Y71.871
X11.53 Y71.874
X16.372
X39.197 Y71.87
X78.621 Y71.863
X79.312 Y71.843
X79.987 Y71.688
X80.59 Y71.35
X81.081 Y70.863
X81.446 Y70.276
X81.697 Y69.631
X81.857 Y68.958
X81.953 Y68.273
X82.008 Y67.584
X82.038 Y66.893
X82.055 Y66.201
X82.063 Y65.51
X82.068 Y64.818
X82.07 Y64.126
X82.072 Y62.743
X82.076 Y40.61
X82.08 Y12.252
Y6.719
X82.073 Y6.027
X81.999 Y5.34
X81.749 Y4.695
X81.331 Y4.144
X80.786 Y3.718
X80.163 Y3.417
X79.5 Y3.22
X78.819 Y3.099
X78.131 Y3.029
X77.441 Y2.989
X76.749 Y2.968
X76.058 Y2.956
X75.366 Y2.95
X74.674 Y2.946
X73.291 Y2.944
X66.375 Y2.942
X39.4 Y2.937
X6.892 Y2.932
X6.201 Y2.954
X5.527 Y3.111
X4.924 Y3.449
X4.433 Y3.936
X4.068 Y4.524
X3.817 Y5.168
X3.656 Y5.841
X3.56 Y6.526
X3.505 Y7.215
X3.475 Y7.906
X3.459 Y8.598
X3.45 Y9.289
X3.446 Y9.981
X3.444 Y10.673
X3.443 Y12.748
X3.445 Y18.973
X3.465 Y67.388
X3.467 Y68.08
X3.514 Y68.77
X3.71 Y69.433
X4.083 Y70.016
X4.595 Y70.48
X5.199 Y70.818
X5.853 Y71.044
X6.53 Y71.186
X7.216 Y71.271
X7.906 Y71.319
X8.597 Y71.345
X9.289 Y71.359
X9.98 Y71.367
X10.672 Y71.371
X11.364 Y71.373
X13.439 Y71.374
X53.555 Y71.367
X77.762 Y71.363
X78.454 Y71.357
X79.142 Y71.282
X79.788 Y71.037
X80.34 Y70.62
X80.77 Y70.078
X81.077 Y69.458
X81.281 Y68.797
X81.408 Y68.117
X81.483 Y67.43
X81.524 Y66.739
X81.547 Y66.048
X81.559 Y65.356
X81.566 Y64.665
X81.569 Y63.973
X81.572 Y62.59
X81.574 Y57.057
X81.575 Y47.373
X81.58 Y7.257
X81.575 Y6.566
X81.502 Y5.878
X81.258 Y5.231
X80.845 Y4.676
X80.304 Y4.245
X79.684 Y3.938
X79.023 Y3.735
X78.343 Y3.609
X77.655 Y3.535
X76.965 Y3.493
X76.274 Y3.47
X75.582 Y3.457
X74.891 Y3.45
X74.199 Y3.447
X73.507 Y3.445
X71.432 Y3.443
X23.016 Y3.434
X7.8 Y3.432
X7.108 Y3.437
X6.42 Y3.504
X5.769 Y3.737
X5.209 Y4.143
X4.77 Y4.677
X4.454 Y5.292
X4.243 Y5.951
X4.112 Y6.63
X4.035 Y7.318
X3.991 Y8.008
X3.968 Y8.699
X3.955 Y9.391
X3.949 Y10.082
X3.945 Y10.774
X3.943 Y12.157
X3.944 Y16.999
X3.952 Y36.365
X3.964 Y66.798
X3.966 Y67.49
X4.004 Y68.18
X4.18 Y68.849
X4.535 Y69.443
X5.034 Y69.921
X5.629 Y70.274
X6.278 Y70.514
X6.952 Y70.667
X7.638 Y70.759
X8.328 Y70.812
X9.019 Y70.841
X9.71 Y70.857
X10.402 Y70.865
X11.093 Y70.87
X11.785 Y70.872
X13.168 Y70.874
X21.468 Y70.873
X71.959 Y70.864
X76.8 Y70.863
X77.492 Y70.862
X78.184 Y70.843
X78.863 Y70.712
X79.483 Y70.406
X79.996 Y69.942
X80.384 Y69.37
X80.656 Y68.734
X80.83 Y68.065
X80.936 Y67.381
X80.998 Y66.692
X81.032 Y66.001
X81.051 Y65.31
X81.061 Y64.618
X81.067 Y63.927
X81.07 Y63.235
X81.072 Y61.852
X81.074 Y54.244
X81.077 Y27.961
X81.08 Y7.903
X81.078 Y7.211
X81.025 Y6.521
X80.817 Y5.862
X80.432 Y5.287
X79.913 Y4.83
X79.306 Y4.498
X78.651 Y4.275
X77.974 Y4.134
X77.288 Y4.049
X76.598 Y4.001
X75.907 Y3.974
X75.215 Y3.96
X74.524 Y3.952
X73.832 Y3.948
X73.14 Y3.945
X71.065 Y3.943
X53.082 Y3.939
X8.816 Y3.932
X8.125
X7.433 Y3.946
X6.75 Y4.053
X6.118 Y4.334
X5.586 Y4.776
X5.178 Y5.334
X4.891 Y5.964
X4.705 Y6.63
X4.59 Y7.312
X4.523 Y8
X4.486 Y8.691
X4.465 Y9.382
X4.454 Y10.074
X4.448 Y10.765
X4.445 Y11.457
X4.443 Y12.84
X4.445 Y18.374
X4.461 Y57.798
X4.465 Y66.789
X4.481 Y67.481
X4.612 Y68.16
X4.921 Y68.779
X5.386 Y69.291
X5.958 Y69.679
X6.595 Y69.95
X7.263 Y70.127
X7.947 Y70.235
X8.635 Y70.298
X9.326 Y70.333
X10.017 Y70.353
X10.709 Y70.363
X11.401 Y70.369
X12.092 Y70.371
X13.476 Y70.374
X19.701 Y70.373
X43.908 Y70.369
X76.416 Y70.363
X77.108 Y70.361
X77.799 Y70.329
X78.471 Y70.167
X79.075 Y69.83
X79.569 Y69.346
X79.936 Y68.76
X80.188 Y68.116
X80.349 Y67.443
X80.447 Y66.758
X80.503 Y66.069
X80.535 Y65.378
X80.552 Y64.686
X80.562 Y63.995
X80.567 Y63.303
X80.57 Y62.612
X80.572 Y61.228
X80.574 Y55.003
X80.58 Y8.663
X80.579 Y7.971
X80.559 Y7.28
X80.413 Y6.603
X80.089 Y5.992
X79.613 Y5.491
X79.033 Y5.113
X78.393 Y4.851
X77.723 Y4.681
X77.039 Y4.577
X76.35 Y4.517
X75.659 Y4.483
X74.968 Y4.464
X74.276 Y4.454
X73.584 Y4.449
X72.893 Y4.446
X71.51 Y4.443
X63.901 Y4.441
X28.627 Y4.435
X9.261 Y4.432
X8.569
X7.878 Y4.452
X7.196 Y4.572
X6.572 Y4.87
X6.051 Y5.324
X5.654 Y5.891
X5.377 Y6.525
X5.197 Y7.192
X5.086 Y7.875
X5.022 Y8.564
X4.985 Y9.254
X4.965 Y9.946
X4.954 Y10.637
X4.948 Y11.329
X4.945 Y12.021
X4.943 Y13.404
X4.945 Y18.937
X4.95 Y32.77
X4.964 Y65.97
X4.969 Y66.661
X5.035 Y67.35
X5.261 Y68.004
X5.66 Y68.568
X6.19 Y69.013
X6.801 Y69.336
X7.458 Y69.554
X8.136 Y69.691
X8.823 Y69.773
X9.513 Y69.819
X10.204 Y69.845
X10.895 Y69.859
X11.587 Y69.866
X12.279 Y69.87
X12.97 Y69.872
X15.045 Y69.874
X19.887 Y69.873
X70.378 Y69.864
X75.911 Y69.863
X76.603 Y69.862
X77.293 Y69.828
X77.966 Y69.666
X78.569 Y69.328
X79.062 Y68.843
X79.429 Y68.257
X79.682 Y67.613
X79.845 Y66.941
X79.944 Y66.256
X80.001 Y65.567
X80.034 Y64.876
X80.052 Y64.185
X80.062 Y63.493
X80.067 Y62.801
X80.07 Y62.11
X80.072 Y60.726
X80.074 Y53.81
X80.078 Y27.527
X80.08 Y8.852
X80.074 Y8.161
X80.01 Y7.472
X79.784 Y6.818
X79.386 Y6.253
X78.857 Y5.807
X78.246 Y5.483
X77.59 Y5.265
X76.912 Y5.127
X76.225 Y5.046
X75.535 Y5
X74.844 Y4.974
X74.152 Y4.959
X73.461 Y4.952
X72.769 Y4.947
X72.077 Y4.945
X70.002 Y4.943
X50.636 Y4.939
X9.137 Y4.932
X8.445 Y4.946
X7.762 Y5.053
X7.131 Y5.336
X6.6 Y5.78
X6.192 Y6.338
X5.905 Y6.967
X5.715 Y7.632
X5.598 Y8.314
X5.528 Y9.002
X5.489 Y9.693
X5.467 Y10.384
X5.455 Y11.076
X5.449 Y11.767
X5.446 Y12.459
X5.444 Y13.842
X5.445 Y18.684
X5.462 Y62.258
X5.464 Y65.025
X5.465 Y65.716
X5.483 Y66.408
X5.601 Y67.089
X5.891 Y67.717
X6.342 Y68.242
X6.905 Y68.643
X7.536 Y68.926
X8.203 Y69.111
X8.885 Y69.225
X9.573 Y69.292
X10.264 Y69.329
X10.955 Y69.35
X11.647 Y69.362
X12.339 Y69.368
X13.03 Y69.371
X14.413 Y69.373
X19.255
X50.38 Y69.368
X75.279 Y69.363
X75.971
X76.662 Y69.343
X77.341 Y69.212
X77.96 Y68.903
X78.474 Y68.44
X78.864 Y67.869
X79.137 Y67.234
X79.316 Y66.565
X79.426 Y65.883
X79.491 Y65.194
X79.528 Y64.503
X79.549 Y63.812
X79.56 Y63.12
X79.566 Y62.429
X79.569 Y61.737
X79.572 Y60.354
X79.574 Y54.821
X79.575 Y46.521
X79.58 Y9.863
X79.579 Y9.171
X79.565 Y8.48
X79.464 Y7.796
X79.189 Y7.161
X78.754 Y6.623
X78.2 Y6.209
X77.574 Y5.915
X76.91 Y5.722
X76.228 Y5.603
X75.54 Y5.532
X74.85 Y5.492
X74.158 Y5.47
X73.467 Y5.457
X72.775 Y5.45
X72.084 Y5.447
X70.7 Y5.444
X68.625 Y5.442
X18.135 Y5.433
X9.835 Y5.432
X9.143 Y5.437
X8.455 Y5.509
X7.804 Y5.742
X7.242 Y6.145
X6.799 Y6.677
X6.479 Y7.29
X6.263 Y7.947
X6.127 Y8.625
X6.046 Y9.312
X5.999 Y10.002
X5.973 Y10.693
X5.959 Y11.384
X5.951 Y12.076
X5.947 Y12.768
X5.945 Y13.459
X5.944 Y15.534
X5.956 Y45.275
X5.964 Y64.642
X5.966 Y65.333
X5.994 Y66.025
X6.141 Y66.7
X6.463 Y67.313
X6.935 Y67.818
X7.513 Y68.198
X8.152 Y68.462
X8.822 Y68.633
X9.506 Y68.737
X10.195 Y68.798
X10.886 Y68.833
X11.577 Y68.852
X12.269 Y68.862
X12.961 Y68.868
X13.652 Y68.871
X15.035 Y68.873
X20.569
X34.402 Y68.871
X75.209 Y68.863
X75.901 Y68.856
X76.588 Y68.778
X77.236 Y68.536
X77.793 Y68.125
X78.229 Y67.589
X78.545 Y66.973
X78.757 Y66.315
X78.891 Y65.636
X78.971 Y64.949
X79.017 Y64.259
X79.042 Y63.568
X79.056 Y62.877
X79.064 Y62.185
X79.068 Y61.493
X79.071 Y60.802
X79.073 Y58.727
X79.08 Y11.003
X79.079 Y9.619
X79.061 Y8.928
X78.947 Y8.246
X78.658 Y7.617
X78.211 Y7.089
X77.65 Y6.685
X77.019 Y6.401
X76.353 Y6.214
X75.671 Y6.098
X74.983 Y6.03
X74.293 Y5.991
X73.601 Y5.969
X72.91 Y5.957
X72.218 Y5.95
X71.527 Y5.947
X70.143 Y5.943
X65.993 Y5.942
X32.102 Y5.936
X10.661 Y5.932
X9.969 Y5.934
X9.278 Y5.959
X8.603 Y6.112
X7.994 Y6.439
X7.494 Y6.917
X7.117 Y7.497
X6.854 Y8.137
X6.683 Y8.807
X6.579 Y9.49
X6.517 Y10.179
X6.483 Y10.87
X6.464 Y11.562
X6.454 Y12.253
X6.449 Y12.945
X6.446 Y13.637
X6.444 Y15.02
X6.445 Y20.553
X6.45 Y32.311
X6.463 Y64.127
X6.465 Y64.819
X6.493 Y65.51
X6.637 Y66.187
X6.957 Y66.8
X7.428 Y67.306
X8.005 Y67.688
X8.643 Y67.954
X9.313 Y68.127
X9.996 Y68.233
X10.685 Y68.296
X11.376 Y68.331
X12.067 Y68.351
X12.759 Y68.362
X13.45 Y68.368
X14.142 Y68.371
X15.525 Y68.373
X20.367
X22.442
X72.933 Y68.364
X74.316
X75.008 Y68.362
X75.699 Y68.337
X76.375 Y68.192
X76.99 Y67.874
X77.497 Y67.404
X77.88 Y66.828
X78.149 Y66.191
X78.324 Y65.522
X78.431 Y64.838
X78.494 Y64.149
X78.529 Y63.459
X78.549 Y62.767
X78.56 Y62.076
X78.566 Y61.384
X78.569 Y60.693
X78.572 Y59.309
X78.574 Y53.776
X78.578 Y21.96
X78.579 Y10.202
X78.569 Y9.51
X78.47 Y8.826
X78.199 Y8.189
X77.767 Y7.649
X77.216 Y7.231
X76.592 Y6.933
X75.929 Y6.735
X75.249 Y6.611
X74.561 Y6.538
X73.871 Y6.495
X73.179 Y6.471
X72.488 Y6.458
X71.796 Y6.451
X71.105 Y6.447
X69.721 Y6.444
X65.571 Y6.442
X42.055 Y6.437
X10.931 Y6.432
X10.239 Y6.438
X9.549 Y6.491
X8.891 Y6.704
X8.314 Y7.084
X7.854 Y7.601
X7.516 Y8.204
X7.287 Y8.857
X7.142 Y9.533
X7.055 Y10.22
X7.005 Y10.909
X6.976 Y11.6
X6.961 Y12.292
X6.952 Y12.984
X6.948 Y13.675
X6.946 Y14.367
X6.944 Y15.75
X6.947 Y23.358
X6.963 Y63.474
X6.964 Y64.166
X6.977 Y64.858
X7.089 Y65.54
X7.373 Y66.171
X7.816 Y66.702
X8.374 Y67.11
X9.002 Y67.401
X9.666 Y67.593
X10.348 Y67.713
X11.036 Y67.784
X11.726 Y67.824
X12.417 Y67.847
X13.109 Y67.86
X13.801 Y67.866
X14.492 Y67.87
X15.875 Y67.873
X20.025
X64.983 Y67.865
X73.975 Y67.863
X74.666 Y67.859
X75.356 Y67.816
X76.023 Y67.631
X76.616 Y67.275
X77.097 Y66.778
X77.453 Y66.185
X77.697 Y65.538
X77.853 Y64.864
X77.948 Y64.179
X78.003 Y63.49
X78.034 Y62.799
X78.052 Y62.107
X78.062 Y61.416
X78.067 Y60.724
X78.07 Y60.032
X78.072 Y58.649
X78.074 Y52.424
X78.077 Y28.908
X78.08 Y10.925
X78.075 Y10.233
X78.016 Y9.544
X77.804 Y8.886
X77.419 Y8.311
X76.9 Y7.854
X76.295 Y7.519
X75.642 Y7.291
X74.965 Y7.146
X74.279 Y7.058
X73.59 Y7.006
X72.899 Y6.978
X72.207 Y6.962
X71.515 Y6.953
X70.824 Y6.948
X70.132 Y6.945
X68.749 Y6.943
X61.141 Y6.941
X47.999 Y6.938
X11.342 Y6.933
X10.65 Y6.941
X9.962 Y7.011
X9.311 Y7.246
X8.748 Y7.647
X8.303 Y8.177
X7.982 Y8.789
X7.766 Y9.447
X7.63 Y10.125
X7.548 Y10.811
X7.501 Y11.502
X7.475 Y12.193
X7.46 Y12.884
X7.452 Y13.576
X7.448 Y14.267
X7.446 Y14.959
X7.444 Y16.342
X7.445 Y18.417
X7.463 Y63.375
X7.468 Y64.067
X7.524 Y64.756
X7.732 Y65.416
X8.114 Y65.992
X8.63 Y66.452
X9.233 Y66.791
X9.885 Y67.022
X10.561 Y67.169
X11.247 Y67.258
X11.937 Y67.31
X12.628 Y67.339
X13.319 Y67.355
X14.011 Y67.364
X14.702 Y67.369
X15.394 Y67.371
X16.777 Y67.373
X24.385
X61.043 Y67.366
X73.493 Y67.364
X74.185 Y67.36
X74.875 Y67.312
X75.54 Y67.123
X76.13 Y66.761
X76.606 Y66.26
X76.958 Y65.664
X77.199 Y65.016
X77.354 Y64.342
X77.448 Y63.657
X77.503 Y62.967
X77.534 Y62.276
X77.552 Y61.585
X77.562 Y60.893
X77.567 Y60.202
X77.57 Y59.51
X77.573 Y58.127
X77.574 Y51.902
X77.577 Y31.844
X77.58 Y11.786
X77.578 Y11.094
X77.559 Y10.403
X77.434 Y9.723
X77.136 Y9.098
X76.681 Y8.577
X76.116 Y8.179
X75.484 Y7.897
X74.818 Y7.712
X74.136 Y7.597
X73.448 Y7.529
X72.757 Y7.49
X72.066 Y7.469
X71.374 Y7.457
X70.683 Y7.45
X69.991 Y7.446
X68.608 Y7.443
X64.458 Y7.441
X49.933 Y7.439
X11.892 Y7.432
X11.2 Y7.437
X10.512 Y7.503
X9.857 Y7.725
X9.287 Y8.117
X8.834 Y8.64
X8.505 Y9.248
X8.282 Y9.903
X8.14 Y10.579
X8.054 Y11.266
X8.005 Y11.956
X7.977 Y12.647
X7.961 Y13.338
X7.953 Y14.03
X7.949 Y14.722
X7.946 Y15.413
X7.945 Y16.796
Y17.488
X7.963 Y62.446
X7.964 Y63.137
X7.979 Y63.829
X8.085 Y64.512
X8.361 Y65.147
X8.798 Y65.683
X9.352 Y66.097
X9.978 Y66.392
X10.641 Y66.588
X11.322 Y66.71
X12.01 Y66.782
X12.7 Y66.823
X13.391 Y66.846
X14.083 Y66.859
X14.775 Y66.866
X15.466 Y66.87
X16.85 Y66.873
X20.308
X61.115 Y66.866
X72.874 Y66.864
X73.565 Y66.862
X74.256 Y66.829
X74.929 Y66.67
X75.534 Y66.335
X76.03 Y65.853
X76.402 Y65.27
X76.661 Y64.629
X76.83 Y63.958
X76.934 Y63.274
X76.995 Y62.585
X77.03 Y61.894
X77.05 Y61.203
X77.06 Y60.511
X77.066 Y59.82
X77.07 Y59.128
X77.072 Y57.745
X77.074 Y52.903
X77.077 Y30.77
X77.079 Y12.095
X77.076 Y11.404
X77.038 Y10.713
X76.866 Y10.043
X76.523 Y9.443
X76.034 Y8.953
X75.447 Y8.588
X74.803 Y8.336
X74.13 Y8.174
X73.446 Y8.075
X72.757 Y8.017
X72.066 Y7.983
X71.374 Y7.965
X70.683 Y7.955
X69.991 Y7.949
X69.3 Y7.946
X67.916 Y7.943
X62.383 Y7.941
X47.858 Y7.938
X12.584 Y7.932
X11.892 Y7.934
X11.202 Y7.972
X10.532 Y8.143
X9.935 Y8.493
X9.45 Y8.986
X9.087 Y9.575
X8.836 Y10.219
X8.674 Y10.892
X8.575 Y11.576
X8.516 Y12.265
X8.483 Y12.956
X8.465 Y13.648
X8.455 Y14.339
X8.45 Y15.031
X8.447 Y15.723
X8.445 Y17.106
Y20.564
X8.462 Y62.064
X8.465 Y62.755
X8.489 Y63.446
X8.622 Y64.125
X8.928 Y64.745
X9.388 Y65.262
X9.956 Y65.656
X10.591 Y65.932
X11.258 Y66.112
X11.941 Y66.224
X12.629 Y66.29
X13.32 Y66.327
X14.011 Y66.348
X14.703 Y66.36
X15.395 Y66.366
X16.086 Y66.37
X17.47 Y66.373
X21.619
X65.194 Y66.365
X72.11 Y66.364
X72.802 Y66.363
X73.493 Y66.351
X74.178 Y66.249
X74.815 Y65.98
X75.355 Y65.548
X75.774 Y64.998
X76.074 Y64.375
X76.275 Y63.713
X76.401 Y63.033
X76.476 Y62.345
X76.519 Y61.655
X76.544 Y60.964
X76.557 Y60.272
X76.565 Y59.58
X76.569 Y58.889
X76.572 Y57.505
X76.574 Y54.047
X76.578 Y25.689
X76.579 Y12.548
X76.576 Y11.856
X76.53 Y11.166
X76.347 Y10.499
X75.991 Y9.906
X75.494 Y9.425
X74.901 Y9.069
X74.254 Y8.824
X73.581 Y8.667
X72.896 Y8.571
X72.206 Y8.514
X71.515 Y8.482
X70.824 Y8.464
X70.132 Y8.454
X69.441 Y8.449
X68.749 Y8.446
X67.366 Y8.443
X61.833 Y8.441
X41.775 Y8.437
X13.417 Y8.432
X12.725 Y8.433
X12.033 Y8.445
X11.349 Y8.542
X10.71 Y8.807
X10.167 Y9.236
X9.746 Y9.785
X9.444 Y10.407
X9.242 Y11.068
X9.115 Y11.748
X9.04 Y12.436
X8.996 Y13.126
X8.972 Y13.817
X8.959 Y14.509
X8.952 Y15.201
X8.948 Y15.892
X8.946 Y16.584
X8.945 Y18.659
X8.948 Y27.65
X8.962 Y61.541
X8.964 Y62.233
X8.986 Y62.924
X9.113 Y63.604
X9.416 Y64.226
X9.872 Y64.746
X10.439 Y65.142
X11.072 Y65.422
X11.739 Y65.605
X12.421 Y65.719
X13.109 Y65.787
X13.8 Y65.826
X14.491 Y65.847
X15.182 Y65.86
X15.874 Y65.866
X16.566 Y65.87
X17.949 Y65.872
X22.099 Y65.873
X22.791
X71.898 Y65.864
X72.59 Y65.861
X73.281 Y65.826
X73.951 Y65.657
X74.554 Y65.317
X75.045 Y64.831
X75.414 Y64.246
X75.67 Y63.603
X75.837 Y62.932
X75.938 Y62.248
X75.997 Y61.559
X76.031 Y60.868
X76.05 Y60.176
X76.061 Y59.485
X76.067 Y58.793
X76.07 Y58.102
X76.073 Y56.718
X76.074 Y51.877
X76.079 Y16.602
Y13.144
X76.078 Y12.452
X76.044 Y11.761
X75.885 Y11.088
X75.55 Y10.483
X75.068 Y9.987
X74.485 Y9.614
X73.844 Y9.355
X73.173 Y9.186
X72.489 Y9.083
X71.8 Y9.021
X71.11 Y8.986
X70.418 Y8.966
X69.727 Y8.955
X69.035 Y8.949
X68.343 Y8.946
X66.96 Y8.943
X62.118 Y8.941
X31.686 Y8.936
X13.703 Y8.933
X13.011 Y8.935
X12.32 Y8.962
X11.644 Y9.109
X11.03 Y9.427
X10.522 Y9.896
X10.138 Y10.471
X9.869 Y11.109
X9.694 Y11.778
X9.587 Y12.461
X9.524 Y13.15
X9.488 Y13.841
X9.468 Y14.532
X9.457 Y15.224
X9.451 Y15.915
X9.448 Y16.607
X9.446 Y17.99
Y22.14
X9.453 Y38.74
X9.463 Y61.565
X9.473 Y62.256
X9.567 Y62.941
X9.827 Y63.582
X10.251 Y64.129
X10.796 Y64.555
X11.416 Y64.861
X12.077 Y65.066
X12.756 Y65.196
X13.444 Y65.273
X14.134 Y65.318
X14.825 Y65.343
X15.516 Y65.357
X16.208 Y65.365
X16.9 Y65.369
X17.591 Y65.371
X19.666 Y65.373
X34.883 Y65.371
X71.54 Y65.364
X72.232 Y65.358
X72.922 Y65.304
X73.582 Y65.1
X74.165 Y64.727
X74.633 Y64.217
X74.977 Y63.617
X75.211 Y62.967
X75.361 Y62.291
X75.452 Y61.606
X75.505 Y60.916
X75.536 Y60.225
X75.553 Y59.534
X75.562 Y58.842
X75.567 Y58.151
X75.57 Y57.459
X75.573 Y56.076
X75.574 Y54.001
X75.579 Y13.885
Y13.193
X75.565 Y12.501
X75.459 Y11.818
X75.184 Y11.183
X74.747 Y10.647
X74.194 Y10.232
X73.569 Y9.935
X72.906 Y9.737
X72.226 Y9.613
X71.538 Y9.539
X70.848 Y9.496
X70.157 Y9.472
X69.465 Y9.458
X68.774 Y9.451
X68.082 Y9.447
X66.699 Y9.443
X63.24 Y9.441
X17.591 Y9.433
X14.133
X13.441 Y9.435
X12.751 Y9.471
X12.078 Y9.634
X11.474 Y9.97
X10.978 Y10.453
X10.606 Y11.036
X10.349 Y11.678
X10.183 Y12.349
X10.08 Y13.033
X10.02 Y13.722
X9.986 Y14.413
X9.967 Y15.105
X9.956 Y15.796
X9.951 Y16.488
X9.948 Y17.179
X9.946 Y18.563
X9.947 Y23.404
X9.959 Y53.837
X9.962 Y60.754
X9.966 Y61.445
X10.005 Y62.136
X10.187 Y62.803
X10.542 Y63.397
X11.039 Y63.878
X11.63 Y64.237
X12.275 Y64.485
X12.948 Y64.646
X13.633 Y64.744
X14.322 Y64.801
X15.013 Y64.834
X15.704 Y64.852
X16.396 Y64.862
X17.088 Y64.867
X17.779 Y64.87
X19.163 Y64.872
X24.696
X50.979 Y64.868
X71.037 Y64.864
X71.728 Y64.86
X72.418 Y64.804
X73.079 Y64.601
X73.661 Y64.228
X74.129 Y63.718
X74.473 Y63.118
X74.708 Y62.468
X74.859 Y61.793
X74.951 Y61.107
X75.005 Y60.418
X75.035 Y59.727
X75.052 Y59.035
X75.062 Y58.344
X75.067 Y57.652
X75.07 Y56.96
X75.073 Y55.577
X75.075 Y50.044
X75.076 Y36.902
X75.079 Y14.078
X75.076 Y13.386
X75.037 Y12.695
X74.858 Y12.027
X74.508 Y11.431
X74.014 Y10.947
X73.424 Y10.585
X72.78 Y10.335
X72.107 Y10.172
X71.423 Y10.074
X70.733 Y10.016
X70.043 Y9.983
X69.351 Y9.965
X68.66 Y9.954
X67.968 Y9.949
X67.276 Y9.945
X65.893 Y9.943
X61.051 Y9.941
X49.985 Y9.939
X14.711 Y9.933
X14.019 Y9.934
X13.328 Y9.962
X12.651 Y10.104
X12.038 Y10.424
X11.53 Y10.893
X11.145 Y11.468
X10.876 Y12.106
X10.7 Y12.774
X10.591 Y13.457
X10.527 Y14.146
X10.49 Y14.837
X10.469 Y15.528
X10.458 Y16.22
X10.452 Y16.911
X10.448 Y17.603
X10.446 Y18.986
Y22.444
X10.462 Y59.794
Y60.485
X10.472 Y61.177
X10.548 Y61.865
X10.789 Y62.513
X11.194 Y63.073
X11.727 Y63.514
X12.34 Y63.835
X12.997 Y64.05
X13.676 Y64.185
X14.363 Y64.267
X15.053 Y64.314
X15.744 Y64.341
X16.435 Y64.356
X17.127 Y64.364
X17.818 Y64.368
X18.51 Y64.371
X19.893 Y64.372
X20.585 Y64.373
X70.384 Y64.364
X71.076 Y64.362
X71.767 Y64.327
X72.439 Y64.164
X73.041 Y63.825
X73.534 Y63.34
X73.905 Y62.755
X74.162 Y62.114
X74.33 Y61.443
X74.434 Y60.759
X74.495 Y60.07
X74.53 Y59.379
X74.549 Y58.688
X74.56 Y57.996
X74.566 Y57.304
X74.57 Y56.613
X74.573 Y55.229
X74.575 Y50.388
X74.579 Y15.805
Y14.422
X74.572 Y13.73
X74.511 Y13.041
X74.293 Y12.385
X73.907 Y11.811
X73.389 Y11.353
X72.784 Y11.017
X72.131 Y10.79
X71.454 Y10.646
X70.768 Y10.558
X70.078 Y10.507
X69.387 Y10.478
X68.696 Y10.462
X68.004 Y10.453
X67.313 Y10.448
X66.621 Y10.445
X65.238 Y10.442
X59.013 Y10.44
X27.888 Y10.435
X15.439 Y10.433
X14.747
X14.055 Y10.444
X13.37 Y10.54
X12.73 Y10.801
X12.185 Y11.227
X11.76 Y11.773
X11.455 Y12.393
X11.25 Y13.054
X11.121 Y13.734
X11.044 Y14.421
X10.999 Y15.111
X10.974 Y15.802
X10.961 Y16.494
X10.953 Y17.185
X10.949 Y17.877
X10.947 Y18.569
X10.946 Y20.644
X10.956 Y45.543
X10.961 Y59.376
X10.962 Y60.068
X10.976 Y60.76
X11.067 Y61.445
X11.329 Y62.085
X11.752 Y62.632
X12.297 Y63.059
X12.917 Y63.364
X13.578 Y63.568
X14.258 Y63.696
X14.945 Y63.773
X15.636 Y63.818
X16.327 Y63.843
X17.018 Y63.857
X17.71 Y63.864
X18.402 Y63.868
X19.093 Y63.871
X21.168 Y63.873
X44.684 Y63.869
X69.584 Y63.864
X70.276
X70.967 Y63.851
X71.652 Y63.754
X72.292 Y63.491
X72.835 Y63.064
X73.259 Y62.517
X73.563 Y61.896
X73.767 Y61.235
X73.896 Y60.555
X73.973 Y59.868
X74.018 Y59.178
X74.043 Y58.487
X74.057 Y57.795
X74.064 Y57.104
X74.069 Y56.412
X74.071 Y55.72
X74.074 Y53.645
X74.076 Y41.195
X74.079 Y14.913
X74.073 Y14.221
X74.008 Y13.532
X73.788 Y12.877
X73.4 Y12.304
X72.879 Y11.849
X72.273 Y11.516
X71.619 Y11.29
X70.943 Y11.146
X70.257 Y11.059
X69.567 Y11.007
X68.876 Y10.978
X68.184 Y10.962
X67.493 Y10.953
X66.801 Y10.948
X66.109 Y10.945
X64.726 Y10.942
X58.501 Y10.94
X52.276 Y10.939
X15.619 Y10.933
X14.927 Y10.936
X14.236 Y10.97
X13.565 Y11.139
X12.964 Y11.48
X12.472 Y11.967
X12.104 Y12.552
X11.848 Y13.195
X11.681 Y13.866
X11.579 Y14.55
X11.52 Y15.239
X11.486 Y15.93
X11.467 Y16.622
X11.457 Y17.313
X11.451 Y18.005
X11.448 Y18.696
X11.446 Y20.08
Y22.155
X11.462 Y59.504
X11.47 Y60.196
X11.552 Y60.882
X11.798 Y61.529
X12.209 Y62.085
X12.745 Y62.522
X13.36 Y62.838
X14.019 Y63.051
X14.697 Y63.186
X15.384 Y63.267
X16.074 Y63.314
X16.765 Y63.341
X17.456 Y63.355
X18.148 Y63.364
X18.84 Y63.368
X19.531 Y63.37
X20.915 Y63.372
X22.298 Y63.373
X69.331 Y63.364
X70.022 Y63.362
X70.713 Y63.331
X71.388 Y63.179
X71.999 Y62.855
X72.503 Y62.381
X72.883 Y61.803
X73.15 Y61.165
X73.323 Y60.495
X73.429 Y59.812
X73.492 Y59.123
X73.528 Y58.433
X73.549 Y57.741
X73.56 Y57.05
X73.566 Y56.358
X73.57 Y55.666
X73.573 Y54.283
X73.575 Y50.133
X73.579 Y15.55
X73.576 Y14.859
X73.531 Y14.169
X73.347 Y13.502
X72.989 Y12.91
X72.49 Y12.431
X71.897 Y12.075
X71.25 Y11.829
X70.577 Y11.671
X69.892 Y11.573
X69.203 Y11.516
X68.512 Y11.483
X67.821 Y11.464
X67.129 Y11.454
X66.437 Y11.448
X65.746 Y11.445
X64.362 Y11.442
X59.521 Y11.441
X22.172 Y11.434
X15.947 Y11.433
X15.255 Y11.44
X14.566 Y11.497
X13.908 Y11.709
X13.33 Y12.089
X12.867 Y12.603
X12.528 Y13.206
X12.297 Y13.858
X12.151 Y14.534
X12.062 Y15.22
X12.01 Y15.91
X11.981 Y16.601
X11.964 Y17.292
X11.956 Y17.984
X11.951 Y18.676
X11.948 Y19.367
X11.946 Y20.751
X11.948 Y26.284
X11.959 Y53.258
X11.961 Y58.792
X11.965 Y59.483
X12.012 Y60.173
X12.202 Y60.838
X12.567 Y61.426
X13.071 Y61.9
X13.666 Y62.252
X14.314 Y62.494
X14.988 Y62.65
X15.673 Y62.746
X16.362 Y62.802
X17.053 Y62.834
X17.744 Y62.852
X18.436 Y62.862
X19.128 Y62.867
X19.819 Y62.87
X21.203 Y62.872
X26.736
X54.402 Y62.867
X68.927 Y62.864
X69.618 Y62.86
X70.309 Y62.819
X70.978 Y62.643
X71.576 Y62.295
X72.063 Y61.805
X72.427 Y61.217
X72.678 Y60.572
X72.84 Y59.9
X72.939 Y59.215
X72.998 Y58.526
X73.032 Y57.835
X73.05 Y57.144
X73.061 Y56.452
X73.067 Y55.761
X73.07 Y55.069
X73.073 Y53.686
X73.075 Y48.844
X73.077 Y29.478
X73.079 Y16.336
X73.078 Y15.645
X73.061 Y14.953
X72.943 Y14.272
X72.655 Y13.643
X72.209 Y13.115
X71.649 Y12.708
X71.021 Y12.419
X70.356 Y12.227
X69.675 Y12.107
X68.987 Y12.035
X68.297 Y11.994
X67.606 Y11.97
X66.914 Y11.957
X66.222 Y11.95
X65.531 Y11.946
X64.147 Y11.943
X60.689 Y11.941
X38.556 Y11.937
X16.423 Y11.933
X15.732 Y11.939
X15.043 Y12.003
X14.386 Y12.22
X13.812 Y12.606
X13.355 Y13.125
X13.02 Y13.73
X12.793 Y14.383
X12.649 Y15.06
X12.561 Y15.746
X12.51 Y16.436
X12.481 Y17.127
X12.464 Y17.818
X12.456 Y18.51
X12.451 Y19.201
X12.448 Y19.893
X12.447 Y21.276
X12.448 Y26.81
X12.452 Y37.876
X12.461 Y57.934
X12.462 Y58.626
X12.477 Y59.317
X12.584 Y60.001
X12.859 Y60.635
X13.297 Y61.171
X13.85 Y61.586
X14.475 Y61.883
X15.138 Y62.08
X15.818 Y62.204
X16.506 Y62.278
X17.196 Y62.32
X17.887 Y62.344
X18.579 Y62.357
X19.271 Y62.365
X19.962 Y62.368
X20.654 Y62.371
X22.729 Y62.372
X40.02 Y62.37
X68.378 Y62.365
X69.07 Y62.362
X69.76 Y62.325
X70.433 Y62.163
X71.036 Y61.825
X71.531 Y61.342
X71.903 Y60.759
X72.161 Y60.117
X72.329 Y59.446
X72.433 Y58.762
X72.494 Y58.074
X72.529 Y57.383
X72.549 Y56.691
X72.56 Y56
X72.567 Y55.308
X72.57 Y54.617
X72.573 Y53.233
X72.575 Y49.083
X72.576 Y42.858
X72.579 Y16.576
X72.575 Y15.884
X72.535 Y15.193
X72.354 Y14.526
X72.004 Y13.929
X71.51 Y13.445
X70.92 Y13.084
X70.275 Y12.834
X69.603 Y12.672
X68.918 Y12.574
X68.229 Y12.516
X67.538 Y12.483
X66.847 Y12.464
X66.155 Y12.454
X65.463 Y12.448
X64.772 Y12.445
X63.389 Y12.442
X58.547 Y12.44
X50.939 Y12.439
X17.048 Y12.433
X16.356 Y12.436
X15.666 Y12.482
X14.999 Y12.667
X14.408 Y13.026
X13.93 Y13.526
X13.574 Y14.119
X13.329 Y14.766
X13.171 Y15.439
X13.074 Y16.124
X13.017 Y16.813
X12.985 Y17.504
X12.967 Y18.196
X12.957 Y18.887
X12.952 Y19.579
X12.949 Y20.27
X12.947 Y21.654
X12.948 Y26.495
X12.961 Y57.62
X12.964 Y58.311
X12.994 Y59.002
X13.143 Y59.678
X13.464 Y60.29
X13.935 Y60.797
X14.511 Y61.18
X15.149 Y61.447
X15.819 Y61.621
X16.502 Y61.728
X17.191 Y61.792
X17.881 Y61.828
X18.573 Y61.848
X19.264 Y61.859
X19.956 Y61.866
X20.648 Y61.869
X22.031 Y61.872
X26.181
X29.639
X67.68 Y61.865
X68.372 Y61.864
X69.063 Y61.848
X69.745 Y61.729
X70.373 Y61.439
X70.901 Y60.992
X71.307 Y60.433
X71.596 Y59.804
X71.788 Y59.14
X71.908 Y58.459
X71.98 Y57.771
X72.022 Y57.08
X72.045 Y56.389
X72.058 Y55.698
X72.065 Y55.006
X72.069 Y54.314
X72.073 Y52.931
X72.074 Y52.239
X72.076 Y41.864
X72.078 Y16.965
X72.072 Y16.273
X72.016 Y15.584
X71.809 Y14.924
X71.432 Y14.344
X70.921 Y13.878
X70.32 Y13.536
X69.669 Y13.303
X68.993 Y13.154
X68.308 Y13.063
X67.618 Y13.01
X66.927 Y12.98
X66.235 Y12.963
X65.544 Y12.953
X64.852 Y12.948
X64.161 Y12.945
X62.777 Y12.942
X59.319 Y12.941
X17.82 Y12.933
X17.128 Y12.934
X16.437 Y12.952
X15.756 Y13.074
X15.129 Y13.366
X14.604 Y13.817
X14.201 Y14.379
X13.914 Y15.008
X13.725 Y15.673
X13.606 Y16.355
X13.536 Y17.043
X13.495 Y17.733
X13.473 Y18.425
X13.46 Y19.116
X13.454 Y19.808
X13.45 Y20.499
X13.447 Y21.883
Y25.341
X13.46 Y57.157
X13.463 Y57.849
X13.498 Y58.539
X13.656 Y59.213
X13.987 Y59.82
X14.465 Y60.32
X15.046 Y60.695
X15.686 Y60.957
X16.357 Y61.127
X17.041 Y61.231
X17.729 Y61.293
X18.42 Y61.329
X19.112 Y61.349
X19.803 Y61.36
X20.495 Y61.366
X21.186 Y61.369
X22.57 Y61.372
X23.261
X39.861 Y61.37
X67.527 Y61.365
X68.219 Y61.36
X68.909 Y61.308
X69.57 Y61.107
X70.153 Y60.734
X70.62 Y60.224
X70.966 Y59.625
X71.204 Y58.976
X71.357 Y58.301
X71.45 Y57.616
X71.505 Y56.926
X71.535 Y56.235
X71.553 Y55.544
X71.562 Y54.852
X71.568 Y54.161
X71.571 Y53.469
X71.573 Y52.086
X71.575 Y46.552
X71.579 Y17.503
X71.575 Y16.811
X71.522 Y16.122
X71.325 Y15.459
X70.956 Y14.874
X70.45 Y14.402
X69.852 Y14.054
X69.203 Y13.815
X68.529 Y13.662
X67.843 Y13.568
X67.154 Y13.513
X66.463 Y13.481
X65.772 Y13.463
X65.08 Y13.453
X64.388 Y13.448
X63.697 Y13.445
X62.313 Y13.442
X56.78 Y13.44
X18.047 Y13.433
X17.356 Y13.438
X16.665 Y13.481
X16 Y13.668
X15.408 Y14.026
X14.929 Y14.525
X14.573 Y15.118
X14.327 Y15.765
X14.169 Y16.438
X14.073 Y17.123
X14.017 Y17.812
X13.985 Y18.503
X13.967 Y19.195
X13.957 Y19.886
X13.952 Y20.578
X13.949 Y21.27
X13.947 Y22.653
X13.948 Y27.495
X13.96 Y56.544
X13.962 Y57.236
X13.984 Y57.927
X14.114 Y58.606
X14.42 Y59.227
X14.879 Y59.744
X15.446 Y60.139
X16.079 Y60.418
X16.746 Y60.602
X17.428 Y60.717
X18.117 Y60.785
X18.807 Y60.824
X19.498 Y60.846
X20.19 Y60.858
X20.882 Y60.865
X21.573 Y60.869
X22.957 Y60.871
X26.415 Y60.872
X66.531 Y60.865
X67.223 Y60.864
X67.914 Y60.852
X68.601 Y60.768
X69.245 Y60.516
X69.799 Y60.103
X70.234 Y59.565
X70.547 Y58.948
X70.757 Y58.289
X70.889 Y57.61
X70.969 Y56.923
X71.015 Y56.233
X71.041 Y55.542
X71.056 Y54.85
X71.064 Y54.159
X71.069 Y53.467
X71.071 Y52.775
X71.074 Y51.392
X71.075 Y44.476
X71.079 Y18.193
X71.077 Y17.501
X71.05 Y16.81
X70.9 Y16.135
X70.574 Y15.524
X70.1 Y15.021
X69.523 Y14.64
X68.885 Y14.373
X68.216 Y14.198
X67.533 Y14.089
X66.844 Y14.025
X66.153 Y13.988
X65.462 Y13.967
X64.77 Y13.955
X64.079 Y13.949
X63.387 Y13.945
X62.004 Y13.942
X57.854 Y13.94
X18.43 Y13.934
X17.738 Y13.941
X17.049 Y14.001
X16.392 Y14.219
X15.818 Y14.603
X15.359 Y15.121
X15.023 Y15.725
X14.795 Y16.379
X14.65 Y17.055
X14.562 Y17.741
X14.511 Y18.431
X14.482 Y19.122
X14.465 Y19.813
X14.457 Y20.505
X14.452 Y21.196
X14.449 Y21.888
X14.448 Y23.271
X14.449 Y28.805
X14.461 Y56.471
X14.469 Y57.162
X14.546 Y57.85
X14.783 Y58.5
X15.188 Y59.06
X15.72 Y59.502
X16.332 Y59.824
X16.989 Y60.041
X17.667 Y60.18
X18.353 Y60.263
X19.043 Y60.312
X19.734 Y60.339
X20.426 Y60.355
X21.117 Y60.363
X21.809 Y60.367
X22.501 Y60.37
X23.884 Y60.372
X30.801 Y60.371
X66.075 Y60.365
X66.767 Y60.364
X67.458 Y60.351
X68.144 Y60.259
X68.783 Y59.996
X69.33 Y59.572
X69.756 Y59.027
X70.062 Y58.407
X70.266 Y57.746
X70.394 Y57.066
X70.472 Y56.379
X70.517 Y55.689
X70.542 Y54.997
X70.556 Y54.306
X70.564 Y53.614
X70.569 Y52.923
X70.571 Y52.231
X70.574 Y50.848
X70.575 Y43.24
X70.578 Y18.34
X70.57 Y17.648
X70.492 Y16.961
X70.255 Y16.311
X69.849 Y15.752
X69.316 Y15.311
X68.704 Y14.99
X68.047 Y14.772
X67.369 Y14.634
X66.683 Y14.551
X65.993 Y14.503
X65.302 Y14.475
X64.61 Y14.46
X63.918 Y14.451
X63.227 Y14.447
X62.535 Y14.444
X61.152 Y14.442
X60.46 Y14.441
X18.961 Y14.434
X18.269 Y14.438
X17.58 Y14.497
X16.921 Y14.705
X16.342 Y15.084
X15.878 Y15.597
X15.538 Y16.199
X15.305 Y16.851
X15.157 Y17.526
X15.066 Y18.212
X15.013 Y18.902
X14.983 Y19.593
X14.966 Y20.284
X14.957 Y20.976
X14.952 Y21.667
X14.95 Y22.359
X14.948 Y23.742
X14.949 Y29.276
X14.96 Y55.558
X14.962 Y56.25
X14.986 Y56.941
X15.122 Y57.619
X15.428 Y58.24
X15.89 Y58.755
X16.459 Y59.148
X17.093 Y59.425
X17.76 Y59.608
X18.442 Y59.72
X19.131 Y59.787
X19.821 Y59.825
X20.513 Y59.847
X21.204 Y59.858
X21.896 Y59.865
X22.587 Y59.868
X23.971 Y59.871
X28.121 Y59.872
X66.162 Y59.865
X66.853 Y59.858
X67.541 Y59.782
X68.191 Y59.546
X68.753 Y59.143
X69.197 Y58.613
X69.52 Y58.002
X69.739 Y57.345
X69.878 Y56.668
X69.962 Y55.981
X70.011 Y55.291
X70.039 Y54.6
X70.055 Y53.909
X70.064 Y53.217
X70.068 Y52.526
X70.071 Y51.834
X70.074 Y50.451
Y49.759
X70.079 Y19.326
X70.077 Y18.634
X70.057 Y17.943
X69.938 Y17.262
X69.648 Y16.634
X69.202 Y16.105
X68.642 Y15.699
X68.013 Y15.412
X67.348 Y15.222
X66.666 Y15.104
X65.978 Y15.033
X65.288 Y14.993
X64.597 Y14.97
X63.905 Y14.957
X63.213 Y14.95
X62.522 Y14.946
X61.138 Y14.942
X57.68 Y14.94
X52.839 Y14.939
X19.639 Y14.934
X18.947 Y14.935
X18.257 Y14.969
X17.584 Y15.131
X16.981 Y15.47
X16.488 Y15.955
X16.117 Y16.538
X15.858 Y17.18
X15.69 Y17.851
X15.586 Y18.534
X15.524 Y19.223
X15.489 Y19.914
X15.47 Y20.605
X15.459 Y21.297
X15.453 Y21.989
X15.45 Y22.68
X15.448 Y24.064
X15.449 Y28.214
Y29.597
X15.46 Y55.188
X15.464 Y55.88
X15.501 Y56.57
X15.668 Y57.242
X16.006 Y57.845
X16.49 Y58.339
X17.074 Y58.71
X17.716 Y58.967
X18.387 Y59.133
X19.072 Y59.235
X19.761 Y59.295
X20.451 Y59.33
X21.143 Y59.349
X21.834 Y59.36
X22.526 Y59.366
X23.218 Y59.369
X24.601 Y59.371
X28.751 Y59.372
X37.742 Y59.37
X65.409 Y59.365
X66.1 Y59.362
X66.791 Y59.327
X67.461 Y59.156
X68.06 Y58.81
X68.548 Y58.32
X68.914 Y57.733
X69.169 Y57.09
X69.335 Y56.418
X69.437 Y55.734
X69.497 Y55.045
X69.531 Y54.354
X69.55 Y53.663
X69.561 Y52.971
X69.567 Y52.28
X69.57 Y51.588
X69.573 Y50.205
X69.575 Y45.363
X69.576 Y39.138
X69.578 Y19.772
X69.577 Y19.08
X69.552 Y18.389
X69.422 Y17.71
X69.118 Y17.089
X68.661 Y16.57
X68.094 Y16.174
X67.461 Y15.895
X66.794 Y15.712
X66.112 Y15.598
X65.423 Y15.53
X64.733 Y15.491
X64.041 Y15.469
X63.35 Y15.456
X62.658 Y15.449
X61.967 Y15.445
X60.583 Y15.442
X57.125 Y15.44
X41.217 Y15.437
X20.467 Y15.434
X19.776
X19.084 Y15.445
X18.398 Y15.535
X17.755 Y15.789
X17.206 Y16.21
X16.777 Y16.752
X16.467 Y17.371
X16.259 Y18.03
X16.127 Y18.709
X16.048 Y19.397
X16.003 Y20.087
X15.977 Y20.778
X15.963 Y21.469
X15.956 Y22.161
X15.952 Y22.853
X15.95 Y23.544
X15.948 Y24.928
X15.95 Y32.536
X15.954 Y42.219
X15.96 Y54.669
X15.962 Y55.36
X15.998 Y56.051
X16.159 Y56.724
X16.494 Y57.329
X16.976 Y57.826
X17.558 Y58.199
X18.199 Y58.458
X18.87 Y58.627
X19.554 Y58.732
X20.242 Y58.793
X20.933 Y58.828
X21.625 Y58.848
X22.316 Y58.859
X23.008 Y58.865
X23.699 Y58.869
X25.083 Y58.871
X29.233 Y58.872
X51.366 Y58.868
X64.507 Y58.865
X65.199
X65.89 Y58.855
X66.577 Y58.774
X67.224 Y58.53
X67.781 Y58.119
X68.219 Y57.584
X68.536 Y56.969
X68.75 Y56.312
X68.886 Y55.633
X68.967 Y54.946
X69.014 Y54.256
X69.041 Y53.565
X69.056 Y52.874
X69.064 Y52.182
X69.069 Y51.49
X69.071 Y50.799
X69.074 Y49.415
X69.076 Y42.499
X69.078 Y24.516
Y20.366
Y19.674
X69.063 Y18.983
X68.952 Y18.3
X68.67 Y17.668
X68.23 Y17.135
X67.674 Y16.723
X67.048 Y16.429
X66.385 Y16.234
X65.704 Y16.111
X65.016 Y16.038
X64.326 Y15.995
X63.635 Y15.971
X62.943 Y15.958
X62.252 Y15.95
X61.56 Y15.946
X60.868 Y15.943
X58.793 Y15.941
X25.594 Y15.935
X20.752 Y15.934
X20.061 Y15.936
X19.369 Y15.961
X18.692 Y16.098
X18.072 Y16.406
X17.557 Y16.868
X17.165 Y17.437
X16.889 Y18.072
X16.709 Y18.739
X16.597 Y19.422
X16.531 Y20.111
X16.494 Y20.801
X16.472 Y21.493
X16.461 Y22.184
X16.454 Y22.876
X16.451 Y23.567
X16.449 Y24.951
Y29.101
X16.459 Y54
X16.46 Y54.692
X16.477 Y55.383
X16.601 Y56.064
X16.896 Y56.689
X17.347 Y57.214
X17.909 Y57.617
X18.539 Y57.902
X19.204 Y58.092
X19.886 Y58.21
X20.574 Y58.281
X21.264 Y58.321
X21.955 Y58.344
X22.647 Y58.357
X23.339 Y58.364
X24.03 Y58.368
X25.414 Y58.371
X28.872 Y58.372
X64.146 Y58.365
X64.838 Y58.364
X65.529 Y58.346
X66.212 Y58.238
X66.845 Y57.958
X67.38 Y57.52
X67.794 Y56.966
X68.089 Y56.34
X68.283 Y55.676
X68.405 Y54.995
X68.478 Y54.308
X68.52 Y53.617
X68.544 Y52.926
X68.558 Y52.234
X68.565 Y51.543
X68.57 Y50.851
X68.572 Y50.16
X68.574 Y48.085
X68.578 Y20.418
X68.572 Y19.727
X68.508 Y19.038
X68.29 Y18.382
X67.901 Y17.81
X67.38 Y17.355
X66.774 Y17.021
X66.121 Y16.793
X65.445 Y16.648
X64.759 Y16.559
X64.069 Y16.507
X63.378 Y16.478
X62.687 Y16.461
X61.995 Y16.452
X61.304 Y16.447
X60.612 Y16.444
X59.229 Y16.441
X56.462 Y16.44
X21.188 Y16.434
X20.496 Y16.436
X19.805 Y16.468
X19.13 Y16.62
X18.52 Y16.945
X18.016 Y17.418
X17.635 Y17.996
X17.37 Y18.635
X17.197 Y19.305
X17.091 Y19.988
X17.028 Y20.677
X16.992 Y21.367
X16.971 Y22.059
X16.96 Y22.75
X16.954 Y23.442
X16.951 Y24.134
X16.949 Y25.517
Y28.975
X16.959 Y53.875
X16.965 Y54.566
X17.025 Y55.255
X17.238 Y55.914
X17.622 Y56.489
X18.14 Y56.948
X18.743 Y57.285
X19.395 Y57.516
X20.071 Y57.664
X20.757 Y57.754
X21.446 Y57.806
X22.137 Y57.836
X22.829 Y57.852
X23.52 Y57.862
X24.212 Y57.866
X24.904 Y57.869
X26.287 Y57.871
X31.82
X40.12 Y57.87
X63.636 Y57.865
X64.328
X65.019 Y57.848
X65.703 Y57.743
X66.336 Y57.464
X66.872 Y57.027
X67.287 Y56.474
X67.583 Y55.849
X67.779 Y55.185
X67.903 Y54.505
X67.977 Y53.817
X68.02 Y53.127
X68.044 Y52.436
X68.058 Y51.744
X68.065 Y51.052
X68.069 Y50.361
X68.072 Y49.669
X68.074 Y47.594
X68.077 Y33.761
X68.078 Y21.311
X68.077 Y20.62
X68.057 Y19.928
X67.933 Y19.248
X67.641 Y18.621
X67.189 Y18.097
X66.627 Y17.694
X65.997 Y17.409
X65.332 Y17.219
X64.65 Y17.102
X63.962 Y17.032
X63.272 Y16.992
X62.58 Y16.969
X61.889 Y16.956
X61.197 Y16.949
X60.506 Y16.945
X59.122 Y16.942
X55.664 Y16.94
X32.839 Y16.936
X21.773 Y16.934
X21.081 Y16.935
X20.39 Y16.958
X19.711 Y17.088
X19.09 Y17.394
X18.573 Y17.853
X18.178 Y18.421
X17.9 Y19.054
X17.717 Y19.721
X17.603 Y20.403
X17.535 Y21.092
X17.496 Y21.782
X17.474 Y22.474
X17.462 Y23.165
X17.455 Y23.857
X17.452 Y24.548
X17.449 Y25.932
Y29.39
X17.459 Y52.906
X17.46 Y53.598
X17.475 Y54.289
X17.576 Y54.974
X17.846 Y55.61
X18.276 Y56.152
X18.825 Y56.573
X19.448 Y56.874
X20.11 Y57.074
X20.79 Y57.2
X21.478 Y57.274
X22.168 Y57.318
X22.859 Y57.342
X23.551 Y57.356
X24.242 Y57.363
X24.934 Y57.367
X25.626 Y57.37
X27.701 Y57.371
X63.667 Y57.365
X64.358 Y57.358
X65.046 Y57.28
X65.696 Y57.044
X66.257 Y56.64
X66.7 Y56.108
X67.022 Y55.496
X67.24 Y54.84
X67.379 Y54.162
X67.463 Y53.476
X67.512 Y52.786
X67.54 Y52.095
X67.555 Y51.403
X67.564 Y50.712
X67.569 Y50.02
X67.572 Y49.328
X67.574 Y47.945
X67.576 Y41.72
X67.578 Y21.662
X67.575 Y20.971
X67.541 Y20.28
X67.383 Y19.606
X67.053 Y18.999
X66.576 Y18.498
X65.996 Y18.121
X65.356 Y17.859
X64.686 Y17.689
X64.002 Y17.584
X63.313 Y17.522
X62.623 Y17.486
X61.931 Y17.466
X61.24 Y17.455
X60.548 Y17.448
X59.856 Y17.445
X58.473 Y17.442
X55.706 Y17.44
X21.815 Y17.434
X21.124 Y17.443
X20.437 Y17.527
X19.79 Y17.772
X19.235 Y18.185
X18.799 Y18.722
X18.483 Y19.337
X18.27 Y19.995
X18.135 Y20.673
X18.053 Y21.36
X18.006 Y22.05
X17.98 Y22.741
X17.965 Y23.433
X17.957 Y24.124
X17.953 Y24.816
X17.95 Y25.508
X17.949 Y26.891
X17.95 Y31.732
X17.959 Y52.482
X17.96 Y53.174
X17.981 Y53.865
X18.097 Y54.547
X18.386 Y55.175
X18.832 Y55.704
X19.391 Y56.111
X20.02 Y56.4
X20.685 Y56.59
X21.366 Y56.709
X22.054 Y56.78
X22.744 Y56.821
X23.436 Y56.844
X24.127 Y56.857
X24.819 Y56.864
X25.511 Y56.868
X26.894 Y56.871
X30.352
X44.877 Y56.869
X62.86 Y56.866
X63.552 Y56.863
X64.243 Y56.833
X64.915 Y56.672
X65.521 Y56.339
X66.018 Y55.858
X66.393 Y55.276
X66.655 Y54.636
X66.826 Y53.966
X66.932 Y53.282
X66.994 Y52.594
X67.03 Y51.903
X67.05 Y51.211
X67.061 Y50.52
X67.067 Y49.828
X67.071 Y49.137
X67.074 Y47.753
X67.075 Y43.603
X67.078 Y27.004
Y22.162
X67.076 Y21.47
X67.041 Y20.78
X66.884 Y20.106
X66.553 Y19.499
X66.075 Y18.999
X65.495 Y18.623
X64.855 Y18.361
X64.184 Y18.19
X63.501 Y18.085
X62.812 Y18.022
X62.121 Y17.986
X61.43 Y17.966
X60.738 Y17.955
X60.047 Y17.948
X59.355 Y17.945
X57.972 Y17.941
X53.822 Y17.94
X24.081 Y17.934
X22.697
X22.006 Y17.937
X21.315 Y17.965
X20.64 Y18.116
X20.028 Y18.439
X19.524 Y18.912
X19.142 Y19.489
X18.875 Y20.127
X18.699 Y20.796
X18.592 Y21.479
X18.528 Y22.168
X18.492 Y22.859
X18.472 Y23.55
X18.461 Y24.242
X18.455 Y24.933
X18.452 Y25.625
X18.449 Y27.008
X18.45 Y31.158
X18.458 Y51.908
X18.459 Y52.599
X18.473 Y53.291
X18.575 Y53.975
X18.846 Y54.611
X19.278 Y55.152
X19.828 Y55.571
X20.451 Y55.871
X21.113 Y56.071
X21.793 Y56.197
X22.481 Y56.273
X23.171 Y56.317
X23.862 Y56.342
X24.554 Y56.355
X25.245 Y56.363
X25.937 Y56.367
X26.629 Y56.369
X28.012 Y56.371
X36.312 Y56.37
X62.595 Y56.365
X63.286 Y56.358
X63.975 Y56.298
X64.631 Y56.078
X65.205 Y55.692
X65.662 Y55.172
X65.997 Y54.567
X66.225 Y53.914
X66.37 Y53.238
X66.457 Y52.552
X66.509 Y51.862
X66.538 Y51.171
X66.554 Y50.48
X66.564 Y49.788
X66.569 Y49.096
X66.571 Y48.405
X66.574 Y47.022
X66.575 Y42.872
X66.578 Y22.814
X66.577 Y22.122
X66.56 Y21.43
X66.437 Y20.75
X66.142 Y20.124
X65.69 Y19.6
X65.128 Y19.198
X64.498 Y18.912
X63.833 Y18.723
X63.151 Y18.604
X62.463 Y18.533
X61.773 Y18.492
X61.082 Y18.469
X60.39 Y18.456
X59.699 Y18.449
X59.007 Y18.445
X57.624 Y18.442
X54.165 Y18.44
X38.949 Y18.437
X23.041 Y18.434
X22.349 Y18.439
X21.659 Y18.486
X20.994 Y18.676
X20.403 Y19.035
X19.925 Y19.535
X19.57 Y20.128
X19.326 Y20.776
X19.17 Y21.449
X19.075 Y22.134
X19.019 Y22.824
X18.987 Y23.515
X18.969 Y24.206
X18.959 Y24.898
X18.954 Y25.589
X18.951 Y26.281
X18.949 Y27.664
X18.95 Y32.506
X18.958 Y50.489
X18.959 Y51.872
X18.964 Y52.564
X19.025 Y53.253
X19.237 Y53.911
X19.621 Y54.487
X20.138 Y54.946
X20.741 Y55.284
X21.393 Y55.514
X22.069 Y55.663
X22.755 Y55.753
X23.445 Y55.805
X24.136 Y55.835
X24.827 Y55.852
X25.519 Y55.861
X26.21 Y55.866
X26.902 Y55.869
X28.285 Y55.871
X33.818
X61.485 Y55.866
X62.176 Y55.865
X62.868 Y55.856
X63.555 Y55.781
X64.204 Y55.541
X64.765 Y55.136
X65.208 Y54.605
X65.529 Y53.992
X65.745 Y53.335
X65.882 Y52.657
X65.964 Y51.97
X66.013 Y51.28
X66.04 Y50.589
X66.056 Y49.898
X66.064 Y49.206
X66.069 Y48.514
X66.072 Y47.823
X66.074 Y46.439
X66.076 Y40.215
X66.078 Y22.923
X66.072 Y22.232
X66.009 Y21.543
X65.793 Y20.886
X65.405 Y20.313
X64.884 Y19.858
X64.279 Y19.523
X63.626 Y19.294
X62.95 Y19.148
X62.265 Y19.059
X61.575 Y19.007
X60.884 Y18.977
X60.192 Y18.961
X59.501 Y18.952
X58.809 Y18.946
X58.117 Y18.944
X56.734 Y18.941
X51.201 Y18.939
X49.818
X23.535 Y18.934
X22.843 Y18.938
X22.153 Y18.988
X21.488 Y19.178
X20.899 Y19.54
X20.422 Y20.041
X20.069 Y20.636
X19.827 Y21.284
X19.671 Y21.957
X19.575 Y22.642
X19.519 Y23.332
X19.487 Y24.023
X19.47 Y24.714
X19.46 Y25.406
X19.454 Y26.097
X19.452 Y26.789
X19.45 Y28.172
X19.451 Y33.014
X19.454 Y40.622
X19.458 Y50.997
X19.46 Y51.689
X19.479 Y52.38
X19.602 Y53.061
X19.893 Y53.688
X20.344 Y54.213
X20.905 Y54.616
X21.535 Y54.903
X22.2 Y55.093
X22.881 Y55.211
X23.569 Y55.281
X24.26 Y55.322
X24.951 Y55.344
X25.643 Y55.357
X26.334 Y55.364
X27.026 Y55.367
X28.409 Y55.37
X31.868 Y55.371
X56.767 Y55.367
X61.609 Y55.366
X62.3 Y55.36
X62.989 Y55.293
X63.644 Y55.071
X64.215 Y54.68
X64.668 Y54.158
X65 Y53.552
X65.226 Y52.898
X65.37 Y52.221
X65.457 Y51.535
X65.509 Y50.845
X65.538 Y50.154
X65.554 Y49.463
X65.564 Y48.771
X65.569 Y48.08
X65.572 Y47.388
X65.574 Y46.005
X65.576 Y40.472
X65.578 Y23.872
X65.577 Y23.18
X65.56 Y22.489
X65.451 Y21.806
X65.173 Y21.172
X64.734 Y20.637
X64.18 Y20.223
X63.555 Y19.928
X62.892 Y19.732
X62.211 Y19.609
X61.523 Y19.536
X60.833 Y19.494
X60.142 Y19.47
X59.45 Y19.457
X58.758 Y19.449
X58.067 Y19.445
X57.375 Y19.443
X56.683 Y19.441
X53.225 Y19.439
X24.176 Y19.434
X23.484 Y19.436
X22.793 Y19.467
X22.119 Y19.621
X21.511 Y19.951
X21.011 Y20.429
X20.634 Y21.009
X20.371 Y21.649
X20.198 Y22.318
X20.092 Y23.002
X20.029 Y23.691
X19.993 Y24.381
X19.973 Y25.073
X19.961 Y25.764
X19.955 Y26.456
X19.952 Y27.148
X19.95 Y28.531
Y32.681
X19.951 Y34.756
X19.958 Y50.664
X19.962 Y51.355
X19.996 Y52.046
X20.158 Y52.719
X20.491 Y53.325
X20.97 Y53.824
X21.551 Y54.199
X22.192 Y54.459
X22.863 Y54.628
X23.547 Y54.732
X24.235 Y54.793
X24.926 Y54.828
X25.618 Y54.848
X26.309 Y54.859
X27.001 Y54.865
X27.692 Y54.868
X29.076 Y54.87
X33.226 Y54.871
X51.9 Y54.868
X60.892 Y54.866
X61.584 Y54.864
X62.274 Y54.829
X62.946 Y54.663
X63.547 Y54.321
X64.038 Y53.834
X64.407 Y53.249
X64.664 Y52.607
X64.831 Y51.936
X64.935 Y51.252
X64.996 Y50.563
X65.031 Y49.872
X65.051 Y49.181
X65.062 Y48.489
X65.068 Y47.798
X65.071 Y47.106
X65.074 Y45.723
X65.076 Y41.573
X65.078 Y24.281
X65.076 Y23.59
X65.052 Y22.898
X64.924 Y22.219
X64.622 Y21.596
X64.167 Y21.076
X63.601 Y20.678
X62.969 Y20.397
X62.302 Y20.213
X61.62 Y20.098
X60.932 Y20.03
X60.241 Y19.991
X59.55 Y19.968
X58.859 Y19.956
X58.167 Y19.949
X57.475 Y19.945
X56.092 Y19.941
X52.634 Y19.939
X24.968 Y19.934
X24.276 Y19.935
X23.584 Y19.946
X22.899 Y20.037
X22.256 Y20.292
X21.707 Y20.714
X21.278 Y21.256
X20.969 Y21.875
X20.761 Y22.534
X20.629 Y23.213
X20.551 Y23.901
X20.505 Y24.591
X20.479 Y25.282
X20.465 Y25.973
X20.458 Y26.665
X20.453 Y27.357
X20.451 Y28.048
X20.45 Y29.432
Y32.89
X20.458 Y50.181
X20.461 Y50.873
X20.499 Y51.564
X20.663 Y52.235
X21.001 Y52.839
X21.484 Y53.334
X22.068 Y53.705
X22.71 Y53.962
X23.381 Y54.129
X24.065 Y54.232
X24.754 Y54.293
X25.445 Y54.328
X26.136 Y54.348
X26.828 Y54.359
X27.519 Y54.365
X28.211 Y54.368
X29.594 Y54.37
X33.744 Y54.371
X51.036 Y54.368
X60.027 Y54.366
X60.719 Y54.365
X61.41 Y54.355
X62.097 Y54.27
X62.742 Y54.022
X63.295 Y53.606
X63.729 Y53.067
X64.043 Y52.451
X64.255 Y51.793
X64.389 Y51.114
X64.469 Y50.427
X64.516 Y49.737
X64.542 Y49.046
X64.557 Y48.354
X64.565 Y47.663
X64.57 Y46.971
X64.572 Y46.279
X64.574 Y44.896
X64.576 Y37.98
X64.578 Y24.838
X64.577 Y24.146
X64.559 Y23.455
X64.444 Y22.773
X64.155 Y22.145
X63.709 Y21.616
X63.15 Y21.208
X62.522 Y20.919
X61.858 Y20.727
X61.176 Y20.607
X60.488 Y20.535
X59.798 Y20.493
X59.107 Y20.47
X58.415 Y20.456
X57.724 Y20.449
X57.032 Y20.445
X55.649 Y20.441
X52.19 Y20.439
X25.216 Y20.435
X24.524 Y20.437
X23.833 Y20.465
X23.157 Y20.612
X22.543 Y20.929
X22.035 Y21.399
X21.65 Y21.973
X21.38 Y22.61
X21.203 Y23.279
X21.095 Y23.962
X21.031 Y24.65
X20.994 Y25.341
X20.973 Y26.032
X20.962 Y26.724
X20.956 Y27.416
X20.953 Y28.107
X20.95 Y29.491
X20.951 Y33.641
Y35.024
X20.957 Y49.549
X20.959 Y50.24
X20.981 Y50.932
X21.114 Y51.61
X21.422 Y52.23
X21.882 Y52.746
X22.451 Y53.14
X23.084 Y53.418
X23.751 Y53.601
X24.433 Y53.716
X25.121 Y53.783
X25.812 Y53.823
X26.503 Y53.845
X27.195 Y53.857
X27.886 Y53.864
X28.578 Y53.867
X29.961 Y53.87
X33.42 Y53.871
X54.169 Y53.867
X59.702 Y53.866
X60.394 Y53.864
X61.085 Y53.843
X61.766 Y53.722
X62.393 Y53.428
X62.919 Y52.98
X63.323 Y52.418
X63.609 Y51.788
X63.797 Y51.123
X63.914 Y50.441
X63.983 Y49.753
X64.024 Y49.062
X64.046 Y48.371
X64.059 Y47.679
X64.066 Y46.988
X64.07 Y46.296
X64.074 Y44.913
X64.076 Y41.455
X64.077 Y24.855
X64.07 Y24.163
X63.994 Y23.476
X63.76 Y22.825
X63.356 Y22.263
X62.826 Y21.819
X62.215 Y21.496
X61.559 Y21.277
X60.881 Y21.137
X60.195 Y21.052
X59.505 Y21.003
X58.814 Y20.975
X58.122 Y20.959
X57.431 Y20.951
X56.739 Y20.946
X56.047 Y20.943
X54.664 Y20.941
X53.281 Y20.94
X25.615 Y20.935
X24.923 Y20.938
X24.232 Y20.978
X23.562 Y21.148
X22.961 Y21.491
X22.47 Y21.978
X22.103 Y22.564
X21.849 Y23.207
X21.685 Y23.879
X21.584 Y24.564
X21.525 Y25.253
X21.491 Y25.944
X21.472 Y26.635
X21.461 Y27.327
X21.456 Y28.018
X21.453 Y28.71
X21.45 Y30.093
X21.451 Y34.935
X21.454 Y41.16
X21.458 Y49.459
X21.466 Y50.151
X21.542 Y50.839
X21.776 Y51.489
X22.179 Y52.051
X22.71 Y52.495
X23.321 Y52.818
X23.977 Y53.037
X24.655 Y53.177
X25.341 Y53.261
X26.031 Y53.31
X26.722 Y53.338
X27.414 Y53.353
X28.105 Y53.361
X28.797 Y53.366
X29.489 Y53.369
X30.872 Y53.37
X37.097
X59.23 Y53.366
X59.922 Y53.365
X60.613 Y53.341
X61.293 Y53.214
X61.916 Y52.914
X62.437 Y52.459
X62.835 Y51.893
X63.116 Y51.261
X63.301 Y50.595
X63.416 Y49.913
X63.485 Y49.224
X63.524 Y48.534
X63.547 Y47.843
X63.56 Y47.151
X63.567 Y46.46
X63.57 Y45.768
X63.574 Y44.385
X63.576 Y40.926
X63.578 Y25.71
X63.576 Y25.018
X63.549 Y24.327
X63.401 Y23.651
X63.082 Y23.038
X62.612 Y22.531
X62.037 Y22.146
X61.4 Y21.876
X60.732 Y21.699
X60.049 Y21.589
X59.36 Y21.524
X58.669 Y21.487
X57.978 Y21.466
X57.286 Y21.454
X56.595 Y21.448
X55.903 Y21.444
X54.52 Y21.441
X50.37 Y21.439
X44.145 Y21.438
X26.162 Y21.435
X25.47 Y21.437
X24.78 Y21.471
X24.106 Y21.629
X23.5 Y21.962
X23.002 Y22.442
X22.627 Y23.023
X22.366 Y23.664
X22.196 Y24.334
X22.091 Y25.018
X22.029 Y25.707
X21.993 Y26.397
X21.973 Y27.089
X21.962 Y27.78
X21.956 Y28.472
X21.953 Y29.164
X21.951 Y30.547
Y34.697
X21.957 Y48.53
X21.959 Y49.222
X21.982 Y49.913
X22.112 Y50.592
X22.411 Y51.216
X22.867 Y51.736
X23.433 Y52.133
X24.065 Y52.415
X24.731 Y52.601
X25.413 Y52.715
X26.101 Y52.783
X26.792 Y52.822
X27.483 Y52.845
X28.175 Y52.857
X28.866 Y52.863
X29.558 Y52.867
X30.941 Y52.87
X34.4 Y52.871
X58.608 Y52.866
X59.299
X59.991 Y52.854
X60.675 Y52.751
X61.311 Y52.48
X61.851 Y52.048
X62.271 Y51.498
X62.571 Y50.875
X62.772 Y50.213
X62.899 Y49.533
X62.975 Y48.846
X63.019 Y48.156
X63.044 Y47.464
X63.058 Y46.773
X63.066 Y46.081
X63.07 Y45.39
X63.072 Y44.698
X63.075 Y42.623
Y41.931
X63.077 Y26.023
X63.072 Y25.332
X63.025 Y24.642
X62.831 Y23.978
X62.469 Y23.389
X61.967 Y22.912
X61.372 Y22.559
X60.724 Y22.318
X60.05 Y22.162
X59.365 Y22.068
X58.676 Y22.012
X57.985 Y21.98
X57.293 Y21.962
X56.602 Y21.952
X55.91 Y21.947
X55.218 Y21.943
X53.835 Y21.941
X48.993 Y21.939
X31.01 Y21.935
X26.861
X26.169 Y21.936
X25.477 Y21.951
X24.795 Y22.065
X24.165 Y22.349
X23.634 Y22.793
X23.224 Y23.35
X22.932 Y23.977
X22.738 Y24.641
X22.616 Y25.321
X22.543 Y26.009
X22.501 Y26.7
X22.478 Y27.391
X22.465 Y28.082
X22.458 Y28.774
X22.454 Y29.466
X22.451 Y30.849
Y34.307
X22.457 Y48.14
X22.46 Y48.832
X22.494 Y49.523
X22.649 Y50.197
X22.976 Y50.806
X23.452 Y51.308
X24.031 Y51.687
X24.67 Y51.951
X25.34 Y52.122
X26.024 Y52.228
X26.712 Y52.291
X27.403 Y52.326
X28.094 Y52.347
X28.786 Y52.358
X29.478 Y52.364
X30.169 Y52.367
X31.553 Y52.37
X35.703
X37.086
X58.527 Y52.366
X59.219 Y52.362
X59.908 Y52.309
X60.571 Y52.11
X61.153 Y51.736
X61.62 Y51.226
X61.966 Y50.627
X62.204 Y49.978
X62.357 Y49.303
X62.45 Y48.618
X62.505 Y47.928
X62.536 Y47.237
X62.554 Y46.546
X62.563 Y45.854
X62.569 Y45.163
X62.572 Y44.471
X62.574 Y43.088
X62.576 Y37.555
X62.577 Y26.488
X62.572 Y25.797
X62.518 Y25.107
X62.316 Y24.445
X61.945 Y23.862
X61.437 Y23.392
X60.838 Y23.046
X60.189 Y22.809
X59.514 Y22.658
X58.828 Y22.565
X58.139 Y22.51
X57.448 Y22.479
X56.756 Y22.462
X56.065 Y22.452
X55.373 Y22.446
X54.682 Y22.443
X53.298 Y22.44
X48.457 Y22.439
X27.015 Y22.435
X26.324 Y22.44
X25.634 Y22.487
X24.971 Y22.684
X24.385 Y23.052
X23.913 Y23.558
X23.564 Y24.154
X23.323 Y24.803
X23.168 Y25.477
X23.074 Y26.162
X23.019 Y26.851
X22.987 Y27.542
X22.97 Y28.234
X22.961 Y28.925
X22.956 Y29.617
X22.953 Y30.309
X22.951 Y31.692
Y33.075
X22.957 Y47.6
X22.958 Y48.292
X22.988 Y48.983
X23.132 Y49.659
X23.452 Y50.273
X23.921 Y50.781
X24.496 Y51.166
X25.132 Y51.436
X25.801 Y51.612
X26.484 Y51.722
X27.173 Y51.787
X27.863 Y51.824
X28.555 Y51.845
X29.246 Y51.857
X29.938 Y51.864
X30.629 Y51.867
X32.013 Y51.87
X36.163
X56.221 Y51.867
X57.604
X58.296 Y51.865
X58.987 Y51.851
X59.671 Y51.75
X60.309 Y51.482
X60.85 Y51.052
X61.271 Y50.503
X61.573 Y49.88
X61.775 Y49.219
X61.901 Y48.539
X61.976 Y47.851
X62.02 Y47.161
X62.044 Y46.47
X62.058 Y45.778
X62.066 Y45.087
X62.07 Y44.395
X62.073 Y43.703
X62.075 Y41.628
X62.077 Y27.104
X62.075 Y26.412
X62.035 Y25.721
X61.865 Y25.051
X61.519 Y24.452
X61.029 Y23.964
X60.442 Y23.598
X59.798 Y23.344
X59.127 Y23.179
X58.443 Y23.078
X57.754 Y23.018
X57.063 Y22.983
X56.371 Y22.964
X55.68 Y22.953
X54.988 Y22.947
X54.297 Y22.944
X52.913 Y22.941
X48.072 Y22.939
X43.23 Y22.938
X28.014 Y22.935
X27.322 Y22.936
X26.63 Y22.946
X25.943 Y23.025
X25.297 Y23.271
X24.739 Y23.68
X24.3 Y24.215
X23.983 Y24.829
X23.77 Y25.488
X23.636 Y26.166
X23.555 Y26.853
X23.508 Y27.543
X23.482 Y28.234
X23.467 Y28.926
X23.459 Y29.617
X23.455 Y30.309
X23.453 Y31.001
X23.451 Y32.384
X23.453 Y39.3
X23.456 Y46.909
X23.457 Y47.6
X23.47 Y48.292
X23.575 Y48.976
X23.846 Y49.612
X24.279 Y50.151
X24.83 Y50.57
X25.453 Y50.87
X26.115 Y51.07
X26.795 Y51.197
X27.482 Y51.272
X28.173 Y51.316
X28.864 Y51.341
X29.555 Y51.355
X30.247 Y51.362
X30.939 Y51.366
X31.63 Y51.368
X33.705 Y51.37
X57.222 Y51.367
X57.913 Y51.365
X58.605 Y51.342
X59.285 Y51.216
X59.909 Y50.918
X60.432 Y50.465
X60.832 Y49.901
X61.114 Y49.27
X61.3 Y48.603
X61.416 Y47.922
X61.485 Y47.233
X61.525 Y46.543
X61.547 Y45.852
X61.56 Y45.16
X61.567 Y44.468
X61.571 Y43.777
X61.574 Y42.393
X61.576 Y38.935
X61.577 Y32.019
Y27.869
Y27.177
X61.561 Y26.486
X61.45 Y25.803
X61.17 Y25.17
X60.73 Y24.637
X60.175 Y24.225
X59.549 Y23.93
X58.886 Y23.734
X58.205 Y23.61
X57.517 Y23.536
X56.827 Y23.494
X56.136 Y23.47
X55.444 Y23.456
X54.753 Y23.449
X54.061 Y23.444
X53.369 Y23.442
X51.294 Y23.439
X28.47 Y23.435
X27.778 Y23.436
X27.087 Y23.448
X26.4 Y23.535
X25.758 Y23.792
X25.208 Y24.211
X24.778 Y24.753
X24.468 Y25.371
X24.261 Y26.031
X24.131 Y26.71
X24.052 Y27.398
X24.007 Y28.088
X23.981 Y28.779
X23.967 Y29.47
X23.959 Y30.162
X23.955 Y30.854
X23.953 Y31.545
X23.951 Y32.929
X23.953 Y39.845
X23.956 Y46.762
X23.961 Y47.453
X24.002 Y48.144
X24.189 Y48.81
X24.547 Y49.401
X25.046 Y49.88
X25.639 Y50.237
X26.285 Y50.484
X26.958 Y50.644
X27.643 Y50.742
X28.332 Y50.799
X29.023 Y50.831
X29.714 Y50.849
X30.406 Y50.859
X31.097 Y50.865
X31.789 Y50.867
X33.172 Y50.87
X38.014
X55.997 Y50.867
X57.38 Y50.866
X58.072 Y50.846
X58.753 Y50.729
X59.381 Y50.438
X59.908 Y49.99
X60.313 Y49.43
X60.601 Y48.801
X60.791 Y48.136
X60.91 Y47.454
X60.982 Y46.766
X61.023 Y46.076
X61.046 Y45.385
X61.059 Y44.693
X61.067 Y44.002
X61.071 Y43.31
X61.074 Y41.927
X61.076 Y38.468
X61.077 Y28.093
X61.074 Y27.402
X61.035 Y26.711
X60.859 Y26.042
X60.513 Y25.444
X60.022 Y24.957
X59.434 Y24.592
X58.79 Y24.339
X58.118 Y24.175
X57.434 Y24.075
X56.745 Y24.016
X56.054 Y23.982
X55.363 Y23.963
X54.671 Y23.952
X53.98 Y23.947
X53.288 Y23.943
X51.905 Y23.94
X47.063 Y23.938
X39.455 Y23.937
X28.388 Y23.935
X27.697 Y23.941
X27.009 Y24.012
X26.356 Y24.24
X25.789 Y24.637
X25.34 Y25.163
X25.012 Y25.772
X24.79 Y26.427
X24.649 Y27.104
X24.563 Y27.79
X24.513 Y28.48
X24.485 Y29.171
X24.469 Y29.863
X24.46 Y30.554
X24.456 Y31.246
X24.453 Y31.938
X24.452 Y33.321
X24.453 Y39.546
X24.456 Y45.771
X24.457 Y46.462
X24.466 Y47.154
X24.539 Y47.842
X24.777 Y48.491
X25.178 Y49.055
X25.708 Y49.5
X26.319 Y49.823
X26.976 Y50.04
X27.653 Y50.178
X28.34 Y50.261
X29.03 Y50.31
X29.721 Y50.337
X30.413 Y50.352
X31.104 Y50.361
X31.796 Y50.365
X32.487 Y50.368
X33.871 Y50.37
X36.637
X56.695 Y50.366
X57.387 Y50.358
X58.074 Y50.275
X58.721 Y50.032
X59.278 Y49.621
X59.716 Y49.086
X60.033 Y48.471
X60.248 Y47.814
X60.384 Y47.136
X60.466 Y46.449
X60.514 Y45.759
X60.541 Y45.068
X60.557 Y44.376
X60.565 Y43.685
X60.57 Y42.993
X60.573 Y42.302
X60.575 Y40.918
X60.577 Y34.002
Y28.468
X60.571 Y27.777
X60.515 Y27.087
X60.308 Y26.427
X59.933 Y25.846
X59.422 Y25.38
X58.822 Y25.037
X58.171 Y24.803
X57.495 Y24.653
X56.81 Y24.562
X56.12 Y24.509
X55.429 Y24.478
X54.738 Y24.461
X54.046 Y24.451
X53.355 Y24.446
X52.663 Y24.443
X51.28 Y24.44
X45.746 Y24.438
X29.147 Y24.435
X28.455 Y24.437
X27.764 Y24.468
X27.092 Y24.632
X26.488 Y24.97
X25.994 Y25.453
X25.622 Y26.037
X25.363 Y26.678
X25.194 Y27.349
X25.09 Y28.032
X25.028 Y28.721
X24.993 Y29.412
X24.974 Y30.103
X24.963 Y30.795
X24.957 Y31.487
X24.954 Y32.178
X24.952 Y33.562
Y37.711
X24.955 Y44.628
X24.956 Y46.011
X24.967 Y46.703
X25.05 Y47.39
X25.299 Y48.035
X25.712 Y48.59
X26.249 Y49.026
X26.865 Y49.34
X27.524 Y49.551
X28.203 Y49.684
X28.89 Y49.765
X29.58 Y49.812
X30.271 Y49.838
X30.962 Y49.853
X31.654 Y49.861
X32.345 Y49.866
X33.037 Y49.868
X34.42 Y49.87
X41.337
X55.862 Y49.867
X56.553 Y49.864
X57.244 Y49.833
X57.917 Y49.672
X58.523 Y49.339
X59.02 Y48.858
X59.395 Y48.276
X59.656 Y47.636
X59.828 Y46.966
X59.933 Y46.282
X59.995 Y45.593
X60.031 Y44.903
X60.051 Y44.211
X60.062 Y43.52
X60.068 Y42.828
X60.072 Y42.136
X60.075 Y40.753
X60.076 Y36.603
X60.077 Y28.995
X60.073 Y28.303
X60.019 Y27.614
X59.82 Y26.952
X59.449 Y26.367
X58.942 Y25.897
X58.344 Y25.55
X57.694 Y25.312
X57.02 Y25.159
X56.335 Y25.066
X55.645 Y25.011
X54.954 Y24.979
X54.263 Y24.961
X53.571 Y24.951
X52.88 Y24.946
X52.188 Y24.943
X50.805 Y24.94
X45.963 Y24.938
X30.055 Y24.935
X29.363 Y24.936
X28.672 Y24.944
X27.984 Y25.017
X27.333 Y25.251
X26.77 Y25.653
X26.325 Y26.182
X26.001 Y26.793
X25.782 Y27.449
X25.643 Y28.127
X25.56 Y28.813
X25.511 Y29.503
X25.484 Y30.194
X25.469 Y30.886
X25.46 Y31.578
X25.456 Y32.269
X25.454 Y32.961
X25.452 Y34.344
X25.454 Y40.569
X25.456 Y45.411
X25.462 Y46.102
X25.53 Y46.791
X25.753 Y47.445
X26.145 Y48.015
X26.667 Y48.468
X27.275 Y48.799
X27.929 Y49.024
X28.605 Y49.168
X29.291 Y49.255
X29.981 Y49.306
X30.672 Y49.335
X31.364 Y49.351
X32.055 Y49.36
X32.747 Y49.365
X33.439 Y49.368
X34.822 Y49.37
X40.355
X55.572 Y49.366
X56.263 Y49.36
X56.952 Y49.303
X57.61 Y49.089
X58.188 Y48.708
X58.649 Y48.193
X58.989 Y47.591
X59.219 Y46.938
X59.367 Y46.263
X59.456 Y45.577
X59.508 Y44.887
X59.538 Y44.196
X59.555 Y43.505
X59.564 Y42.813
X59.569 Y42.121
X59.572 Y41.43
X59.575 Y40.046
X59.577 Y34.513
Y29.672
X59.576 Y28.98
X59.545 Y28.289
X59.391 Y27.615
X59.061 Y27.007
X58.583 Y26.507
X58.003 Y26.13
X57.364 Y25.865
X56.694 Y25.693
X56.011 Y25.585
X55.322 Y25.522
X54.632 Y25.485
X53.94 Y25.465
X53.249 Y25.453
X52.557 Y25.447
X51.865 Y25.443
X50.482 Y25.44
X46.332 Y25.438
X30.424 Y25.435
X29.732 Y25.436
X29.041 Y25.451
X28.356 Y25.548
X27.719 Y25.817
X27.175 Y26.245
X26.753 Y26.792
X26.451 Y27.415
X26.25 Y28.076
X26.124 Y28.756
X26.049 Y29.444
X26.005 Y30.134
X25.981 Y30.826
X25.967 Y31.517
X25.96 Y32.209
X25.956 Y32.9
X25.954 Y33.592
X25.952 Y35.667
X25.955 Y44.658
X25.958 Y45.35
X25.987 Y46.041
X26.148 Y46.714
X26.482 Y47.319
X26.964 Y47.816
X27.545 Y48.19
X28.185 Y48.452
X28.856 Y48.623
X29.539 Y48.729
X30.228 Y48.791
X30.919 Y48.827
X31.61 Y48.847
X32.302 Y48.858
X32.993 Y48.864
X33.685 Y48.867
X35.068 Y48.869
X39.218 Y48.87
X53.051 Y48.867
X55.126
X55.818 Y48.859
X56.506 Y48.791
X57.16 Y48.564
X57.729 Y48.171
X58.18 Y47.647
X58.51 Y47.039
X58.733 Y46.384
X58.874 Y45.707
X58.96 Y45.021
X59.011 Y44.331
X59.039 Y43.64
X59.056 Y42.949
X59.065 Y42.257
X59.07 Y41.565
X59.072 Y40.874
X59.075 Y39.49
X59.077 Y33.957
Y29.807
X59.067 Y29.116
X58.983 Y28.429
X58.738 Y27.782
X58.325 Y27.228
X57.787 Y26.792
X57.172 Y26.476
X56.514 Y26.263
X55.836 Y26.128
X55.149 Y26.046
X54.459 Y25.999
X53.768 Y25.972
X53.076 Y25.958
X52.385 Y25.949
X51.693 Y25.945
X51.001 Y25.942
X49.618 Y25.94
X42.701 Y25.938
X34.402 Y25.936
X30.252
X29.56 Y25.948
X28.875 Y26.043
X28.236 Y26.306
X27.69 Y26.732
X27.265 Y27.277
X26.96 Y27.898
X26.757 Y28.559
X26.628 Y29.239
X26.551 Y29.926
X26.507 Y30.616
X26.482 Y31.308
X26.468 Y31.999
X26.46 Y32.691
X26.456 Y33.382
X26.454 Y34.074
X26.452 Y35.457
X26.455 Y43.066
X26.456 Y44.449
X26.464 Y45.141
X26.536 Y45.828
X26.768 Y46.48
X27.169 Y47.044
X27.697 Y47.49
X28.308 Y47.815
X28.963 Y48.036
X29.64 Y48.176
X30.327 Y48.26
X31.017 Y48.309
X31.708 Y48.336
X32.399 Y48.352
X33.091 Y48.36
X33.783 Y48.365
X34.474 Y48.368
X35.858 Y48.37
X42.083 Y48.369
X49.691 Y48.368
X54.532 Y48.367
X55.224 Y48.363
X55.913 Y48.307
X56.575 Y48.106
X57.157 Y47.732
X57.624 Y47.222
X57.969 Y46.623
X58.206 Y45.973
X58.358 Y45.298
X58.451 Y44.612
X58.505 Y43.923
X58.536 Y43.232
X58.554 Y42.541
X58.564 Y41.849
X58.569 Y41.157
X58.572 Y40.466
X58.575 Y39.082
X58.577 Y33.549
Y30.783
X58.575 Y30.091
X58.552 Y29.4
X58.423 Y28.72
X58.123 Y28.097
X57.668 Y27.576
X57.103 Y27.178
X56.471 Y26.896
X55.804 Y26.711
X55.122 Y26.597
X54.434 Y26.529
X53.743 Y26.489
X53.052 Y26.467
X52.361 Y26.454
X51.669 Y26.447
X50.977 Y26.444
X49.594 Y26.44
X46.136 Y26.438
X35.761 Y26.436
X30.919
X30.228 Y26.441
X29.539 Y26.507
X28.883 Y26.727
X28.312 Y27.117
X27.858 Y27.639
X27.526 Y28.245
X27.299 Y28.899
X27.155 Y29.575
X27.067 Y30.261
X27.016 Y30.951
X26.987 Y31.642
X26.97 Y32.334
X26.962 Y33.025
X26.957 Y33.717
X26.954 Y34.408
X26.953 Y35.792
X26.954 Y41.325
X26.955 Y43.4
X26.956 Y44.092
X26.971 Y44.783
X27.07 Y45.468
X27.34 Y46.105
X27.769 Y46.647
X28.317 Y47.069
X28.939 Y47.371
X29.601 Y47.571
X30.281 Y47.697
X30.969 Y47.772
X31.659 Y47.815
X32.35 Y47.84
X33.042 Y47.854
X33.734 Y47.861
X34.425 Y47.866
X35.117 Y47.868
X37.192 Y47.87
X50.333 Y47.868
X53.792 Y47.867
X54.483 Y47.866
X55.174 Y47.842
X55.851 Y47.698
X56.466 Y47.381
X56.975 Y46.913
X57.361 Y46.339
X57.634 Y45.703
X57.813 Y45.035
X57.924 Y44.353
X57.99 Y43.664
X58.028 Y42.974
X58.049 Y42.282
X58.061 Y41.591
X58.068 Y40.899
X58.072 Y40.207
X58.075 Y38.824
X58.077 Y34.674
Y31.216
X58.075 Y30.524
X58.046 Y29.833
X57.902 Y29.157
X57.584 Y28.542
X57.117 Y28.032
X56.543 Y27.646
X55.907 Y27.376
X55.238 Y27.199
X54.555 Y27.089
X53.866 Y27.024
X53.176 Y26.987
X52.484 Y26.966
X51.793 Y26.954
X51.101 Y26.947
X50.41 Y26.943
X49.026 Y26.94
X44.876 Y26.938
X33.118 Y26.936
X31.735
X31.043 Y26.937
X30.352 Y26.962
X29.675 Y27.105
X29.06 Y27.42
X28.55 Y27.888
X28.163 Y28.461
X27.89 Y29.097
X27.711 Y29.765
X27.6 Y30.448
X27.535 Y31.136
X27.497 Y31.827
X27.476 Y32.518
X27.465 Y33.21
X27.459 Y33.901
X27.455 Y34.593
X27.453 Y35.976
Y40.126
X27.455 Y43.584
X27.469 Y44.276
X27.567 Y44.961
X27.835 Y45.598
X28.264 Y46.141
X28.811 Y46.563
X29.433 Y46.866
X30.095 Y47.067
X30.775 Y47.194
X31.462 Y47.27
X32.153 Y47.315
X32.844 Y47.34
X33.535 Y47.354
X34.227 Y47.361
X34.919 Y47.365
X35.61 Y47.368
X37.685 Y47.37
X53.593 Y47.367
X54.285 Y47.36
X54.974 Y47.299
X55.63 Y47.081
X56.203 Y46.694
X56.66 Y46.174
X56.995 Y45.569
X57.224 Y44.917
X57.37 Y44.241
X57.458 Y43.555
X57.51 Y42.865
X57.539 Y42.174
X57.556 Y41.482
X57.565 Y40.791
X57.57 Y40.099
X57.573 Y39.407
X57.575 Y38.024
X57.577 Y32.491
Y31.799
X57.576 Y31.108
X57.555 Y30.416
X57.432 Y29.736
X57.133 Y29.112
X56.68 Y28.589
X56.116 Y28.189
X55.485 Y27.905
X54.819 Y27.718
X54.138 Y27.601
X53.45 Y27.531
X52.759 Y27.49
X52.068 Y27.468
X51.376 Y27.455
X50.685 Y27.448
X49.993 Y27.444
X48.61 Y27.44
X45.151 Y27.438
X32.01 Y27.436
X31.318 Y27.441
X30.628 Y27.49
X29.966 Y27.689
X29.38 Y28.056
X28.908 Y28.562
X28.559 Y29.16
X28.32 Y29.809
X28.168 Y30.483
X28.075 Y31.169
X28.02 Y31.858
X27.989 Y32.549
X27.972 Y33.24
X27.963 Y33.932
X27.958 Y34.624
X27.955 Y35.315
X27.953 Y36.699
X27.954 Y41.54
X27.955 Y42.924
X27.961 Y43.615
X28.032 Y44.303
X28.257 Y44.957
X28.653 Y45.524
X29.178 Y45.975
X29.787 Y46.303
X30.441 Y46.527
X31.118 Y46.669
X31.804 Y46.756
X32.494 Y46.806
X33.185 Y46.835
X33.876 Y46.851
X34.568 Y46.86
X35.26 Y46.865
X35.951 Y46.867
X37.335 Y46.869
X43.56
X52.551 Y46.867
X53.243 Y46.866
X53.934 Y46.854
X54.62 Y46.766
X55.263 Y46.51
X55.814 Y46.092
X56.245 Y45.551
X56.555 Y44.933
X56.762 Y44.273
X56.893 Y43.594
X56.972 Y42.907
X57.017 Y42.216
X57.043 Y41.525
X57.058 Y40.834
X57.066 Y40.142
X57.071 Y39.45
X57.073 Y38.759
X57.075 Y37.376
X57.077 Y32.534
X57.076 Y31.842
X57.068 Y31.151
X56.99 Y30.463
X56.753 Y29.814
X56.348 Y29.254
X55.816 Y28.812
X55.203 Y28.49
X54.547 Y28.273
X53.869 Y28.134
X53.182 Y28.05
X52.493 Y28.001
X51.801 Y27.973
X51.11 Y27.958
X50.418 Y27.949
X49.727 Y27.944
X49.035 Y27.942
X47.652 Y27.939
X41.427 Y27.937
X32.435 Y27.936
X31.744 Y27.943
X31.055 Y28.005
X30.398 Y28.222
X29.823 Y28.606
X29.365 Y29.124
X29.029 Y29.729
X28.801 Y30.382
X28.656 Y31.058
X28.568 Y31.744
X28.517 Y32.434
X28.488 Y33.125
X28.471 Y33.817
X28.462 Y34.508
X28.458 Y35.2
X28.455 Y35.892
X28.453 Y37.275
X28.454 Y42.116
X28.457 Y42.808
X28.484 Y43.499
X28.635 Y44.174
X28.958 Y44.786
X29.432 Y45.29
X30.008 Y45.672
X30.646 Y45.939
X31.315 Y46.115
X31.998 Y46.224
X32.687 Y46.288
X33.377 Y46.325
X34.069 Y46.345
X34.76 Y46.357
X35.452 Y46.363
X36.143 Y46.366
X37.527 Y46.369
X41.677
X52.743 Y46.367
X53.435 Y46.355
X54.121 Y46.266
X54.763 Y46.01
X55.313 Y45.591
X55.744 Y45.049
X56.053 Y44.431
X56.261 Y43.771
X56.392 Y43.092
X56.471 Y42.405
X56.517 Y41.715
X56.543 Y41.024
X56.558 Y40.332
X56.566 Y39.641
X56.571 Y38.949
X56.573 Y38.257
X56.575 Y36.874
X56.577 Y32.724
X56.575 Y32.032
X56.549 Y31.341
X56.405 Y30.665
X56.09 Y30.049
X55.622 Y29.539
X55.049 Y29.152
X54.414 Y28.879
X53.746 Y28.7
X53.063 Y28.589
X52.374 Y28.524
X51.684 Y28.486
X50.993 Y28.465
X50.301 Y28.453
X49.609 Y28.447
X48.918 Y28.443
X47.534 Y28.44
X43.384 Y28.438
X33.01 Y28.436
X32.318 Y28.44
X31.628 Y28.493
X30.965 Y28.69
X30.381 Y29.059
X29.91 Y29.566
X29.562 Y30.164
X29.324 Y30.813
X29.17 Y31.487
X29.077 Y32.173
X29.022 Y32.862
X28.99 Y33.553
X28.973 Y34.245
X28.963 Y34.936
X28.958 Y35.628
X28.955 Y36.319
X28.954 Y37.703
Y41.161
X28.955 Y41.853
X28.961 Y42.544
X29.015 Y43.234
X29.225 Y43.893
X29.603 Y44.472
X30.116 Y44.936
X30.717 Y45.278
X31.368 Y45.511
X32.044 Y45.66
X32.729 Y45.75
X33.419 Y45.803
X34.11 Y45.833
X34.802 Y45.85
X35.493 Y45.859
X36.185 Y45.864
X36.876 Y45.867
X38.26 Y45.869
X42.41
X52.093 Y45.867
X52.784 Y45.862
X53.473 Y45.797
X54.13 Y45.581
X54.703 Y45.193
X55.159 Y44.673
X55.494 Y44.068
X55.722 Y43.415
X55.868 Y42.739
X55.957 Y42.053
X56.009 Y41.363
X56.039 Y40.672
X56.055 Y39.981
X56.065 Y39.289
X56.07 Y38.597
X56.073 Y37.906
X56.075 Y36.522
X56.076 Y33.064
X56.072 Y32.373
X56.029 Y31.682
X55.846 Y31.015
X55.493 Y30.42
X54.999 Y29.937
X54.408 Y29.576
X53.763 Y29.329
X53.09 Y29.169
X52.405 Y29.071
X51.716 Y29.014
X51.025 Y28.98
X50.333 Y28.962
X49.642 Y28.951
X48.95 Y28.946
X48.259 Y28.942
X46.875 Y28.939
X42.034 Y28.937
X33.734 Y28.936
X33.042 Y28.937
X32.351 Y28.96
X31.674 Y29.104
X31.06 Y29.421
X30.55 Y29.889
X30.164 Y30.462
X29.892 Y31.098
X29.713 Y31.767
X29.602 Y32.449
X29.536 Y33.138
X29.499 Y33.828
X29.477 Y34.52
X29.466 Y35.211
X29.46 Y35.903
X29.456 Y36.595
X29.454 Y37.978
Y40.744
X29.455 Y41.436
X29.463 Y42.128
X29.532 Y42.816
X29.763 Y43.468
X30.159 Y44.035
X30.685 Y44.484
X31.294 Y44.811
X31.95 Y45.032
X32.627 Y45.173
X33.313 Y45.257
X34.003 Y45.307
X34.694 Y45.335
X35.386 Y45.351
X36.077 Y45.36
X36.769 Y45.364
X37.461 Y45.367
X38.844 Y45.369
X45.069
X51.294 Y45.368
X51.985 Y45.366
X52.677 Y45.341
X53.353 Y45.196
X53.968 Y44.88
X54.477 Y44.411
X54.863 Y43.837
X55.135 Y43.201
X55.314 Y42.533
X55.425 Y41.851
X55.491 Y41.162
X55.529 Y40.472
X55.55 Y39.78
X55.562 Y39.089
X55.568 Y38.397
X55.572 Y37.705
X55.575 Y36.322
X55.576 Y33.555
X55.573 Y32.864
X55.527 Y32.174
X55.343 Y31.507
X54.987 Y30.914
X54.491 Y30.432
X53.899 Y30.074
X53.252 Y29.828
X52.579 Y29.669
X51.895 Y29.571
X51.205 Y29.513
X50.515 Y29.48
X49.823 Y29.462
X49.132 Y29.451
X48.44 Y29.446
X47.748 Y29.442
X46.365 Y29.439
X46.036
X45.897 Y29.431
X45.76 Y29.408
X45.626 Y29.369
X45.307 Y29.259
X45.287 Y29.254
X44.855 Y29.204
X44.836
X44.463 Y29.238
X44.306 Y29.267
X44.158 Y29.293
X43.838 Y29.336
X43.347 Y29.381
X42.657 Y29.416
X41.965 Y29.429
X41.273 Y29.434
X40.582 Y29.436
X37.815 Y29.437
X34.357 Y29.436
X33.665 Y29.437
X32.974 Y29.449
X32.292 Y29.565
X31.663 Y29.852
X31.133 Y30.297
X30.725 Y30.856
X30.434 Y31.483
X30.24 Y32.147
X30.119 Y32.828
X30.046 Y33.516
X30.004 Y34.206
X29.981 Y34.897
X29.968 Y35.589
X29.961 Y36.281
X29.957 Y36.972
X29.954 Y38.355
Y40.43
X29.955 Y41.122
X29.972 Y41.814
X30.079 Y42.497
X30.354 Y43.131
X30.789 Y43.67
X31.341 Y44.086
X31.966 Y44.382
X32.629 Y44.578
X33.31 Y44.7
X33.998 Y44.774
X34.688 Y44.816
X35.379 Y44.84
X36.071 Y44.854
X36.763 Y44.861
X37.454 Y44.865
X38.146 Y44.867
X40.221 Y44.869
X50.596 Y44.868
X51.287 Y44.867
X51.979 Y44.856
X52.663 Y44.755
X53.301 Y44.487
X53.843 Y44.057
X54.264 Y43.509
X54.567 Y42.887
X54.77 Y42.226
X54.899 Y41.546
X54.976 Y40.859
X55.02 Y40.169
X55.045 Y39.477
X55.059 Y38.786
X55.067 Y38.094
X55.071 Y37.403
X55.074 Y36.711
X55.076 Y34.636
Y33.944
X55.069 Y33.253
X55.009 Y32.564
X54.797 Y31.906
X54.416 Y31.328
X53.901 Y30.866
X53.298 Y30.528
X52.646 Y30.297
X51.97 Y30.15
X51.284 Y30.06
X50.595 Y30.007
X49.904 Y29.977
X49.212 Y29.96
X48.521 Y29.95
X47.829 Y29.945
X47.007 Y29.941
X46.721 Y29.908
X46.452 Y29.81
X46.211 Y29.653
X46.19 Y29.636
X46.038 Y29.547
X45.876 Y29.47
X45.719 Y29.402
X45.626 Y29.369
G3 X45.834 Y28.77 I0.104 J-0.3
X46.025 Y29.186 I-0.104 J0.3
X45.601 Y29.36 I-0.295 J-0.116
G1 X44.618 Y28.925
G3 X44.875 Y28.344 I0.128 J-0.29
X44.975 Y28.855 I-0.128 J0.29
X44.306 Y29.267 I-1.137 J-1.101
G1 X43.992 Y29.352
X43.879 Y29.39
X43.605 Y29.518
X43.44 Y29.586
X43.299 Y29.637
X43.155 Y29.679
X42.985 Y29.721
X42.772 Y29.764
X42.489 Y29.808
X42.085 Y29.854
X41.423 Y29.902
X40.732 Y29.923
X40.04 Y29.931
X39.349 Y29.934
X37.965 Y29.936
X34.507
X33.816 Y29.94
X33.126 Y29.989
X32.463 Y30.188
X31.88 Y30.559
X31.41 Y31.067
X31.063 Y31.665
X30.824 Y32.314
X30.67 Y32.989
X30.576 Y33.674
X30.521 Y34.363
X30.49 Y35.054
X30.473 Y35.746
X30.464 Y36.437
X30.459 Y37.129
X30.456 Y37.821
X30.454 Y39.204
X30.455 Y40.587
X30.468 Y41.279
X30.567 Y41.963
X30.835 Y42.601
X31.264 Y43.143
X31.813 Y43.565
X32.435 Y43.866
X33.097 Y44.068
X33.777 Y44.194
X34.464 Y44.27
X35.154 Y44.314
X35.846 Y44.339
X36.537 Y44.353
X37.229 Y44.361
X37.92 Y44.365
X38.612 Y44.367
X39.995 Y44.369
X47.604 Y44.368
X50.37
X51.062 Y44.365
X51.753 Y44.332
X52.425 Y44.168
X53.031 Y43.835
X53.527 Y43.353
X53.901 Y42.771
X54.162 Y42.13
X54.331 Y41.46
X54.435 Y40.776
X54.497 Y40.087
X54.532 Y39.396
X54.552 Y38.705
X54.563 Y38.013
X54.569 Y37.322
X54.572 Y36.63
X54.575 Y35.247
X54.576 Y34.555
X54.573 Y33.863
X54.527 Y33.173
X54.344 Y32.506
X53.987 Y31.914
X53.489 Y31.434
X52.897 Y31.076
X52.251 Y30.83
X51.578 Y30.67
X50.893 Y30.572
X50.204 Y30.514
X49.513 Y30.481
X48.822 Y30.462
X48.13 Y30.451
X47.676 Y30.447
X47.467 Y30.436
X47.451 Y30.435
X47.199 Y30.385
X46.963 Y30.285
X46.752 Y30.139
X46.661 Y30.061
X46.272 Y29.704
X46.211 Y29.653
G3 X46.096 Y29.426 I0.202 J-0.245
G2 X45.842 Y29.132 I-0.317 J0.017
G1 X45.739 Y29.111
X44.518 Y28.865
X44.456 Y28.858
X44.455
G2 X44.192 Y28.998 I0 J0.317
G3 X43.605 Y29.518 I-1.31 J-0.887
G1 X43.521 Y29.558
X43.364 Y29.639
X42.965 Y29.861
X42.925 Y29.886
X42.794 Y29.959
X42.659 Y30.023
X42.519 Y30.077
X42.372 Y30.125
X42.215 Y30.169
X42.022 Y30.214
X41.763 Y30.264
X41.445 Y30.311
X40.975 Y30.361
X40.284 Y30.405
X39.593 Y30.423
X38.901 Y30.431
X38.21 Y30.434
X36.826 Y30.436
X34.751 Y30.437
X34.06 Y30.45
X33.375 Y30.545
X32.735 Y30.808
X32.19 Y31.234
X31.765 Y31.78
X31.459 Y32.4
X31.255 Y33.061
X31.128 Y33.741
X31.052 Y34.428
X31.008 Y35.119
X30.983 Y35.81
X30.969 Y36.501
X30.962 Y37.193
X30.958 Y37.884
X30.956 Y38.576
X30.955 Y39.959
X30.961 Y40.651
X31.038 Y41.338
X31.273 Y41.989
X31.676 Y42.551
X32.207 Y42.994
X32.819 Y43.317
X33.475 Y43.535
X34.153 Y43.674
X34.839 Y43.758
X35.529 Y43.808
X36.22 Y43.835
X36.912 Y43.851
X37.603 Y43.86
X38.295 Y43.864
X38.987 Y43.867
X40.37 Y43.869
X46.595
X50.053 Y43.867
X50.745 Y43.861
X51.434 Y43.805
X52.094 Y43.597
X52.674 Y43.221
X53.14 Y42.71
X53.483 Y42.109
X53.716 Y41.458
X53.864 Y40.782
X53.955 Y40.097
X54.008 Y39.407
X54.038 Y38.716
X54.055 Y38.024
X54.065 Y37.333
X54.07 Y36.641
X54.073 Y35.95
X54.075 Y35.258
X54.074 Y34.566
X54.054 Y33.875
X53.918 Y33.197
X53.609 Y32.578
X53.147 Y32.063
X52.578 Y31.67
X51.945 Y31.393
X51.278 Y31.21
X50.595 Y31.095
X49.907 Y31.027
X49.217 Y30.988
X48.525 Y30.966
X48.202 Y30.956
X48.038 Y30.945
X47.74 Y30.886
X47.464 Y30.758
X47.227 Y30.566
X47.152 Y30.489
X46.975 Y30.33
X46.752 Y30.139
G3 X46.991 Y29.589 I0.215 J-0.234
G1 X47.061 Y29.594 Z16.808
X47.128 Y29.599 Z16.831
X47.188 Y29.603 Z16.869
X47.238 Y29.607 Z16.92
X47.276 Y29.61 Z16.98
X47.299 Y29.612 Z17.047
X47.307 Z17.118
Z20.3 F1500.0
X43.592 Y29.016
Z17.435
F300.0
Z17.118
X43.588 Y29.023 Z17.047
X43.577 Y29.044 Z16.98
X43.56 Y29.077 Z16.92
X43.537 Y29.122 Z16.869
X43.509 Y29.176 Z16.831
X43.479 Y29.235 Z16.808
X43.447 Y29.298 Z16.8
G3 X42.925 Y29.886 I-1.407 J-0.724
G1 X42.893 Y29.906
X42.733 Y30.018
X42.579 Y30.134
X42.529 Y30.175
X42.496 Y30.203
X42.379 Y30.296
X42.252 Y30.377
X42.119 Y30.446
X41.981 Y30.505
X41.841 Y30.557
X41.696 Y30.604
X41.508 Y30.655
X41.264 Y30.711
X41 Y30.76
X40.626 Y30.814
X40.113 Y30.865
X39.423 Y30.905
X38.731 Y30.922
X38.04 Y30.93
X37.348 Y30.934
X35.965 Y30.936
X35.273
X34.581 Y30.948
X33.896 Y31.039
X33.255 Y31.298
X32.706 Y31.719
X32.277 Y32.262
X31.969 Y32.881
X31.763 Y33.541
X31.633 Y34.221
X31.555 Y34.908
X31.509 Y35.598
X31.484 Y36.289
X31.47 Y36.981
X31.462 Y37.672
X31.458 Y38.364
X31.456 Y39.056
X31.457 Y39.747
X31.48 Y40.439
X31.616 Y41.117
X31.923 Y41.737
X32.384 Y42.252
X32.954 Y42.644
X33.587 Y42.922
X34.255 Y43.104
X34.937 Y43.216
X35.625 Y43.283
X36.316 Y43.322
X37.007 Y43.343
X37.699 Y43.355
X38.391 Y43.362
X39.082 Y43.365
X40.465 Y43.368
X43.924 Y43.369
X49.457 Y43.368
X50.149 Y43.364
X50.839 Y43.32
X51.506 Y43.138
X52.1 Y42.783
X52.581 Y42.286
X52.939 Y41.694
X53.186 Y41.048
X53.346 Y40.375
X53.444 Y39.691
X53.502 Y39.001
X53.535 Y38.31
X53.553 Y37.619
X53.564 Y36.928
X53.569 Y36.236
X53.572 Y35.544
X53.57 Y34.853
X53.527 Y34.162
X53.339 Y33.497
X52.981 Y32.905
X52.482 Y32.426
X51.89 Y32.069
X51.243 Y31.824
X50.569 Y31.666
X49.885 Y31.569
X49.195 Y31.512
X48.743 Y31.486
X48.485 Y31.461
X48.4 Y31.449
X48.116 Y31.373
X47.857 Y31.234
X47.638 Y31.038
X47.433 Y30.803
X47.289 Y30.63
X47.227 Y30.566
G3 X47.516 Y30.04 I0.236 J-0.213
G1 X47.586 Y30.052 Z16.808
X47.652 Y30.063 Z16.831
X47.711 Y30.074 Z16.869
X47.761 Y30.082 Z16.92
X47.798 Y30.088 Z16.98
X47.821 Y30.092 Z17.047
X47.829 Y30.094 Z17.118
Z20.3 F1500.0
X43.016 Y29.238
Z17.435
F300.0
Z17.118
X43.014 Y29.246 Z17.047
X43.006 Y29.268 Z16.98
X42.995 Y29.304 Z16.92
X42.979 Y29.352 Z16.869
X42.96 Y29.409 Z16.831
X42.94 Y29.473 Z16.808
X42.918 Y29.54 Z16.8
G3 X42.496 Y30.203 I-1.505 J-0.491
G1 X42.421 Y30.269
X42.206 Y30.489
X42.176 Y30.525
X42.075 Y30.635
X41.957 Y30.729
X41.831 Y30.81
X41.699 Y30.88
X41.562 Y30.943
X41.423 Y30.998
X41.267 Y31.052
X41.069 Y31.111
X40.863 Y31.163
X40.583 Y31.222
X40.246 Y31.277
X39.788 Y31.333
X39.117 Y31.387
X38.426 Y31.413
X37.734 Y31.426
X37.043 Y31.431
X35.66 Y31.436
X34.968 Y31.455
X34.286 Y31.571
X33.657 Y31.858
X33.126 Y32.301
X32.718 Y32.86
X32.428 Y33.488
X32.237 Y34.152
X32.117 Y34.834
X32.046 Y35.522
X32.005 Y36.212
X31.981 Y36.903
X31.969 Y37.595
X31.962 Y38.286
X31.958 Y38.978
X31.966 Y39.67
X32.045 Y40.357
X32.283 Y41.006
X32.69 Y41.565
X33.223 Y42.006
X33.836 Y42.326
X34.493 Y42.542
X35.171 Y42.679
X35.858 Y42.762
X36.548 Y42.81
X37.239 Y42.837
X37.931 Y42.852
X38.622 Y42.86
X39.314 Y42.864
X40.006 Y42.867
X41.389 Y42.869
X48.305 Y42.868
X48.997
X49.689 Y42.864
X50.379 Y42.814
X51.043 Y42.62
X51.63 Y42.255
X52.105 Y41.752
X52.456 Y41.156
X52.697 Y40.508
X52.853 Y39.834
X52.948 Y39.149
X53.004 Y38.459
X53.036 Y37.768
X53.054 Y37.077
X53.064 Y36.385
X53.068 Y35.694
X53.056 Y35.002
X52.95 Y34.319
X52.678 Y33.683
X52.242 Y33.146
X51.69 Y32.73
X51.065 Y32.432
X50.403 Y32.234
X49.722 Y32.109
X49.069 Y32.031
X49.033 Y32.026
X48.826 Y31.973
X48.63 Y31.887
X48.452 Y31.768
X48.228 Y31.588
X47.76 Y31.174
X47.707 Y31.117
X47.638 Y31.038
G3 X47.95 Y30.526 I0.245 J-0.202
G1 X48.019 Y30.541 Z16.808
X48.084 Y30.555 Z16.831
X48.143 Y30.568 Z16.869
X48.192 Y30.578 Z16.92
X48.229 Y30.586 Z16.98
X48.252 Y30.591 Z17.047
X48.26 Y30.593 Z17.118
Z20.3 F1500.0
X42.535 Y29.489
Z17.435
F300.0
Z17.118
X42.534 Y29.497 Z17.047
X42.53 Y29.52 Z16.98
X42.525 Y29.558 Z16.92
X42.517 Y29.607 Z16.869
X42.508 Y29.667 Z16.831
X42.497 Y29.733 Z16.808
X42.486 Y29.803 Z16.8
G3 X42.176 Y30.525 I-1.564 J-0.245
G1 X42.107 Y30.607
X42.081 Y30.646
X41.976 Y30.803
X41.962 Y30.831
X41.888 Y30.962
X41.78 Y31.065
X41.661 Y31.156
X41.534 Y31.237
X41.403 Y31.31
X41.268 Y31.374
X41.125 Y31.434
X40.971 Y31.491
X40.771 Y31.556
X40.565 Y31.613
X40.286 Y31.678
X39.966 Y31.738
X39.552 Y31.799
X39.007 Y31.855
X38.317 Y31.897
X37.625 Y31.917
X36.934 Y31.927
X36.242 Y31.932
X35.551 Y31.946
X34.866 Y32.046
X34.228 Y32.313
X33.685 Y32.741
X33.263 Y33.289
X32.96 Y33.911
X32.758 Y34.572
X32.63 Y35.252
X32.553 Y35.939
X32.509 Y36.63
X32.484 Y37.321
X32.47 Y38.012
X32.464 Y38.704
X32.483 Y39.395
X32.607 Y40.076
X32.902 Y40.701
X33.354 Y41.225
X33.917 Y41.626
X34.548 Y41.91
X35.214 Y42.096
X35.896 Y42.212
X36.584 Y42.281
X37.275 Y42.32
X37.966 Y42.342
X38.658 Y42.355
X39.349 Y42.361
X40.041 Y42.365
X41.424 Y42.368
X44.882 Y42.369
X48.341 Y42.368
X49.032 Y42.366
X49.723 Y42.336
X50.398 Y42.183
X51.006 Y41.853
X51.506 Y41.376
X51.885 Y40.797
X52.149 Y40.158
X52.322 Y39.488
X52.43 Y38.805
X52.494 Y38.116
X52.53 Y37.426
X52.551 Y36.734
X52.56 Y36.043
X52.538 Y35.351
X52.401 Y34.674
X52.09 Y34.056
X51.627 Y33.542
X51.056 Y33.152
X50.42 Y32.879
X49.926 Y32.744
X49.801 Y32.703
X49.681 Y32.649
X49.567 Y32.582
X49.33 Y32.426
X49.016 Y32.212
X48.859 Y32.093
X48.452 Y31.768
G3 X48.671 Y31.21 I0.206 J-0.241
G1 X48.742 Y31.213 Z16.808
X48.809 Y31.215 Z16.831
X48.869 Y31.218 Z16.869
X48.92 Y31.22 Z16.92
X48.957 Y31.221 Z16.98
X48.981 Y31.222 Z17.047
X48.989 Y31.223 Z17.118
Z20.3 F1500.0
X42.078 Y29.741
Z17.435
F300.0
Z17.118
Y29.749 Z17.047
X42.08 Y29.773 Z16.98
X42.083 Y29.81 Z16.92
X42.086 Y29.861 Z16.869
X42.091 Y29.921 Z16.831
X42.096 Y29.988 Z16.808
X42.101 Y30.058 Z16.8
G3 X41.962 Y30.831 I-1.578 J0.116
G1 X41.898 Y30.96
X41.844 Y31.085
X41.779 Y31.22
X41.69 Y31.341
X41.586 Y31.448
X41.47 Y31.544
X41.347 Y31.63
X41.219 Y31.708
X41.087 Y31.778
X40.951 Y31.842
X40.801 Y31.904
X40.623 Y31.97
X40.422 Y32.034
X40.18 Y32.101
X39.896 Y32.167
X39.549 Y32.231
X39.116 Y32.294
X38.518 Y32.354
X37.827 Y32.395
X37.136 Y32.415
X36.444 Y32.429
X35.754 Y32.467
X35.083 Y32.637
X34.48 Y32.976
X33.988 Y33.462
X33.618 Y34.046
X33.361 Y34.688
X33.193 Y35.359
X33.091 Y36.043
X33.031 Y36.733
X32.996 Y37.423
X32.978 Y38.115
X32.982 Y38.806
X33.084 Y39.491
X33.358 Y40.126
X33.793 Y40.664
X34.345 Y41.08
X34.969 Y41.377
X35.632 Y41.575
X36.313 Y41.699
X37 Y41.773
X37.691 Y41.816
X38.382 Y41.84
X39.073 Y41.853
X39.765 Y41.861
X40.457 Y41.865
X41.148 Y41.867
X43.223 Y41.869
X48.065 Y41.868
X48.756 Y41.861
X49.446 Y41.807
X50.104 Y41.594
X50.683 Y41.215
X51.145 Y40.7
X51.485 Y40.098
X51.717 Y39.447
X51.865 Y38.771
X51.955 Y38.085
X52.008 Y37.396
X52.037 Y36.705
X52.041 Y36.013
X51.942 Y35.328
X51.672 Y34.692
X51.24 Y34.152
X50.807 Y33.823
X50.722 Y33.751
X50.642 Y33.673
X50.571 Y33.587
X50.362 Y33.315
X50.272 Y33.203
X50.234 Y33.158
X49.913 Y32.844
X49.801 Y32.746
X49.726 Y32.687
X49.567 Y32.582
G3 X49.734 Y32.006 I0.183 J-0.259
G1 X49.805 Y32.003 Z16.808
X49.872 Y31.999 Z16.831
X49.932 Y31.996 Z16.869
X49.982 Y31.993 Z16.92
X50.02 Y31.991 Z16.98
X50.043 Y31.99 Z17.047
X50.051 Z17.118
Z20.3 F1500.0
X41.894 Y29.99
Z17.435
F300.0
Z17.118
X41.895 Y29.998 Z17.047
X41.898 Y30.021 Z16.98
X41.903 Y30.059 Z16.92
X41.91 Y30.109 Z16.869
X41.918 Y30.168 Z16.831
X41.927 Y30.235 Z16.808
X41.936 Y30.305 Z16.8
G3 X41.844 Y31.085 I-1.569 J0.211
G1 X41.767 Y31.274
X41.687 Y31.47
X41.63 Y31.609
X41.542 Y31.73
X41.439 Y31.839
X41.326 Y31.937
X41.205 Y32.027
X41.08 Y32.109
X40.949 Y32.183
X40.813 Y32.253
X40.672 Y32.317
X40.495 Y32.389
X40.309 Y32.456
X40.075 Y32.529
X39.82 Y32.596
X39.49 Y32.67
X39.12 Y32.735
X38.633 Y32.801
X37.945 Y32.865
X37.254 Y32.899
X36.563 Y32.929
X35.879 Y33.033
X35.239 Y33.296
X34.695 Y33.723
X34.27 Y34.269
X33.965 Y34.889
X33.76 Y35.55
X33.631 Y36.229
X33.553 Y36.917
X33.51 Y37.607
X33.501 Y38.298
X33.593 Y38.984
X33.864 Y39.62
X34.297 Y40.16
X34.848 Y40.577
X35.473 Y40.875
X36.135 Y41.073
X36.816 Y41.198
X37.503 Y41.272
X38.194 Y41.315
X38.885 Y41.34
X39.576 Y41.353
X40.268 Y41.36
X40.96 Y41.365
X41.651 Y41.367
X43.726 Y41.369
X47.185 Y41.368
X47.876 Y41.367
X48.568 Y41.348
X49.249 Y41.23
X49.879 Y40.944
X50.407 Y40.497
X50.814 Y39.938
X51.102 Y39.309
X51.294 Y38.645
X51.413 Y37.963
X51.483 Y37.275
X51.512 Y36.584
X51.441 Y35.896
X51.191 Y35.251
X51.121 Y35.149
X51.016 Y34.968
X50.939 Y34.774
X50.893 Y34.571
X50.869 Y34.414
X50.815 Y34.08
X50.81 Y34.061
X50.616 Y33.649
X50.603 Y33.629
X50.571 Y33.587
G3 X50.919 Y33.098 I0.259 J-0.184
G1 X50.986 Y33.118 Z16.808
X51.051 Y33.137 Z16.831
X51.109 Y33.154 Z16.869
X51.157 Y33.168 Z16.92
X51.193 Y33.179 Z16.98
X51.216 Y33.185 Z17.047
X51.223 Y33.187 Z17.118
Z20.3 F1500.0
X41.495 Y30.391
Z17.435
F300.0
Z17.118
X41.498 Y30.399 Z17.047
X41.506 Y30.421 Z16.98
X41.519 Y30.456 Z16.92
X41.536 Y30.503 Z16.869
X41.557 Y30.56 Z16.831
X41.581 Y30.623 Z16.808
X41.605 Y30.689 Z16.8
G3 X41.687 Y31.47 I-1.484 J0.55
G1 X41.653 Y31.674
X41.621 Y31.821
X41.557 Y31.956
X41.472 Y32.08
X41.374 Y32.193
X41.265 Y32.297
X41.15 Y32.392
X41.028 Y32.48
X40.901 Y32.56
X40.77 Y32.634
X40.634 Y32.704
X40.467 Y32.781
X40.293 Y32.852
X40.079 Y32.929
X39.846 Y33.002
X39.563 Y33.078
X39.231 Y33.152
X38.822 Y33.226
X38.302 Y33.297
X37.613 Y33.362
X36.923 Y33.417
X36.246 Y33.554
X35.624 Y33.857
X35.102 Y34.311
X34.701 Y34.875
X34.418 Y35.505
X34.23 Y36.171
X34.114 Y36.853
X34.051 Y37.542
X34.076 Y38.233
X34.27 Y38.897
X34.646 Y39.478
X35.159 Y39.941
X35.761 Y40.281
X36.413 Y40.513
X37.089 Y40.661
X37.774 Y40.751
X38.464 Y40.803
X39.155 Y40.833
X39.846 Y40.849
X40.538 Y40.859
X41.23 Y40.863
X41.921 Y40.866
X43.305 Y40.868
X46.763
X47.455 Y40.866
X48.146 Y40.841
X48.824 Y40.706
X49.443 Y40.398
X49.959 Y39.937
X50.038 Y39.824
X50.092 Y39.751
X50.151 Y39.682
X50.215 Y39.618
X50.306 Y39.534
X50.331 Y39.502
X50.586 Y39.095
X50.654 Y38.968
X50.815 Y38.654
X50.877 Y38.497
X50.999 Y38.124
X51.004 Y38.104
X51.049 Y37.712
X51.057 Y37.555
X51.055 Y37.24
X51.052 Y37.083
X51.041 Y36.769
X51.035 Y36.612
X50.995 Y36.141
X50.953 Y35.513
X50.92 Y35.042
X50.893 Y34.571
G3 X51.455 Y34.362 I0.317 J-0.007
G1 X51.5 Y34.416 Z16.808
X51.543 Y34.468 Z16.831
X51.581 Y34.515 Z16.869
X51.613 Y34.553 Z16.92
X51.637 Y34.582 Z16.98
X51.652 Y34.601 Z17.047
X51.657 Y34.607 Z17.118
Z20.3 F1500.0
X41.443 Y30.599
Z17.435
F300.0
Z17.118
X41.446 Y30.606 Z17.047
X41.455 Y30.628 Z16.98
X41.468 Y30.663 Z16.92
X41.486 Y30.71 Z16.869
X41.508 Y30.766 Z16.831
X41.533 Y30.829 Z16.808
X41.558 Y30.894 Z16.8
G3 X41.653 Y31.674 I-1.475 J0.574
G1 X41.615 Y31.902
X41.608 Y31.982
X41.587 Y32.131
X41.532 Y32.271
X41.456 Y32.4
X41.365 Y32.519
X41.263 Y32.629
X41.153 Y32.731
X41.036 Y32.825
X40.914 Y32.912
X40.788 Y32.993
X40.658 Y33.068
X40.504 Y33.149
X40.343 Y33.224
X40.152 Y33.305
X39.934 Y33.385
X39.691 Y33.464
X39.383 Y33.55
X39.065 Y33.624
X38.609 Y33.71
X37.924 Y33.81
X37.238 Y33.899
X36.573 Y34.09
X35.976 Y34.439
X35.486 Y34.927
X35.118 Y35.513
X34.862 Y36.155
X34.699 Y36.827
X34.639 Y37.516
X34.755 Y38.198
X35.069 Y38.814
X35.542 Y39.319
X36.122 Y39.697
X36.762 Y39.958
X37.433 Y40.128
X38.116 Y40.232
X38.805 Y40.292
X39.496 Y40.327
X40.188 Y40.346
X40.879 Y40.357
X41.571 Y40.362
X42.262 Y40.366
X43.646 Y40.368
X46.412
X46.894 Y40.365
X47.075 Y40.377
X47.253 Y40.415
X47.423 Y40.479
X47.446 Y40.49
X47.525 Y40.516
X47.628 Y40.538
X47.76 Y40.565
X47.917 Y40.584
X48.231 Y40.607
X48.447 Y40.6
X48.467 Y40.598
X48.918 Y40.495
X48.938 Y40.488
X49.389 Y40.296
X49.712 Y40.067
X49.801 Y39.999
X49.902 Y39.91
X50.215 Y39.618
G3 X50.735 Y39.918 I0.208 J0.24
G1 X50.722 Y39.987 Z16.808
X50.71 Y40.053 Z16.831
X50.698 Y40.112 Z16.869
X50.689 Y40.161 Z16.92
X50.682 Y40.199 Z16.98
X50.677 Y40.222 Z17.047
X50.676 Y40.229 Z17.118
Z20.3 F1500.0
X41.314 Y30.927
Z17.435
F300.0
Z17.118
X41.317 Y30.934 Z17.047
X41.327 Y30.955 Z16.98
X41.344 Y30.989 Z16.92
X41.366 Y31.034 Z16.869
X41.392 Y31.089 Z16.831
X41.421 Y31.149 Z16.808
X41.452 Y31.213 Z16.8
G3 X41.608 Y31.982 I-1.425 J0.689
G1 X41.601 Y32.059
X41.587 Y32.302
X41.571 Y32.451
X41.523 Y32.594
X41.454 Y32.726
X41.369 Y32.85
X41.273 Y32.966
X41.168 Y33.073
X41.057 Y33.173
X40.939 Y33.266
X40.817 Y33.353
X40.691 Y33.434
X40.552 Y33.515
X40.389 Y33.6
X40.217 Y33.682
X40.014 Y33.768
X39.788 Y33.853
X39.522 Y33.94
X39.199 Y34.031
X38.753 Y34.137
X38.073 Y34.268
X37.398 Y34.416
X36.765 Y34.696
X36.221 Y35.123
X35.794 Y35.667
X35.49 Y36.288
X35.327 Y36.96
X35.383 Y37.65
X35.661 Y38.283
X36.116 Y38.804
X36.688 Y39.193
X37.326 Y39.459
X37.997 Y39.63
X38.681 Y39.733
X39.37 Y39.794
X40.06 Y39.828
X40.752 Y39.847
X41.443 Y39.857
X42.135 Y39.863
X42.827 Y39.866
X44.21 Y39.868
X45.593
X46.074 Y39.867
X46.351 Y39.898
X46.614 Y39.989
X46.851 Y40.135
X47.093 Y40.325
X47.112 Y40.337
X47.423 Y40.479
G3 X47.345 Y41.074 I-0.142 J0.284
G1 X47.276 Y41.088 Z16.808
X47.21 Y41.102 Z16.831
X47.151 Y41.114 Z16.869
X47.102 Y41.124 Z16.92
X47.065 Y41.132 Z16.98
X47.042 Y41.136 Z17.047
X47.034 Y41.138 Z17.118
Z20.3 F1500.0
X41.263 Y31.255
Z17.435
F300.0
Z17.118
X41.267 Y31.262 Z17.047
X41.278 Y31.283 Z16.98
X41.295 Y31.317 Z16.92
X41.319 Y31.361 Z16.869
X41.346 Y31.415 Z16.831
X41.377 Y31.474 Z16.808
X41.41 Y31.537 Z16.8
G3 X41.587 Y32.302 I-1.405 J0.729
G1 X41.583 Y32.373
X41.587 Y32.53
X41.591 Y32.577
X41.594 Y32.727
X41.558 Y32.873
X41.5 Y33.011
X41.425 Y33.141
X41.337 Y33.263
X41.24 Y33.377
X41.135 Y33.484
X41.024 Y33.585
X40.907 Y33.679
X40.786 Y33.767
X40.656 Y33.852
X40.509 Y33.941
X40.352 Y34.026
X40.163 Y34.12
X39.958 Y34.21
X39.707 Y34.308
X39.417 Y34.408
X38.895 Y34.563
X38.224 Y34.732
X37.572 Y34.962
X36.984 Y35.326
X36.506 Y35.826
X36.356 Y36.138
X36.268 Y36.472
X36.25 Y36.817
X36.299 Y37.16
X36.412 Y37.487
X36.746 Y38.092
X37.255 Y38.56
X37.866 Y38.886
X38.526 Y39.092
X39.206 Y39.216
X39.894 Y39.286
X40.585 Y39.324
X41.276 Y39.345
X41.968 Y39.356
X42.66 Y39.362
X43.351 Y39.365
X44.735 Y39.368
X45.398
X45.603 Y39.376
X45.647 Y39.38
X45.937 Y39.439
X46.204 Y39.564
X46.434 Y39.749
X46.631 Y39.946
X46.661 Y39.976
X46.764 Y40.067
X46.851 Y40.135
G3 X46.636 Y40.695 I-0.205 J0.243
G1 X46.565 Y40.693 Z16.808
X46.498 Y40.691 Z16.831
X46.438 Y40.689 Z16.869
X46.387 Y40.687 Z16.92
X46.35 Y40.686 Z16.98
X46.326 Y40.685 Z17.047
X46.318 Z17.118
Z20.3 F1500.0
X41.134 Y31.581
Z17.435
F300.0
Z17.118
X41.139 Y31.588 Z17.047
X41.152 Y31.607 Z16.98
X41.174 Y31.638 Z16.92
X41.203 Y31.679 Z16.869
X41.237 Y31.729 Z16.831
X41.275 Y31.784 Z16.808
X41.316 Y31.842 Z16.8
G3 X41.591 Y32.577 I-1.299 J0.904
G1 X41.61 Y32.844
X41.615 Y32.891
X41.626 Y33.041
X41.596 Y33.188
X41.544 Y33.329
X41.475 Y33.462
X41.393 Y33.587
X41.301 Y33.706
X41.201 Y33.818
X41.094 Y33.923
X40.982 Y34.022
X40.864 Y34.116
X40.743 Y34.204
X40.603 Y34.297
X40.444 Y34.393
X40.272 Y34.487
X40.054 Y34.595
X39.802 Y34.707
X39.486 Y34.831
X38.833 Y35.057
X38.185 Y35.301
X37.904 Y35.502
X37.684 Y35.768
X37.543 Y36.084
X37.49 Y36.426
X37.522 Y36.77
X37.625 Y37.1
X37.959 Y37.706
X38.478 Y38.163
X39.098 Y38.47
X39.765 Y38.654
X40.449 Y38.757
X41.138 Y38.811
X41.829 Y38.84
X42.521 Y38.854
X43.212 Y38.861
X43.904 Y38.865
X44.596 Y38.867
X44.881 Y38.871
X45.133 Y38.886
X45.256 Y38.898
X45.521 Y38.954
X45.766 Y39.067
X45.981 Y39.232
X46.154 Y39.439
X46.19 Y39.487
X46.284 Y39.596
X46.434 Y39.749
G3 X46.151 Y40.277 I-0.234 J0.215
G1 X46.081 Y40.266 Z16.808
X46.015 Y40.255 Z16.831
X45.955 Y40.246 Z16.869
X45.906 Y40.238 Z16.92
X45.868 Y40.232 Z16.98
X45.845 Y40.228 Z17.047
X45.837 Y40.227 Z17.118
Z20.3 F1500.0
X41.112 Y31.918
Z17.435
F300.0
Z17.118
X41.116 Y31.925 Z17.047
X41.131 Y31.943 Z16.98
X41.154 Y31.973 Z16.92
X41.184 Y32.013 Z16.869
X41.221 Y32.061 Z16.831
X41.262 Y32.114 Z16.808
X41.305 Y32.17 Z16.8
G3 X41.615 Y32.891 I-1.253 J0.966
G1 X41.629 Y33.001
X41.662 Y33.205
X41.679 Y33.355
X41.659 Y33.503
X41.616 Y33.647
X41.556 Y33.784
X41.482 Y33.915
X41.398 Y34.039
X41.305 Y34.157
X41.205 Y34.268
X41.098 Y34.374
X40.986 Y34.474
X40.87 Y34.568
X40.749 Y34.658
X40.626 Y34.743
X40.499 Y34.824
X40.37 Y34.9
X40.239 Y34.973
X40.106 Y35.042
X39.972 Y35.109
X39.836 Y35.173
X39.679 Y35.246
X39.534 Y35.339
X39.402 Y35.451
X39.288 Y35.581
X39.192 Y35.725
X39.117 Y35.88
X39.064 Y36.045
X39.034 Y36.215
X39.028 Y36.388
X39.045 Y36.56
X39.087 Y36.728
X39.15 Y36.889
X39.236 Y37.039
X39.446 Y37.313
X39.996 Y37.733
X40.634 Y38.002
X41.307 Y38.158
X41.994 Y38.241
X42.684 Y38.283
X43.376 Y38.304
X43.975 Y38.313
X44.125 Y38.317
X44.275 Y38.322
X44.425 Y38.328
X44.574 Y38.338
X44.724 Y38.351
X44.873 Y38.368
X45.021 Y38.392
X45.251 Y38.463
X45.464 Y38.577
X45.65 Y38.729
X45.804 Y38.914
X45.876 Y39.02
X46.154 Y39.439
G3 X45.774 Y39.903 I-0.271 J0.166
G1 X45.708 Y39.879 Z16.808
X45.645 Y39.855 Z16.831
X45.588 Y39.835 Z16.869
X45.541 Y39.817 Z16.92
X45.505 Y39.804 Z16.98
X45.483 Y39.796 Z17.047
X45.476 Y39.794 Z17.118
Z20.3 F1500.0
X41.119 Y32.254
Z17.435
F300.0
Z17.118
X41.124 Y32.26 Z17.047
X41.139 Y32.278 Z16.98
X41.163 Y32.307 Z16.92
X41.195 Y32.345 Z16.869
X41.234 Y32.392 Z16.831
X41.277 Y32.443 Z16.808
X41.323 Y32.497 Z16.8
G3 X41.662 Y33.205 I-1.213 J1.016
G1 X41.68 Y33.315
X41.709 Y33.472
X41.72 Y33.52
X41.747 Y33.667
X41.732 Y33.816
X41.694 Y33.962
X41.639 Y34.101
X41.571 Y34.234
X41.491 Y34.362
X41.403 Y34.483
X41.307 Y34.598
X41.205 Y34.708
X41.097 Y34.812
X40.968 Y34.927
X40.855 Y35.058
X40.761 Y35.203
X40.689 Y35.36
X40.638 Y35.526
X40.611 Y35.696
X40.607 Y35.869
X40.628 Y36.041
X40.672 Y36.208
X40.738 Y36.368
X40.913 Y36.666
X41.413 Y37.145
X42.028 Y37.46
X42.695 Y37.643
X43.38 Y37.739
X44.07 Y37.796
X44.317 Y37.822
X44.535 Y37.854
X44.685 Y37.883
X44.938 Y37.974
X45.166 Y38.116
X45.359 Y38.304
X45.517 Y38.497
X45.562 Y38.559
X45.804 Y38.914
G3 X45.43 Y39.383 I-0.269 J0.169
G1 X45.363 Y39.359 Z16.808
X45.3 Y39.337 Z16.831
X45.243 Y39.317 Z16.869
X45.196 Y39.3 Z16.92
X45.16 Y39.288 Z16.98
X45.138 Y39.28 Z17.047
X45.13 Y39.277 Z17.118
Z20.3 F1500.0
X41.114 Y32.607
Z17.435
F300.0
Z17.118
X41.119 Y32.613 Z17.047
X41.136 Y32.63 Z16.98
X41.162 Y32.657 Z16.92
X41.197 Y32.693 Z16.869
X41.238 Y32.737 Z16.831
X41.285 Y32.785 Z16.808
X41.334 Y32.836 Z16.8
G3 X41.72 Y33.52 I-1.141 J1.096
G1 X41.793 Y33.833
X41.826 Y33.979
X41.817 Y34.129
X41.784 Y34.275
X41.734 Y34.417
X41.623 Y34.744
X41.598 Y35.089
X41.657 Y35.43
X41.786 Y35.751
X42.163 Y36.331
X42.71 Y36.753
X43.345 Y37.028
X43.556 Y37.085
X43.681 Y37.126
X43.801 Y37.18
X43.915 Y37.246
G3 X43.749 Y37.822 I-0.183 J0.259
G1 X43.678 Y37.826 Z16.808
X43.611 Y37.83 Z16.831
X43.551 Y37.833 Z16.869
X43.501 Y37.836 Z16.92
X43.463 Y37.838 Z16.98
X43.44 Y37.839 Z17.047
X43.432 Z17.118
Z20.3 F1500.0
X41.149 Y32.947
Z17.435
F300.0
Z17.118
X41.155 Y32.952 Z17.047
X41.172 Y32.968 Z16.98
X41.199 Y32.995 Z16.92
X41.235 Y33.029 Z16.869
X41.279 Y33.071 Z16.831
X41.327 Y33.117 Z16.808
X41.378 Y33.166 Z16.8
G3 X41.793 Y33.833 I-1.094 J1.144
G1 X41.824 Y33.943
X41.87 Y34.068
X41.916 Y34.211
X42.078 Y34.884
X42.4 Y35.496
X42.46 Y35.574
X42.514 Y35.658
X42.561 Y35.745
G3 X42.396 Y36.166 I-0.29 J0.129
X41.977 Y35.995 I-0.125 J-0.292
G1 X41.283 Y34.31
G3 X41.456 Y33.895 I0.294 J-0.121
X41.87 Y34.068 I0.121 J0.294
G1 X42.173 Y34.885
X42.24 Y35.042
X42.421 Y35.452
X42.525 Y35.67
X42.601 Y35.827
X42.684 Y35.984
X42.893 Y36.316
X42.981 Y36.455
X43.05 Y36.537
X43.364 Y36.865
X43.434 Y36.926
X43.521 Y36.986
X43.992 Y37.296
X44.149 Y37.392
X44.463 Y37.542
X44.486 Y37.555
X44.76 Y37.712
X44.777 Y37.723
X45.026 Y37.92
X45.058 Y37.946
X45.091 Y37.979
X45.359 Y38.304
G3 X45.324 Y38.73 I-0.252 J0.193
