(Machine Setup)
G90  (Absolute Position Mode)
G21  (Units = millimeters)


;Segment Level: 3500.0
G0 X2.375 Y0.000 Z2.286 F1500
M4 S600 ;Laser on
F800
G1 X2.332 Y0.049
G1 X2.186 Y0.087
G1 X2.041 Y0.099
G1 X1.895 Y0.126
G1 X1.842 Y0.145
G1 X1.749 Y0.166
G1 X1.603 Y0.239
G1 X1.551 Y0.291
G1 X1.457 Y0.423
G1 X1.445 Y0.437
G1 X1.330 Y0.583
G1 X1.312 Y0.607
G1 X1.166 Y0.692
G1 X1.064 Y0.728
G1 X1.020 Y0.738
G1 X0.874 Y0.764
G1 X0.728 Y0.775
G1 X0.583 Y0.730
G1 X0.580 Y0.728
G1 X0.437 Y0.611
G1 X0.390 Y0.583
G1 X0.291 Y0.493
G1 X0.198 Y0.437
G1 X0.145 Y0.388
G1 X0.000 Y0.321
M5        ;Laser off

;Segment Level: 3500.0
G0 X53.739 Y85.000 Z2.286 F1500
M4 S600 ;Laser on
F800
G1 X53.905 Y84.125
G1 X54.118 Y83.687
G1 X54.382 Y83.389
G1 X54.299 Y83.104
G1 X53.845 Y82.521
G1 X53.698 Y81.792
G1 X53.429 Y79.605
G1 X52.778 Y77.126
G1 X52.632 Y76.742
G1 X52.049 Y76.455
G1 X51.612 Y76.296
G1 X50.883 Y76.626
G1 X50.445 Y76.717
G1 X50.008 Y76.724
G1 X49.690 Y76.397
G1 X49.425 Y76.248
G1 X47.474 Y76.543
G1 X46.946 Y76.797
G1 X46.319 Y76.543
G1 X45.488 Y75.839
G1 X45.197 Y75.787
G1 X44.905 Y75.627
G1 X43.885 Y75.607
G1 X43.301 Y75.481
G1 X41.989 Y75.282
G1 X41.391 Y75.085
G1 X41.066 Y74.794
G1 X40.823 Y74.747
G1 X40.385 Y74.681
G1 X39.948 Y74.726
G1 X39.219 Y74.406
G1 X38.735 Y73.919
G1 X38.636 Y73.435
G1 X38.332 Y73.627
G1 X37.469 Y74.451
G1 X36.740 Y74.611
G1 X36.303 Y74.319
G1 X36.012 Y74.156
G1 X35.853 Y74.502
G1 X35.623 Y74.939
G1 X35.283 Y75.051
G1 X32.658 Y75.095
G1 X31.929 Y74.911
G1 X31.492 Y74.791
G1 X30.749 Y74.648
G1 X30.377 Y74.356
G1 X30.208 Y73.919
G1 X30.034 Y73.742
G1 X29.451 Y74.140
G1 X29.159 Y74.307
G1 X28.430 Y74.163
G1 X27.993 Y73.881
G1 X27.555 Y73.060
G1 X26.535 Y73.654
G1 X25.660 Y73.364
G1 X24.056 Y72.646
G1 X23.698 Y72.315
G1 X23.556 Y71.878
G1 X23.547 Y71.440
G1 X23.327 Y71.352
G1 X22.598 Y71.269
G1 X22.262 Y70.857
G1 X22.015 Y70.705
G1 X21.286 Y70.652
G1 X20.823 Y70.274
G1 X19.534 Y68.379
G1 X19.391 Y68.141
G1 X19.070 Y67.795
G1 X18.370 Y66.797
G1 X17.349 Y67.978
G1 X16.912 Y68.101
G1 X15.372 Y67.358
G1 X14.990 Y66.921
G1 X14.612 Y66.046
G1 X14.633 Y65.463
G1 X14.579 Y65.004
G1 X14.288 Y64.718
G1 X13.413 Y64.352
G1 X12.949 Y64.005
G1 X11.226 Y61.226
G1 X10.789 Y60.736
G1 X9.523 Y58.464
G1 X9.424 Y57.444
G1 X10.084 Y54.236
G1 X10.156 Y53.799
G1 X10.295 Y52.924
G1 X10.615 Y52.195
G1 X11.013 Y51.612
G1 X10.934 Y51.001
G1 X10.823 Y50.300
G1 X11.188 Y49.571
G1 X11.372 Y48.066
G1 X11.663 Y47.675
G1 X11.880 Y47.384
G1 X11.984 Y47.092
G1 X12.290 Y46.801
G1 X12.530 Y46.217
G1 X12.333 Y45.197
G1 X12.437 Y44.614
G1 X12.747 Y44.176
G1 X13.779 Y43.156
G1 X13.903 Y42.718
G1 X13.785 Y42.281
G1 X13.718 Y41.843
G1 X14.010 Y41.114
G1 X14.421 Y40.385
G1 X14.579 Y39.919
G1 X15.162 Y39.174
G1 X15.440 Y38.927
G1 X15.344 Y38.636
G1 X15.500 Y37.615
G1 X16.548 Y36.012
G1 X17.264 Y34.845
G1 X17.351 Y34.262
G1 X17.933 Y33.280
G1 X18.370 Y32.909
G1 X18.700 Y32.658
G1 X19.134 Y31.929
G1 X19.974 Y31.015
G1 X21.286 Y30.289
G1 X22.348 Y29.742
G1 X23.221 Y28.576
G1 X23.541 Y28.284
G1 X23.779 Y28.138
G1 X24.154 Y27.701
G1 X24.230 Y27.409
G1 X24.493 Y27.216
G1 X24.785 Y27.213
G1 X25.093 Y27.118
G1 X25.514 Y26.925
G1 X26.073 Y26.680
G1 X26.488 Y26.389
G1 X26.738 Y26.243
G1 X27.016 Y26.097
G1 X27.413 Y25.951
G1 X27.701 Y25.707
G1 X28.576 Y25.539
G1 X28.867 Y25.593
G1 X29.159 Y25.575
G1 X29.892 Y25.806
G1 X31.997 Y24.785
G1 X32.466 Y24.202
G1 X32.804 Y24.007
G1 X33.241 Y23.928
G1 X33.436 Y23.910
G1 X34.262 Y23.168
G1 X34.845 Y22.988
G1 X35.428 Y22.925
G1 X35.866 Y22.641
G1 X36.303 Y22.475
G1 X37.462 Y22.322
G1 X37.462 Y22.322
M5        ;Laser off

;Segment Level: 3500.0
G0 X41.589 Y20.111 Z2.286 F1500
M4 S600 ;Laser on
F800
G1 X42.281 Y20.181
G1 X42.718 Y20.181
G1 X43.043 Y20.265
G1 X43.301 Y20.139
G1 X44.176 Y19.945
G1 X44.759 Y19.496
G1 X45.350 Y19.391
G1 X45.902 Y18.953
G1 X49.133 Y17.442
G1 X49.589 Y17.495
G1 X49.900 Y17.787
G1 X50.300 Y18.239
G1 X51.395 Y18.370
G1 X52.195 Y18.568
G1 X52.487 Y18.678
G1 X53.361 Y19.274
G1 X54.236 Y19.476
G1 X54.674 Y19.619
G1 X55.358 Y19.828
G1 X55.986 Y20.094
G1 X57.006 Y20.293
G1 X57.618 Y20.849
G1 X58.464 Y21.445
G1 X59.247 Y21.869
G1 X59.485 Y21.915
G1 X60.506 Y22.337
G1 X61.089 Y22.473
G1 X61.963 Y22.631
G1 X62.547 Y23.045
G1 X63.130 Y23.197
G1 X63.713 Y23.529
G1 X64.150 Y24.175
G1 X64.296 Y24.214
G1 X64.442 Y24.421
G1 X65.858 Y24.785
G1 X66.046 Y25.032
G1 X66.483 Y25.148
G1 X66.929 Y25.514
G1 X67.359 Y26.097
G1 X67.650 Y26.487
G1 X68.087 Y26.660
G1 X68.962 Y26.452
G1 X69.982 Y26.199
G1 X70.566 Y25.885
G1 X71.878 Y25.502
G1 X72.607 Y25.563
G1 X73.205 Y25.806
G1 X73.392 Y26.243
G1 X73.481 Y26.708
G1 X73.773 Y26.747
G1 X74.210 Y26.705
G1 X74.794 Y26.737
G1 X74.794 Y26.737
M5        ;Laser off

;Segment Level: 3500.0
G0 X49.716 Y3.605 Z2.286 F1500
M4 S600 ;Laser on
F800
G1 X49.762 Y3.644
G1 X49.771 Y3.790
G1 X49.748 Y3.936
G1 X49.728 Y4.082
G1 X49.716 Y4.169
G1 X49.708 Y4.228
G1 X49.676 Y4.373
G1 X49.613 Y4.519
G1 X49.571 Y4.581
G1 X49.474 Y4.665
G1 X49.425 Y4.694
G1 X49.279 Y4.743
G1 X49.133 Y4.748
G1 X48.987 Y4.687
G1 X48.946 Y4.665
G1 X48.842 Y4.617
G1 X48.696 Y4.532
G1 X48.675 Y4.519
G1 X48.550 Y4.454
G1 X48.404 Y4.375
G1 X48.401 Y4.373
G1 X48.259 Y4.265
G1 X48.220 Y4.228
G1 X48.147 Y4.082
G1 X48.259 Y3.965
G1 X48.281 Y3.936
G1 X48.404 Y3.820
G1 X48.479 Y3.790
G1 X48.550 Y3.767
G1 X48.696 Y3.788
G1 X48.707 Y3.790
G1 X48.842 Y3.822
G1 X48.987 Y3.846
G1 X49.133 Y3.859
G1 X49.279 Y3.848
G1 X49.375 Y3.790
G1 X49.425 Y3.765
G1 X49.571 Y3.678
G1 X49.648 Y3.644
G1 X49.716 Y3.605
M5        ;Laser off

;Segment Level: 4000.0
G0 X70.448 Y79.697 Z4.636 F1500
M4 S600 ;Laser on
F800
G1 X70.566 Y79.650
G1 X70.711 Y79.656
G1 X70.857 Y79.690
G1 X71.003 Y79.725
G1 X71.119 Y79.751
G1 X71.149 Y79.757
G1 X71.295 Y79.798
G1 X71.440 Y79.871
G1 X71.471 Y79.897
G1 X71.586 Y80.022
G1 X71.601 Y80.042
G1 X71.668 Y80.188
G1 X71.712 Y80.334
G1 X71.732 Y80.471
G1 X71.733 Y80.480
G1 X71.733 Y80.626
G1 X71.732 Y80.638
G1 X71.724 Y80.771
G1 X71.721 Y80.917
G1 X71.720 Y81.063
G1 X71.719 Y81.209
G1 X71.713 Y81.355
G1 X71.703 Y81.500
G1 X71.701 Y81.646
G1 X71.712 Y81.792
G1 X71.730 Y81.938
G1 X71.732 Y81.961
G1 X71.745 Y82.084
G1 X71.753 Y82.229
G1 X71.746 Y82.375
G1 X71.744 Y82.521
G1 X71.763 Y82.667
G1 X71.784 Y82.813
G1 X71.798 Y82.958
G1 X71.798 Y83.104
G1 X71.794 Y83.250
G1 X71.811 Y83.396
G1 X71.837 Y83.542
G1 X71.822 Y83.687
G1 X71.745 Y83.833
G1 X71.732 Y83.849
G1 X71.601 Y83.979
G1 X71.586 Y83.992
G1 X71.440 Y84.100
G1 X71.400 Y84.125
G1 X71.295 Y84.214
G1 X71.234 Y84.271
G1 X71.149 Y84.396
G1 X71.134 Y84.416
G1 X71.058 Y84.562
G1 X71.039 Y84.708
G1 X71.052 Y84.854
G1 X71.058 Y85.000
M5        ;Laser off

;Segment Level: 4000.0
G0 X18.908 Y61.071 Z4.636 F1500
M4 S600 ;Laser on
F800
G1 X18.662 Y61.072
G1 X18.491 Y60.943
G1 X18.370 Y60.284
G1 X17.407 Y59.922
G1 X16.852 Y59.485
G1 X16.333 Y58.756
G1 X15.985 Y57.735
G1 X15.680 Y55.548
G1 X15.805 Y54.090
G1 X16.410 Y52.195
G1 X16.564 Y51.612
G1 X16.786 Y50.591
G1 X17.058 Y50.388
G1 X17.501 Y50.154
G1 X17.659 Y49.862
G1 X17.385 Y48.842
G1 X17.866 Y46.217
G1 X18.327 Y45.488
G1 X18.747 Y44.468
G1 X18.725 Y44.030
G1 X18.780 Y43.593
G1 X18.771 Y43.156
G1 X19.148 Y41.989
G1 X19.888 Y40.531
G1 X20.265 Y39.507
G1 X20.557 Y39.162
G1 X20.994 Y38.846
G1 X21.146 Y38.636
G1 X21.600 Y38.198
G1 X21.598 Y37.761
G1 X21.869 Y37.307
G1 X22.162 Y36.886
G1 X22.309 Y36.303
G1 X22.715 Y35.720
G1 X23.664 Y34.699
G1 X24.931 Y34.031
G1 X25.514 Y33.763
G1 X26.972 Y33.533
G1 X28.138 Y34.090
G1 X28.867 Y32.840
G1 X29.305 Y32.862
G1 X30.180 Y33.018
G1 X30.617 Y32.581
G1 X31.376 Y32.658
G1 X31.492 Y32.342
G1 X31.645 Y31.346
G1 X31.783 Y31.142
G1 X32.512 Y31.022
G1 X33.567 Y31.054
G1 X33.476 Y30.471
G1 X33.096 Y29.809
G1 X32.830 Y29.305
G1 X32.972 Y29.013
G1 X33.533 Y28.690
G1 X34.145 Y28.430
G1 X34.699 Y27.931
G1 X35.398 Y27.701
G1 X35.866 Y27.475
G1 X36.740 Y27.334
G1 X38.053 Y26.680
G1 X38.490 Y26.691
G1 X39.511 Y26.896
G1 X39.802 Y26.608
G1 X40.385 Y25.976
G1 X40.823 Y25.764
G1 X41.406 Y25.653
G1 X42.281 Y25.683
G1 X42.718 Y25.710
G1 X43.885 Y25.671
G1 X45.051 Y25.903
G1 X45.518 Y26.243
G1 X46.363 Y26.927
G1 X46.655 Y26.963
G1 X47.530 Y26.363
G1 X48.404 Y26.456
G1 X49.133 Y26.922
G1 X49.279 Y27.124
G1 X49.456 Y27.118
G1 X49.862 Y26.882
G1 X50.737 Y26.670
G1 X52.487 Y26.460
G1 X53.070 Y26.633
G1 X53.666 Y26.972
G1 X54.335 Y27.701
G1 X54.531 Y27.847
G1 X54.965 Y28.021
G1 X55.717 Y28.576
G1 X55.783 Y28.867
G1 X55.694 Y29.900
G1 X56.277 Y29.842
G1 X57.006 Y29.723
G1 X57.590 Y29.930
G1 X58.173 Y30.362
G1 X59.056 Y31.492
G1 X59.161 Y31.929
G1 X59.043 Y33.241
G1 X59.048 Y33.462
G1 X59.339 Y33.488
G1 X60.360 Y33.272
G1 X60.797 Y33.463
G1 X61.573 Y34.262
G1 X62.068 Y35.137
G1 X62.537 Y36.740
G1 X62.317 Y37.324
G1 X63.042 Y37.761
G1 X63.327 Y38.198
G1 X63.506 Y39.365
G1 X63.859 Y41.065
G1 X64.076 Y41.406
G1 X64.552 Y43.885
G1 X64.465 Y44.176
G1 X64.442 Y44.631
G1 X64.045 Y44.905
G1 X65.211 Y47.092
G1 X65.228 Y48.259
G1 X65.022 Y49.571
G1 X64.734 Y49.803
G1 X64.427 Y50.008
G1 X64.957 Y50.737
G1 X64.987 Y51.029
G1 X64.588 Y51.911
G1 X64.342 Y52.195
G1 X64.678 Y53.216
G1 X64.633 Y54.528
G1 X64.492 Y55.257
G1 X64.261 Y55.840
G1 X63.306 Y57.006
G1 X62.916 Y58.319
G1 X62.061 Y60.068
G1 X61.778 Y60.797
G1 X61.380 Y61.019
G1 X60.651 Y61.178
G1 X60.211 Y61.234
G1 X59.631 Y61.469
G1 X59.471 Y61.526
G1 X59.193 Y62.237
G1 X58.319 Y62.669
G1 X56.277 Y62.845
G1 X55.403 Y62.518
G1 X54.732 Y62.401
G1 X54.599 Y62.838
G1 X54.236 Y63.175
G1 X53.945 Y63.782
G1 X53.338 Y63.859
G1 X53.335 Y65.025
G1 X53.166 Y65.463
G1 X52.778 Y65.773
G1 X52.195 Y65.958
G1 X50.300 Y65.966
G1 X49.571 Y65.752
G1 X48.842 Y65.355
G1 X48.404 Y65.277
G1 X48.113 Y65.468
G1 X47.384 Y65.916
G1 X46.946 Y66.072
G1 X46.509 Y66.254
G1 X45.343 Y66.758
G1 X44.759 Y66.918
G1 X43.739 Y66.987
G1 X43.156 Y67.058
G1 X42.572 Y66.912
G1 X41.989 Y66.736
G1 X41.698 Y66.834
G1 X41.406 Y66.917
G1 X40.969 Y66.697
G1 X40.240 Y66.380
G1 X40.034 Y66.629
G1 X39.948 Y66.808
G1 X39.656 Y66.800
G1 X39.219 Y66.437
G1 X38.392 Y65.608
G1 X38.198 Y65.501
G1 X38.053 Y65.817
G1 X37.615 Y68.136
G1 X37.178 Y68.108
G1 X36.740 Y67.873
G1 X36.303 Y67.668
G1 X36.116 Y67.795
G1 X35.979 Y68.379
G1 X35.866 Y68.718
G1 X35.574 Y68.896
G1 X34.699 Y69.037
G1 X33.533 Y69.487
G1 X32.658 Y69.499
G1 X31.929 Y69.337
G1 X30.909 Y69.042
G1 X29.888 Y68.940
G1 X29.451 Y68.773
G1 X29.159 Y68.532
G1 X28.123 Y68.524
G1 X26.535 Y67.541
G1 X25.540 Y67.358
G1 X24.564 Y66.629
G1 X24.202 Y66.404
G1 X23.866 Y66.192
G1 X23.473 Y65.881
G1 X23.156 Y65.608
G1 X22.572 Y64.904
G1 X22.572 Y64.904
M5        ;Laser off

;Segment Level: 4500.0
G0 X23.971 Y42.402 Z6.985 F1500
M4 S600 ;Laser on
F800
G1 X24.234 Y41.989
G1 X24.639 Y41.472
G1 X25.891 Y39.802
G1 X26.535 Y38.974
G1 X27.701 Y37.978
G1 X28.284 Y37.819
G1 X30.180 Y38.637
G1 X30.617 Y38.709
G1 X30.773 Y38.636
G1 X30.909 Y37.935
G1 X31.200 Y36.368
G1 X31.492 Y36.198
G1 X32.221 Y35.865
G1 X32.658 Y35.540
G1 X33.833 Y35.283
G1 X34.191 Y34.845
G1 X34.554 Y34.758
G1 X35.137 Y34.718
G1 X35.439 Y34.699
G1 X35.643 Y34.262
G1 X36.012 Y33.288
G1 X36.595 Y32.651
G1 X37.212 Y32.221
G1 X38.490 Y31.535
G1 X41.843 Y30.469
G1 X43.739 Y30.355
G1 X45.051 Y30.551
G1 X46.969 Y31.054
G1 X47.821 Y31.091
G1 X49.133 Y31.181
G1 X50.154 Y31.160
G1 X51.174 Y31.152
G1 X52.215 Y32.075
G1 X52.350 Y32.658
G1 X52.541 Y33.387
G1 X52.924 Y33.998
G1 X53.507 Y33.926
G1 X54.090 Y33.895
G1 X54.382 Y34.131
G1 X54.674 Y34.631
G1 X54.916 Y35.574
G1 X54.965 Y36.366
G1 X55.035 Y36.595
G1 X54.930 Y37.032
G1 X55.111 Y37.114
G1 X56.252 Y37.324
G1 X56.478 Y37.469
G1 X56.898 Y38.198
G1 X57.090 Y39.073
G1 X57.298 Y40.685
G1 X57.590 Y41.054
G1 X57.670 Y41.406
G1 X57.671 Y42.135
G1 X57.220 Y43.447
G1 X57.095 Y43.739
G1 X57.317 Y44.176
G1 X57.799 Y45.488
G1 X57.896 Y45.780
G1 X57.961 Y46.217
G1 X57.772 Y48.113
G1 X57.372 Y49.133
G1 X57.298 Y49.598
G1 X57.009 Y50.445
G1 X56.715 Y51.295
G1 X56.523 Y51.758
G1 X56.896 Y52.487
G1 X56.944 Y53.070
G1 X56.713 Y53.653
G1 X56.277 Y54.154
G1 X55.694 Y54.458
G1 X55.028 Y54.819
G1 X54.811 Y55.111
G1 X54.090 Y55.451
G1 X53.784 Y55.548
G1 X53.653 Y55.856
G1 X53.070 Y56.108
G1 X52.632 Y56.102
G1 X52.341 Y56.162
G1 X51.320 Y56.548
G1 X51.029 Y56.523
G1 X50.737 Y56.952
G1 X50.154 Y57.744
G1 X49.279 Y57.983
G1 X48.842 Y57.873
G1 X48.259 Y57.592
G1 X48.070 Y57.735
G1 X47.916 Y58.756
G1 X47.530 Y59.205
G1 X47.068 Y59.631
G1 X46.440 Y60.360
G1 X45.855 Y61.089
G1 X45.343 Y61.482
G1 X44.322 Y61.845
G1 X43.156 Y61.943
G1 X40.823 Y62.041
G1 X38.411 Y61.818
G1 X38.053 Y61.663
G1 X37.469 Y61.829
G1 X37.123 Y61.963
G1 X36.765 Y61.672
G1 X36.716 Y61.672
G1 X36.438 Y61.963
G1 X36.012 Y62.255
G1 X35.428 Y62.375
G1 X34.408 Y62.457
G1 X32.221 Y62.731
G1 X30.281 Y62.401
G1 X29.888 Y62.348
G1 X28.430 Y62.010
G1 X27.701 Y61.737
G1 X26.535 Y61.063
G1 X25.660 Y60.249
G1 X24.639 Y59.026
G1 X23.607 Y57.298
G1 X23.059 Y56.423
G1 X22.707 Y55.840
G1 X22.307 Y55.436
G1 X21.708 Y55.111
G1 X21.712 Y54.528
G1 X22.138 Y51.903
G1 X21.927 Y49.083
G1 X21.927 Y49.083
M5        ;Laser off

;Segment Level: 5000.0
G0 X30.565 Y41.905 Z9.335 F1500
M4 S600 ;Laser on
F800
G1 X31.200 Y41.996
G1 X33.096 Y41.797
G1 X33.294 Y41.406
G1 X33.463 Y40.531
G1 X33.533 Y39.647
G1 X33.970 Y39.160
G1 X36.012 Y37.886
G1 X37.055 Y37.324
G1 X39.219 Y35.572
G1 X40.142 Y35.137
G1 X41.114 Y34.785
G1 X41.843 Y34.596
G1 X43.156 Y34.427
G1 X45.051 Y34.615
G1 X46.801 Y35.007
G1 X47.530 Y35.179
G1 X48.725 Y35.574
G1 X49.939 Y36.449
G1 X51.099 Y37.615
G1 X51.595 Y38.198
G1 X51.711 Y38.344
G1 X52.214 Y39.511
G1 X52.632 Y39.932
G1 X53.080 Y40.531
G1 X53.397 Y42.135
G1 X53.398 Y42.572
G1 X53.162 Y43.593
G1 X53.455 Y46.217
G1 X53.070 Y48.875
G1 X52.778 Y49.192
G1 X52.341 Y49.616
G1 X50.143 Y52.195
G1 X49.279 Y52.928
G1 X47.530 Y54.213
G1 X46.655 Y54.242
G1 X46.217 Y54.258
G1 X45.780 Y54.409
G1 X45.530 Y54.528
G1 X45.108 Y55.694
G1 X44.614 Y56.585
G1 X44.176 Y56.886
G1 X42.427 Y57.542
G1 X40.240 Y57.689
G1 X39.073 Y57.624
G1 X37.032 Y57.338
G1 X36.449 Y57.348
G1 X35.283 Y57.419
G1 X32.950 Y57.242
G1 X30.617 Y56.504
G1 X29.888 Y56.132
G1 X28.996 Y55.403
G1 X26.947 Y53.361
G1 X26.662 Y52.778
G1 X26.519 Y51.758
G1 X26.284 Y48.113
G1 X26.415 Y47.092
G1 X26.817 Y45.692
G1 X26.817 Y45.692
M5        ;Laser off

;Segment Level: 5500.0
G0 X40.747 Y38.741 Z11.685 F1500
M4 S600 ;Laser on
F800
G1 X41.843 Y38.450
G1 X43.301 Y38.291
G1 X44.468 Y38.467
G1 X45.634 Y38.791
G1 X46.765 Y39.365
G1 X47.299 Y39.802
G1 X48.770 Y41.698
G1 X48.906 Y42.427
G1 X48.987 Y43.202
G1 X49.210 Y44.468
G1 X49.199 Y46.217
G1 X48.987 Y46.867
G1 X48.069 Y48.404
G1 X47.530 Y49.033
G1 X45.838 Y50.445
G1 X44.759 Y50.919
G1 X43.181 Y51.758
G1 X42.427 Y53.125
G1 X41.884 Y53.507
G1 X41.406 Y53.728
G1 X40.240 Y53.886
G1 X39.511 Y53.867
G1 X38.636 Y53.796
G1 X37.761 Y53.635
G1 X37.324 Y53.618
G1 X36.303 Y53.718
G1 X35.137 Y53.690
G1 X34.092 Y53.361
G1 X32.296 Y52.487
G1 X31.492 Y51.932
G1 X31.022 Y51.466
G1 X30.657 Y50.737
G1 X30.429 Y49.571
G1 X30.490 Y48.550
G1 X30.827 Y47.238
G1 X31.379 Y46.072
G1 X32.075 Y45.114
G1 X32.512 Y44.795
G1 X32.950 Y44.821
G1 X33.533 Y44.851
G1 X33.970 Y44.682
G1 X35.336 Y43.739
G1 X35.476 Y43.301
G1 X35.596 Y42.572
G1 X35.866 Y41.778
G1 X36.449 Y41.311
G1 X36.523 Y41.260
G1 X36.523 Y41.260
M5        ;Laser off

;Segment Level: 6000.0
G0 X35.971 Y50.352 Z14.034 F1500
M4 S600 ;Laser on
F800
G1 X34.612 Y49.716
G1 X34.194 Y49.279
G1 X34.085 Y48.842
G1 X34.177 Y48.259
G1 X34.437 Y47.675
G1 X34.845 Y47.190
G1 X37.641 Y45.197
G1 X37.922 Y44.614
G1 X38.326 Y43.593
G1 X39.219 Y43.024
G1 X41.552 Y42.041
G1 X42.281 Y41.904
G1 X43.156 Y41.964
G1 X43.885 Y42.250
G1 X44.322 Y42.647
G1 X45.108 Y43.739
G1 X45.383 Y44.468
G1 X45.404 Y44.905
G1 X45.197 Y45.371
G1 X43.978 Y46.946
G1 X42.718 Y48.181
G1 X41.072 Y49.862
G1 X40.677 Y50.314
G1 X40.430 Y50.407
G1 X40.430 Y50.407
M5        ;Laser off

;Segment Level: 6439.0
G0 X39.802 Y47.174 Z16.097 F1500
M4 S600 ;Laser on
F800
G1 X39.816 Y47.238
G1 X39.802 Y47.270
G1 X39.736 Y47.238
G1 X39.802 Y47.174
M5        ;Laser off

; Contour Label: 3500
(Text: "3500")
G0 X37.138 Y19.425 F3000.0
G0 Z2.287
G1 F800.0
(Character: 3)
F3000.0
G0 X37.173 Y20.808 Z1.905
M4 S800.0 (Laser on @ 80%)
F800.0
G1 X37.462 Y20.553 Z1.866
G1 X37.836 Y20.608 Z1.957
G1 X37.962 Y21.074 Z2.152
G1 X37.839 Y21.280 Z2.204
G1 X37.507 Y21.381 Z2.178
M5        (Laser off)
F3000.0
G0 X37.839 Y21.280 Z2.204
M4 S800.0 (Laser on @ 80%)
F800.0
G1 X38.046 Y21.385 Z2.282
G1 X38.130 Y21.697 Z2.412
G1 X37.840 Y21.952 Z2.451
G1 X37.466 Y21.898 Z2.360
M5        (Laser off)
F3000.0
(Character: 5)
F3000.0
G0 X39.332 Y21.500 Z2.568
M4 S800.0 (Laser on @ 80%)
F800.0
G1 X38.669 Y21.702 Z2.516
G1 X38.502 Y21.079 Z2.256
G1 X38.833 Y20.978 Z2.282
G1 X39.081 Y20.568 Z2.178
G1 X38.997 Y20.257 Z2.048
G1 X38.789 Y20.152 Z1.970
G1 X38.291 Y20.301 Z1.931
M5        (Laser off)
F3000.0
(Character: 0)
F3000.0
G0 X39.494 Y20.106 Z2.087
M4 S800.0 (Laser on @ 80%)
F800.0
G1 X39.788 Y21.194 Z2.542
G1 X39.996 Y21.299 Z2.620
G1 X40.327 Y21.200 Z2.646
G1 X40.451 Y20.994 Z2.594
G1 X40.157 Y19.904 Z2.139
G1 X39.950 Y19.799 Z2.061
G1 X39.618 Y19.900 Z2.035
G1 X39.494 Y20.106 Z2.087
M5        (Laser off)
F3000.0
(Character: 0)
F3000.0
G0 X40.655 Y19.754 Z2.178
M4 S800.0 (Laser on @ 80%)
F800.0
G1 X40.948 Y20.844 Z2.634
G1 X41.156 Y20.949 Z2.712
G1 X41.488 Y20.848 Z2.737
G1 X41.612 Y20.643 Z2.685
G1 X41.318 Y19.554 Z2.230
G1 X41.110 Y19.449 Z2.152
G1 X40.779 Y19.549 Z2.126
G1 X40.655 Y19.754 Z2.178
M5        (Laser off)
F3000.0
M5        (Laser off)

; Contour Label: 4000
(Text: "4000")
G0 X67.217 Y80.442 F3000.0
G0 Z4.636
G1 F800.0
(Character: 4)
F3000.0
G0 X67.917 Y84.601 Z4.626
M4 S800.0 (Laser on @ 80%)
F800.0
G1 X67.441 Y84.155 Z4.386
G1 X67.893 Y83.634 Z4.455
M5        (Laser off)
F3000.0
G0 X68.369 Y84.079 Z4.694
M4 S800.0 (Laser on @ 80%)
F800.0
G1 X67.297 Y83.076 Z4.154
M5        (Laser off)
F3000.0
(Character: 0)
F3000.0
G0 X67.757 Y82.796 Z4.266
M4 S800.0 (Laser on @ 80%)
F800.0
G1 X68.591 Y83.576 Z4.686
G1 X68.823 Y83.557 Z4.763
G1 X69.051 Y83.296 Z4.798
G1 X69.044 Y83.053 Z4.755
G1 X68.210 Y82.275 Z4.335
G1 X67.978 Y82.294 Z4.258
G1 X67.752 Y82.555 Z4.224
G1 X67.757 Y82.796 Z4.266
M5        (Laser off)
F3000.0
(Character: 0)
F3000.0
G0 X68.550 Y81.882 Z4.386
M4 S800.0 (Laser on @ 80%)
F800.0
G1 X69.384 Y82.662 Z4.806
G1 X69.617 Y82.643 Z4.883
G1 X69.843 Y82.382 Z4.918
G1 X69.838 Y82.141 Z4.875
G1 X69.003 Y81.361 Z4.455
G1 X68.771 Y81.380 Z4.378
G1 X68.545 Y81.641 Z4.344
G1 X68.550 Y81.882 Z4.386
M5        (Laser off)
F3000.0
(Character: 0)
F3000.0
G0 X69.344 Y80.970 Z4.506
M4 S800.0 (Laser on @ 80%)
F800.0
G1 X70.178 Y81.748 Z4.926
G1 X70.410 Y81.729 Z5.003
G1 X70.638 Y81.468 Z5.038
G1 X70.632 Y81.227 Z4.995
G1 X69.797 Y80.447 Z4.575
G1 X69.566 Y80.466 Z4.498
G1 X69.339 Y80.727 Z4.464
G1 X69.344 Y80.970 Z4.506
M5        (Laser off)
F3000.0
M5        (Laser off)

; Contour Label: 4000
(Text: "4000")
G0 X18.680 Y60.906 F3000.0
G0 Z4.636
G1 F800.0
(Character: 4)
F3000.0
G0 X22.863 Y63.439 Z5.332
M4 S800.0 (Laser on @ 80%)
F800.0
G1 X22.528 Y63.958 Z5.015
G1 X21.992 Y63.534 Z4.887
M5        (Laser off)
F3000.0
G0 X22.327 Y63.014 Z5.204
M4 S800.0 (Laser on @ 80%)
F800.0
G1 X21.573 Y64.183 Z4.490
M5        (Laser off)
F3000.0
(Character: 0)
F3000.0
G0 X21.255 Y63.736 Z4.473
M4 S800.0 (Laser on @ 80%)
F800.0
G1 X21.842 Y62.827 Z5.028
G1 X21.791 Y62.591 Z5.076
G1 X21.523 Y62.378 Z5.012
G1 X21.306 Y62.402 Z4.901
G1 X20.719 Y63.312 Z4.345
G1 X20.769 Y63.547 Z4.298
G1 X21.037 Y63.759 Z4.362
G1 X21.255 Y63.736 Z4.473
M5        (Laser off)
F3000.0
(Character: 0)
F3000.0
G0 X20.317 Y62.994 Z4.249
M4 S800.0 (Laser on @ 80%)
F800.0
G1 X20.904 Y62.085 Z4.805
G1 X20.854 Y61.849 Z4.852
G1 X20.586 Y61.636 Z4.788
G1 X20.368 Y61.662 Z4.676
G1 X19.782 Y62.571 Z4.121
G1 X19.832 Y62.807 Z4.074
G1 X20.100 Y63.017 Z4.138
G1 X20.317 Y62.994 Z4.249
M5        (Laser off)
F3000.0
(Character: 0)
F3000.0
G0 X19.380 Y62.253 Z4.025
M4 S800.0 (Laser on @ 80%)
F800.0
G1 X19.966 Y61.343 Z4.580
G1 X19.917 Y61.108 Z4.628
G1 X19.649 Y60.896 Z4.564
G1 X19.431 Y60.920 Z4.452
G1 X18.844 Y61.828 Z3.897
G1 X18.895 Y62.064 Z3.850
G1 X19.163 Y62.276 Z3.914
G1 X19.380 Y62.253 Z4.025
M5        (Laser off)
F3000.0
M5        (Laser off)

; Contour Label: 4500
(Text: "4500")
G0 X21.054 Y43.219 F3000.0
G0 Z6.985
G1 F800.0
(Character: 4)
F3000.0
G0 X22.030 Y47.665 Z7.114
M4 S800.0 (Laser on @ 80%)
F800.0
G1 X21.516 Y47.351 Z6.765
G1 X21.848 Y46.743 Z6.827
M5        (Laser off)
F3000.0
G0 X22.360 Y47.057 Z7.176
M4 S800.0 (Laser on @ 80%)
F800.0
G1 X21.207 Y46.350 Z6.392
M5        (Laser off)
F3000.0
(Character: 5)
F3000.0
G0 X22.939 Y45.992 Z7.284
M4 S800.0 (Laser on @ 80%)
F800.0
G1 X22.608 Y46.601 Z7.222
G1 X22.096 Y46.286 Z6.874
G1 X22.261 Y45.982 Z6.905
G1 X22.169 Y45.522 Z6.761
G1 X21.913 Y45.364 Z6.587
G1 X21.703 Y45.437 Z6.485
G1 X21.455 Y45.894 Z6.439
M5        (Laser off)
F3000.0
(Character: 0)
F3000.0
G0 X22.161 Y44.909 Z6.634
M4 S800.0 (Laser on @ 80%)
F800.0
G1 X23.059 Y45.458 Z7.243
G1 X23.269 Y45.385 Z7.346
G1 X23.435 Y45.081 Z7.377
G1 X23.390 Y44.850 Z7.305
G1 X22.492 Y44.300 Z6.695
G1 X22.281 Y44.373 Z6.593
G1 X22.116 Y44.677 Z6.562
G1 X22.161 Y44.909 Z6.634
M5        (Laser off)
F3000.0
(Character: 0)
F3000.0
G0 X22.740 Y43.844 Z6.742
M4 S800.0 (Laser on @ 80%)
F800.0
G1 X23.638 Y44.394 Z7.352
G1 X23.848 Y44.320 Z7.454
G1 X24.013 Y44.017 Z7.485
G1 X23.968 Y43.785 Z7.413
G1 X23.071 Y43.236 Z6.804
G1 X22.860 Y43.309 Z6.701
G1 X22.694 Y43.613 Z6.670
G1 X22.740 Y43.844 Z6.742
M5        (Laser off)
F3000.0
M5        (Laser off)

; Contour Label: 5000
(Text: "5000")
G0 X26.265 Y41.421 F3000.0
G0 Z9.335
G1 F800.0
(Character: 5)
F3000.0
G0 X27.635 Y44.511 Z9.504
M4 S800.0 (Laser on @ 80%)
F800.0
G1 X27.047 Y44.875 Z9.439
G1 X26.733 Y44.319 Z9.166
G1 X27.027 Y44.137 Z9.198
G1 X27.164 Y43.676 Z9.094
G1 X27.007 Y43.398 Z8.958
G1 X26.782 Y43.350 Z8.874
G1 X26.340 Y43.622 Z8.825
M5        (Laser off)
F3000.0
(Character: 0)
F3000.0
G0 X27.448 Y43.125 Z9.006
M4 S800.0 (Laser on @ 80%)
F800.0
G1 X27.998 Y44.099 Z9.484
G1 X28.224 Y44.148 Z9.569
G1 X28.518 Y43.966 Z9.601
G1 X28.587 Y43.736 Z9.549
G1 X28.037 Y42.761 Z9.071
G1 X27.811 Y42.713 Z8.987
G1 X27.517 Y42.895 Z8.954
G1 X27.448 Y43.125 Z9.006
M5        (Laser off)
F3000.0
(Character: 0)
F3000.0
G0 X28.478 Y42.489 Z9.120
M4 S800.0 (Laser on @ 80%)
F800.0
G1 X29.028 Y43.462 Z9.598
G1 X29.253 Y43.510 Z9.682
G1 X29.547 Y43.328 Z9.714
G1 X29.616 Y43.098 Z9.662
G1 X29.067 Y42.125 Z9.185
G1 X28.841 Y42.077 Z9.101
G1 X28.547 Y42.258 Z9.068
G1 X28.478 Y42.489 Z9.120
M5        (Laser off)
F3000.0
(Character: 0)
F3000.0
G0 X29.508 Y41.851 Z9.234
M4 S800.0 (Laser on @ 80%)
F800.0
G1 X30.058 Y42.826 Z9.711
G1 X30.284 Y42.874 Z9.796
G1 X30.578 Y42.692 Z9.828
G1 X30.646 Y42.462 Z9.776
G1 X30.096 Y41.488 Z9.299
G1 X29.871 Y41.439 Z9.214
G1 X29.576 Y41.621 Z9.182
G1 X29.508 Y41.851 Z9.234
M5        (Laser off)
F3000.0
M5        (Laser off)

; Contour Label: 5500
(Text: "5500")
G0 X36.356 Y38.572 F3000.0
G0 Z11.684
G1 F800.0
(Character: 5)
F3000.0
G0 X37.471 Y41.087 Z12.013
M4 S800.0 (Laser on @ 80%)
F800.0
G1 X36.825 Y41.335 Z11.946
G1 X36.668 Y40.809 Z11.520
G1 X36.990 Y40.685 Z11.553
G1 X37.234 Y40.298 Z11.374
G1 X37.156 Y40.036 Z11.161
G1 X36.954 Y39.967 Z11.037
G1 X36.470 Y40.152 Z10.986
M5        (Laser off)
F3000.0
(Character: 5)
F3000.0
G0 X38.601 Y40.652 Z12.131
M4 S800.0 (Laser on @ 80%)
F800.0
G1 X37.955 Y40.900 Z12.064
G1 X37.798 Y40.375 Z11.638
G1 X38.120 Y40.251 Z11.671
G1 X38.364 Y39.864 Z11.491
G1 X38.286 Y39.601 Z11.278
G1 X38.084 Y39.532 Z11.155
G1 X37.600 Y39.718 Z11.104
M5        (Laser off)
F3000.0
(Character: 0)
F3000.0
G0 X38.769 Y39.414 Z11.328
M4 S800.0 (Laser on @ 80%)
F800.0
G1 X39.046 Y40.334 Z12.075
G1 X39.248 Y40.404 Z12.199
G1 X39.569 Y40.280 Z12.232
G1 X39.692 Y40.086 Z12.143
G1 X39.415 Y39.166 Z11.396
G1 X39.213 Y39.097 Z11.273
G1 X38.892 Y39.221 Z11.239
G1 X38.769 Y39.414 Z11.328
M5        (Laser off)
F3000.0
(Character: 0)
F3000.0
G0 X39.899 Y38.980 Z11.446
M4 S800.0 (Laser on @ 80%)
F800.0
G1 X40.176 Y39.900 Z12.193
G1 X40.376 Y39.969 Z12.316
G1 X40.699 Y39.845 Z12.349
G1 X40.822 Y39.651 Z12.260
G1 X40.545 Y38.731 Z11.513
G1 X40.344 Y38.662 Z11.390
G1 X40.022 Y38.787 Z11.357
G1 X39.899 Y38.980 Z11.446
M5        (Laser off)
F3000.0
M5        (Laser off)

; Contour Label: 6000
(Text: "6000")
G0 X36.015 Y49.649 F3000.0
G0 Z14.035
G1 F800.0
(Character: 6)
F3000.0
G0 X39.663 Y49.823 Z14.519
M4 S800.0 (Laser on @ 80%)
F800.0
G1 X40.010 Y49.817 Z14.519
G1 X40.363 Y50.083 Z14.305
G1 X40.379 Y50.902 Z13.661
G1 X40.206 Y51.042 Z13.553
G1 X39.859 Y51.049 Z13.553
G1 X39.680 Y50.779 Z13.768
G1 X39.679 Y50.643 Z13.875
G1 X40.020 Y50.363 Z14.090
G1 X40.371 Y50.493 Z13.983
M5        (Laser off)
F3000.0
(Character: 0)
F3000.0
G0 X39.162 Y50.924 Z13.660
M4 S800.0 (Laser on @ 80%)
F800.0
G1 X39.144 Y49.968 Z14.412
G1 X38.969 Y49.835 Z14.519
G1 X38.622 Y49.842 Z14.519
G1 X38.449 Y49.981 Z14.412
G1 X38.468 Y50.937 Z13.660
G1 X38.643 Y51.070 Z13.553
G1 X38.991 Y51.064 Z13.553
G1 X39.162 Y50.924 Z13.660
M5        (Laser off)
F3000.0
(Character: 0)
F3000.0
G0 X37.946 Y50.946 Z13.660
M4 S800.0 (Laser on @ 80%)
F800.0
G1 X37.928 Y49.990 Z14.412
G1 X37.752 Y49.857 Z14.519
G1 X37.405 Y49.863 Z14.519
G1 X37.233 Y50.003 Z14.411
G1 X37.251 Y50.959 Z13.660
G1 X37.427 Y51.092 Z13.553
G1 X37.774 Y51.086 Z13.553
G1 X37.946 Y50.946 Z13.660
M5        (Laser off)
F3000.0
(Character: 0)
F3000.0
G0 X36.730 Y50.968 Z13.660
M4 S800.0 (Laser on @ 80%)
F800.0
G1 X36.712 Y50.012 Z14.412
G1 X36.536 Y49.879 Z14.519
G1 X36.189 Y49.885 Z14.519
G1 X36.017 Y50.025 Z14.411
G1 X36.035 Y50.981 Z13.660
G1 X36.211 Y51.114 Z13.553
G1 X36.558 Y51.108 Z13.552
G1 X36.730 Y50.968 Z13.660
M5        (Laser off)
F3000.0
M5        (Laser off)
M2  ; Job Complete